(G-CODE GENERATED BY FLATCAM v8.994 - www.flatcam.org - Version Date: 2020/11/7)

(Name: SolarAmp.drl_cnc)
(Type: G-code from Geometry)
(Units: MM)

(Created on Friday, 28 June 2024 at 14:54)

(This preprocessor is the default preprocessor used by FlatCAM.)
(It is made to work with MACH3 compatible motion controllers.)


(TOOLS DIAMETER: )
(Tool: 1 -> Dia: 1.0)

(FEEDRATE Z: )
(Tool: 1 -> Feedrate: 300)

(FEEDRATE RAPIDS: )
(Tool: 1 -> Feedrate Rapids: 1500)

(Z_CUT: )
(Tool: 1 -> Z_Cut: -1.8)

(Tools Offset: )
(Tool: 1 -> Offset Z: 0.0)

(Z_MOVE: )
(Tool: 1 -> Z_Move: 2.0)

(Z Toolchange: 15 mm)
(X,Y Toolchange: 0.0000, 0.0000 mm)
(Z Start: None mm)
(Z End: 0.5 mm)
(X,Y End: None mm)
(Steps per circle: 64)
(Preprocessor Excellon: default)

(X range:    2.2500 ...   46.7500  mm)
(Y range:    1.2100 ...   17.2500  mm)

(Spindle Speed: 0 RPM)
G21
G90
G94

G01 F300.00

M5
G00 Z15.0000
T1
G00 X0.0000 Y0.0000                
M6
(MSG, Change to Tool Dia = 1.0000 ||| Total drills for tool T1 = 38)
M0
G00 Z15.0000

G01 F300.00
M03
G00 X2.7500 Y9.3300
G01 Z-1.8000
G01 Z0
G00 Z2.0000
G00 X2.7500 Y6.7900
G01 Z-1.8000
G01 Z0
G00 Z2.0000
G00 X2.7500 Y4.2500
G01 Z-1.8000
G01 Z0
G00 Z2.0000
G00 X2.7500 Y1.7100
G01 Z-1.8000
G01 Z0
G00 Z2.0000
G00 X6.1700 Y1.7500
G01 Z-1.8000
G01 Z0
G00 Z2.0000
G00 X6.1700 Y5.2500
G01 Z-1.8000
G01 Z0
G00 Z2.0000
G00 X6.1700 Y8.7500
G01 Z-1.8000
G01 Z0
G00 Z2.0000
G00 X16.3300 Y8.7500
G01 Z-1.8000
G01 Z0
G00 Z2.0000
G00 X23.0000 Y9.2500
G01 Z-1.8000
G01 Z0
G00 Z2.0000
G00 X18.8400 Y5.2500
G01 Z-1.8000
G01 Z0
G00 Z2.0000
G00 X16.3300 Y5.2500
G01 Z-1.8000
G01 Z0
G00 Z2.0000
G00 X16.3300 Y1.7500
G01 Z-1.8000
G01 Z0
G00 Z2.0000
G00 X18.7500 Y1.7500
G01 Z-1.8000
G01 Z0
G00 Z2.0000
G00 X23.7500 Y1.7500
G01 Z-1.8000
G01 Z0
G00 Z2.0000
G00 X33.0950 Y1.7500
G01 Z-1.8000
G01 Z0
G00 Z2.0000
G00 X43.2550 Y1.7500
G01 Z-1.8000
G01 Z0
G00 Z2.0000
G00 X41.5450 Y5.7500
G01 Z-1.8000
G01 Z0
G00 Z2.0000
G00 X41.5450 Y8.2900
G01 Z-1.8000
G01 Z0
G00 Z2.0000
G00 X46.2500 Y8.2500
G01 Z-1.8000
G01 Z0
G00 Z2.0000
G00 X46.2500 Y10.7500
G01 Z-1.8000
G01 Z0
G00 Z2.0000
G00 X41.5450 Y10.8300
G01 Z-1.8000
G01 Z0
G00 Z2.0000
G00 X41.5450 Y13.3700
G01 Z-1.8000
G01 Z0
G00 Z2.0000
G00 X33.9250 Y13.3700
G01 Z-1.8000
G01 Z0
G00 Z2.0000
G00 X33.9250 Y10.8300
G01 Z-1.8000
G01 Z0
G00 Z2.0000
G00 X33.9250 Y8.2900
G01 Z-1.8000
G01 Z0
G00 Z2.0000
G00 X33.9250 Y5.7500
G01 Z-1.8000
G01 Z0
G00 Z2.0000
G00 X29.0000 Y5.2500
G01 Z-1.8000
G01 Z0
G00 Z2.0000
G00 X28.6750 Y8.2750
G01 Z-1.8000
G01 Z0
G00 Z2.0000
G00 X28.6750 Y10.7750
G01 Z-1.8000
G01 Z0
G00 Z2.0000
G00 X28.6750 Y14.2500
G01 Z-1.8000
G01 Z0
G00 Z2.0000
G00 X28.6750 Y16.7500
G01 Z-1.8000
G01 Z0
G00 Z2.0000
G00 X23.0000 Y14.2500
G01 Z-1.8000
G01 Z0
G00 Z2.0000
G00 X18.2500 Y14.2500
G01 Z-1.8000
G01 Z0
G00 Z2.0000
G00 X18.2500 Y16.7500
G01 Z-1.8000
G01 Z0
G00 Z2.0000
G00 X11.0000 Y16.7500
G01 Z-1.8000
G01 Z0
G00 Z2.0000
G00 X11.0000 Y14.2500
G01 Z-1.8000
G01 Z0
G00 Z2.0000
G00 X3.7500 Y16.7500
G01 Z-1.8000
G01 Z0
G00 Z2.0000
G00 X3.7500 Y14.2500
G01 Z-1.8000
G01 Z0
G00 Z2.0000
M05
G00 Z0.50


