(G-CODE GENERATED BY FLATCAM v8.994 - www.flatcam.org - Version Date: 2020/11/7)

(Name: SolarAmp-F_Cu.gbr_iso_combined_cnc)
(Type: G-code from Geometry)
(Units: MM)

(Created on Friday, 28 June 2024 at 14:53)

(This preprocessor is the default preprocessor used by FlatCAM.)
(It is made to work with MACH3 compatible motion controllers.)

(TOOL DIAMETER: 0.3039 mm)
(Feedrate_XY: 500.0 mm/min)
(Feedrate_Z: 60.0 mm/min)
(Feedrate rapids 1500.0 mm/min)

(Z_Cut: -0.09 mm)
(Z_Move: 1.0 mm)
(Z Start: None mm)
(Z End: 15.0 mm)
(X,Y End: None mm)
(Steps per circle: 64)
(Preprocessor Geometry: default)

(X range:    1.2010 ...   47.9490  mm)
(Y range:    0.1610 ...   18.2990  mm)

(Spindle Speed: 15000.0 RPM)
G21
G90
G94

G01 F500.00

M5
G00 Z15.0000
G00 X0.0000 Y0.0000
T2
M6    
(MSG, Change to Tool Dia = 0.3039)
M0
G00 Z15.0000

M03 S15000.0
G01 F500.00
G00 X2.7843 Y0.1619
G01 F60.00
G01 Z-0.0900
G01 F500.00
G01 X2.8676 Y0.1660
G01 X2.9018 Y0.1685
G01 X2.9359 Y0.1727
G01 X3.0184 Y0.1849
G01 X3.0522 Y0.1908
G01 X3.0857 Y0.1983
G01 X3.1666 Y0.2186
G01 X3.1996 Y0.2277
G01 X3.2322 Y0.2385
G01 X3.3108 Y0.2666
G01 X3.3428 Y0.2789
G01 X3.3741 Y0.2928
G01 X3.4495 Y0.3285
G01 X3.4802 Y0.3439
G01 X3.5100 Y0.3608
G01 X3.5816 Y0.4037
G01 X3.6106 Y0.4221
G01 X3.6386 Y0.4418
G01 X3.7056 Y0.4915
G01 X3.7327 Y0.5126
G01 X3.7586 Y0.5350
G01 X3.8204 Y0.5911
G01 X3.8413 Y0.6108
G01 X5.1219 Y0.6108
G01 X5.1614 Y0.5750
G01 X5.1873 Y0.5526
G01 X5.2144 Y0.5315
G01 X5.2953 Y0.4718
G01 X5.3094 Y0.4621
G01 X5.3384 Y0.4437
G01 X5.4100 Y0.4008
G01 X5.4398 Y0.3839
G01 X5.4705 Y0.3685
G01 X5.5615 Y0.3257
G01 X5.5932 Y0.3126
G01 X5.6092 Y0.3066
G01 X5.6878 Y0.2785
G01 X5.7204 Y0.2677
G01 X5.7534 Y0.2586
G01 X5.8343 Y0.2383
G01 X5.8678 Y0.2308
G01 X5.8847 Y0.2277
G01 X5.9841 Y0.2127
G01 X6.0182 Y0.2085
G01 X6.0524 Y0.2060
G01 X6.1357 Y0.2019
G01 X6.1528 Y0.2012
G01 X6.1872 Y0.2012
G01 X6.3047 Y0.2070
G01 X6.3389 Y0.2104
G01 X6.3559 Y0.2127
G01 X6.4384 Y0.2249
G01 X6.4722 Y0.2308
G01 X6.5057 Y0.2383
G01 X6.5866 Y0.2586
G01 X6.6196 Y0.2677
G01 X6.6522 Y0.2785
G01 X6.7468 Y0.3126
G01 X6.7785 Y0.3257
G01 X6.8695 Y0.3685
G01 X6.9002 Y0.3839
G01 X6.9300 Y0.4008
G01 X7.0016 Y0.4437
G01 X7.0162 Y0.4527
G01 X7.0447 Y0.4718
G01 X7.1256 Y0.5315
G01 X7.1527 Y0.5526
G01 X7.1786 Y0.5750
G01 X7.2530 Y0.6427
G01 X7.2773 Y0.6670
G01 X7.2889 Y0.6796
G01 X7.3450 Y0.7414
G01 X7.3674 Y0.7673
G01 X7.3885 Y0.7944
G01 X7.4382 Y0.8614
G01 X7.4482 Y0.8753
G01 X7.4673 Y0.9038
G01 X7.5192 Y0.9900
G01 X7.5361 Y1.0198
G01 X7.5515 Y1.0505
G01 X7.5872 Y1.1259
G01 X7.6011 Y1.1572
G01 X7.6134 Y1.1892
G01 X7.6415 Y1.2678
G01 X7.6471 Y1.2840
G01 X7.6570 Y1.3168
G01 X7.6817 Y1.4143
G01 X7.6892 Y1.4478
G01 X7.6951 Y1.4816
G01 X7.7073 Y1.5641
G01 X7.7115 Y1.5982
G01 X7.7140 Y1.6324
G01 X7.7181 Y1.7157
G01 X7.7188 Y1.7328
G01 X7.7188 Y1.7672
G01 X7.7140 Y1.8676
G01 X7.7115 Y1.9018
G01 X7.7073 Y1.9359
G01 X7.6951 Y2.0184
G01 X7.6892 Y2.0522
G01 X7.6817 Y2.0857
G01 X7.6614 Y2.1666
G01 X7.6523 Y2.1996
G01 X7.6415 Y2.2322
G01 X7.6134 Y2.3108
G01 X7.6011 Y2.3428
G01 X7.5872 Y2.3741
G01 X7.5515 Y2.4495
G01 X7.5361 Y2.4802
G01 X7.5192 Y2.5100
G01 X7.4763 Y2.5816
G01 X7.4579 Y2.6106
G01 X7.4382 Y2.6386
G01 X7.3885 Y2.7056
G01 X7.3674 Y2.7327
G01 X7.3450 Y2.7586
G01 X7.2889 Y2.8204
G01 X7.2653 Y2.8453
G01 X7.2404 Y2.8689
G01 X7.1786 Y2.9250
G01 X7.1658 Y2.9363
G01 X7.1393 Y2.9581
G01 X7.0586 Y3.0182
G01 X7.0306 Y3.0379
G01 X7.0016 Y3.0563
G01 X6.9152 Y3.1078
G01 X6.8850 Y3.1240
G01 X6.7941 Y3.1672
G01 X6.7785 Y3.1743
G01 X6.7468 Y3.1874
G01 X6.6522 Y3.2215
G01 X6.6196 Y3.2323
G01 X6.5866 Y3.2414
G01 X6.5057 Y3.2617
G01 X6.4722 Y3.2692
G01 X6.4553 Y3.2723
G01 X6.3559 Y3.2873
G01 X6.3218 Y3.2915
G01 X6.2876 Y3.2940
G01 X6.2043 Y3.2981
G01 X6.1700 Y3.2990
G01 X6.1357 Y3.2981
G01 X6.0524 Y3.2940
G01 X6.0182 Y3.2915
G01 X5.9841 Y3.2873
G01 X5.8847 Y3.2723
G01 X5.8510 Y3.2657
G01 X5.7534 Y3.2414
G01 X5.7204 Y3.2323
G01 X5.6878 Y3.2215
G01 X5.6092 Y3.1934
G01 X5.5772 Y3.1811
G01 X5.5459 Y3.1672
G01 X5.4550 Y3.1240
G01 X5.4248 Y3.1078
G01 X5.3384 Y3.0563
G01 X5.3094 Y3.0379
G01 X5.2814 Y3.0182
G01 X5.2007 Y2.9581
G01 X5.1873 Y2.9474
G01 X5.1614 Y2.9250
G01 X5.0870 Y2.8573
G01 X5.0627 Y2.8330
G01 X5.0409 Y2.8093
G01 X3.8409 Y2.8096
G01 X3.8204 Y2.8289
G01 X3.7586 Y2.8850
G01 X3.7327 Y2.9074
G01 X3.7056 Y2.9285
G01 X3.6361 Y2.9800
G01 X3.7056 Y3.0315
G01 X3.7327 Y3.0526
G01 X3.7586 Y3.0750
G01 X3.8204 Y3.1311
G01 X3.8413 Y3.1508
G01 X5.1700 Y3.1508
G01 X5.2043 Y3.1517
G01 X5.2606 Y3.1547
G01 X5.2948 Y3.1580
G01 X5.3676 Y3.1688
G01 X5.4012 Y3.1755
G01 X5.4726 Y3.1934
G01 X5.5054 Y3.2033
G01 X5.5747 Y3.2281
G01 X5.6064 Y3.2413
G01 X5.6729 Y3.2727
G01 X5.7032 Y3.2889
G01 X5.7180 Y3.2975
G01 X5.7517 Y3.3177
G01 X5.7807 Y3.3361
G01 X5.8087 Y3.3558
G01 X5.8403 Y3.3792
G01 X5.8539 Y3.3896
G01 X5.8804 Y3.4114
G01 X5.9224 Y3.4491
G01 X5.9469 Y3.4724
G01 X6.1759 Y3.7011
G01 X6.2043 Y3.7019
G01 X6.2876 Y3.7060
G01 X6.3218 Y3.7085
G01 X6.3559 Y3.7127
G01 X6.4384 Y3.7249
G01 X6.4722 Y3.7308
G01 X6.5057 Y3.7383
G01 X6.5866 Y3.7586
G01 X6.6196 Y3.7677
G01 X6.6522 Y3.7785
G01 X6.7308 Y3.8066
G01 X6.7468 Y3.8126
G01 X6.7785 Y3.8257
G01 X6.8695 Y3.8685
G01 X6.9002 Y3.8839
G01 X6.9300 Y3.9008
G01 X7.0016 Y3.9437
G01 X7.0306 Y3.9621
G01 X7.0586 Y3.9818
G01 X7.1256 Y4.0315
G01 X7.1527 Y4.0526
G01 X7.1786 Y4.0750
G01 X7.2404 Y4.1311
G01 X7.2653 Y4.1547
G01 X7.2889 Y4.1796
G01 X7.3450 Y4.2414
G01 X7.3674 Y4.2673
G01 X7.3885 Y4.2944
G01 X7.4382 Y4.3614
G01 X7.4579 Y4.3894
G01 X7.4763 Y4.4184
G01 X7.5192 Y4.4900
G01 X7.5361 Y4.5198
G01 X7.5515 Y4.5505
G01 X7.5943 Y4.6415
G01 X7.6074 Y4.6732
G01 X7.6134 Y4.6892
G01 X7.6471 Y4.7840
G01 X7.6570 Y4.8168
G01 X7.6817 Y4.9143
G01 X7.6857 Y4.9310
G01 X7.6923 Y4.9647
G01 X7.7096 Y5.0811
G01 X7.7115 Y5.0982
G01 X7.7140 Y5.1324
G01 X7.7181 Y5.2157
G01 X7.7190 Y5.2500
G01 X7.7181 Y5.2843
G01 X7.7130 Y5.3847
G01 X7.7096 Y5.4189
G01 X7.7073 Y5.4359
G01 X7.6951 Y5.5184
G01 X7.6892 Y5.5522
G01 X7.6817 Y5.5857
G01 X7.6570 Y5.6832
G01 X7.6523 Y5.6996
G01 X7.6415 Y5.7322
G01 X7.6134 Y5.8108
G01 X7.6011 Y5.8428
G01 X7.5872 Y5.8741
G01 X7.5515 Y5.9495
G01 X7.5440 Y5.9650
G01 X7.5278 Y5.9952
G01 X7.4763 Y6.0816
G01 X7.4579 Y6.1106
G01 X7.4382 Y6.1386
G01 X7.3781 Y6.2193
G01 X7.3674 Y6.2327
G01 X7.3450 Y6.2586
G01 X7.2889 Y6.3204
G01 X7.2653 Y6.3453
G01 X7.2404 Y6.3689
G01 X7.1786 Y6.4250
G01 X7.1527 Y6.4474
G01 X7.1393 Y6.4581
G01 X7.0586 Y6.5182
G01 X7.0306 Y6.5379
G01 X7.0016 Y6.5563
G01 X6.9152 Y6.6078
G01 X6.9002 Y6.6161
G01 X6.8695 Y6.6315
G01 X6.7941 Y6.6672
G01 X6.7628 Y6.6811
G01 X6.7308 Y6.6934
G01 X6.6522 Y6.7215
G01 X6.6360 Y6.7271
G01 X6.6032 Y6.7370
G01 X6.5057 Y6.7617
G01 X6.4722 Y6.7692
G01 X6.4384 Y6.7751
G01 X6.3389 Y6.7896
G01 X6.3047 Y6.7930
G01 X6.2876 Y6.7940
G01 X6.2043 Y6.7981
G01 X6.1700 Y6.7990
G01 X6.1357 Y6.7981
G01 X6.0524 Y6.7940
G01 X6.0182 Y6.7915
G01 X6.0011 Y6.7896
G01 X5.9016 Y6.7751
G01 X5.8678 Y6.7692
G01 X5.8343 Y6.7617
G01 X5.7534 Y6.7414
G01 X5.7204 Y6.7323
G01 X5.7008 Y6.7260
G01 X6.1761 Y7.2011
G01 X6.2043 Y7.2019
G01 X6.2876 Y7.2060
G01 X6.3218 Y7.2085
G01 X6.3559 Y7.2127
G01 X6.4384 Y7.2249
G01 X6.4553 Y7.2277
G01 X6.4890 Y7.2343
G01 X6.5866 Y7.2586
G01 X6.6196 Y7.2677
G01 X6.6522 Y7.2785
G01 X6.7308 Y7.3066
G01 X6.7628 Y7.3189
G01 X6.7941 Y7.3328
G01 X6.8695 Y7.3685
G01 X6.9002 Y7.3839
G01 X6.9300 Y7.4008
G01 X7.0162 Y7.4527
G01 X7.0447 Y7.4718
G01 X7.1393 Y7.5419
G01 X7.1527 Y7.5526
G01 X7.1786 Y7.5750
G01 X7.2404 Y7.6311
G01 X7.2653 Y7.6547
G01 X7.2889 Y7.6796
G01 X7.3450 Y7.7414
G01 X7.3674 Y7.7673
G01 X7.3781 Y7.7807
G01 X7.4382 Y7.8614
G01 X7.4579 Y7.8894
G01 X7.4763 Y7.9184
G01 X7.5192 Y7.9900
G01 X7.5278 Y8.0048
G01 X7.5440 Y8.0350
G01 X7.5872 Y8.1259
G01 X7.6011 Y8.1572
G01 X7.6134 Y8.1892
G01 X7.6471 Y8.2840
G01 X7.6570 Y8.3168
G01 X7.6817 Y8.4143
G01 X7.6892 Y8.4478
G01 X7.6951 Y8.4816
G01 X7.7073 Y8.5641
G01 X7.7115 Y8.5982
G01 X7.7140 Y8.6324
G01 X7.7181 Y8.7157
G01 X7.7190 Y8.7500
G01 X7.7181 Y8.7843
G01 X7.7140 Y8.8676
G01 X7.7115 Y8.9018
G01 X7.7073 Y8.9359
G01 X7.6951 Y9.0184
G01 X7.6923 Y9.0353
G01 X7.6857 Y9.0690
G01 X7.6614 Y9.1666
G01 X7.6523 Y9.1996
G01 X7.6415 Y9.2322
G01 X7.6134 Y9.3108
G01 X7.6011 Y9.3428
G01 X7.5872 Y9.3741
G01 X7.5515 Y9.4495
G01 X7.5361 Y9.4802
G01 X7.5192 Y9.5100
G01 X7.4673 Y9.5962
G01 X7.4579 Y9.6106
G01 X7.4382 Y9.6386
G01 X7.3885 Y9.7056
G01 X7.3674 Y9.7327
G01 X7.3450 Y9.7586
G01 X7.2889 Y9.8204
G01 X7.2653 Y9.8453
G01 X7.2404 Y9.8689
G01 X7.1786 Y9.9250
G01 X7.1527 Y9.9474
G01 X7.1256 Y9.9685
G01 X7.0586 Y10.0182
G01 X7.0306 Y10.0379
G01 X7.0162 Y10.0473
G01 X6.9300 Y10.0992
G01 X6.9002 Y10.1161
G01 X6.8695 Y10.1315
G01 X6.7941 Y10.1672
G01 X6.7628 Y10.1811
G01 X6.7308 Y10.1934
G01 X6.6522 Y10.2215
G01 X6.6196 Y10.2323
G01 X6.5866 Y10.2414
G01 X6.4890 Y10.2657
G01 X6.4553 Y10.2723
G01 X6.4384 Y10.2751
G01 X6.3559 Y10.2873
G01 X6.3218 Y10.2915
G01 X6.2876 Y10.2940
G01 X6.1872 Y10.2988
G01 X6.1528 Y10.2988
G01 X6.0524 Y10.2940
G01 X6.0182 Y10.2915
G01 X5.9841 Y10.2873
G01 X5.9016 Y10.2751
G01 X5.8678 Y10.2692
G01 X5.8343 Y10.2617
G01 X5.7534 Y10.2414
G01 X5.7204 Y10.2323
G01 X5.6878 Y10.2215
G01 X5.6092 Y10.1934
G01 X5.5772 Y10.1811
G01 X5.5459 Y10.1672
G01 X5.4705 Y10.1315
G01 X5.4550 Y10.1240
G01 X5.4248 Y10.1078
G01 X5.3384 Y10.0563
G01 X5.3094 Y10.0379
G01 X5.2814 Y10.0182
G01 X5.2144 Y9.9685
G01 X5.2007 Y9.9581
G01 X5.1742 Y9.9363
G01 X5.0996 Y9.8689
G01 X5.0747 Y9.8453
G01 X5.0511 Y9.8204
G01 X4.9950 Y9.7586
G01 X4.9837 Y9.7458
G01 X4.9619 Y9.7193
G01 X4.8918 Y9.6247
G01 X4.8727 Y9.5962
G01 X4.8208 Y9.5100
G01 X4.8039 Y9.4802
G01 X4.7885 Y9.4495
G01 X4.7528 Y9.3741
G01 X4.7389 Y9.3428
G01 X4.7266 Y9.3108
G01 X4.6985 Y9.2322
G01 X4.6877 Y9.1996
G01 X4.6786 Y9.1666
G01 X4.6543 Y9.0690
G01 X4.6477 Y9.0353
G01 X4.6449 Y9.0184
G01 X4.6327 Y8.9359
G01 X4.6285 Y8.9018
G01 X4.6260 Y8.8676
G01 X4.6219 Y8.7843
G01 X4.6211 Y8.7556
G01 X4.2973 Y8.4317
G01 X4.2988 Y8.4628
G01 X4.2990 Y8.4800
G01 X4.2990 Y10.1800
G01 X4.2981 Y10.2143
G01 X4.2956 Y10.2485
G01 X4.2914 Y10.2826
G01 X4.2855 Y10.3164
G01 X4.2820 Y10.3331
G01 X4.2737 Y10.3664
G01 X4.2689 Y10.3829
G01 X4.2581 Y10.4155
G01 X4.2458 Y10.4475
G01 X4.2390 Y10.4633
G01 X4.2243 Y10.4943
G01 X4.2082 Y10.5245
G01 X4.1995 Y10.5393
G01 X4.1812 Y10.5683
G01 X4.1614 Y10.5964
G01 X4.1403 Y10.6234
G01 X4.1293 Y10.6365
G01 X4.1062 Y10.6620
G01 X4.0942 Y10.6742
G01 X4.0694 Y10.6979
G01 X4.0434 Y10.7203
G01 X4.0164 Y10.7414
G01 X4.0025 Y10.7515
G01 X3.9739 Y10.7705
G01 X3.9445 Y10.7882
G01 X3.9295 Y10.7964
G01 X3.9143 Y10.8043
G01 X3.8833 Y10.8190
G01 X3.8675 Y10.8258
G01 X3.8492 Y10.8330
G01 X3.8492 Y12.7010
G01 X4.5000 Y12.7010
G01 X4.5343 Y12.7019
G01 X4.5759 Y12.7041
G01 X4.5930 Y12.7056
G01 X4.6271 Y12.7098
G01 X4.6683 Y12.7161
G01 X4.7019 Y12.7228
G01 X4.7186 Y12.7268
G01 X4.7590 Y12.7371
G01 X4.7755 Y12.7419
G01 X4.8080 Y12.7527
G01 X4.8472 Y12.7669
G01 X4.8632 Y12.7733
G01 X4.8789 Y12.7800
G01 X4.9167 Y12.7977
G01 X4.9473 Y12.8131
G01 X4.9624 Y12.8214
G01 X4.9982 Y12.8426
G01 X5.0272 Y12.8610
G01 X5.0553 Y12.8807
G01 X5.0886 Y12.9057
G01 X5.1151 Y12.9275
G01 X5.1587 Y12.9670
G01 X5.1830 Y12.9913
G01 X5.2112 Y13.0220
G01 X5.2336 Y13.0480
G01 X5.2547 Y13.0750
G01 X5.2793 Y13.1086
G01 X5.2890 Y13.1228
G01 X5.3068 Y13.1508
G01 X9.4432 Y13.1508
G01 X9.4610 Y13.1228
G01 X9.4707 Y13.1086
G01 X9.4953 Y13.0750
G01 X9.5164 Y13.0480
G01 X9.5275 Y13.0349
G01 X9.5553 Y13.0038
G01 X9.5670 Y12.9913
G01 X9.5913 Y12.9670
G01 X9.6220 Y12.9388
G01 X9.6480 Y12.9164
G01 X9.6614 Y12.9057
G01 X9.6947 Y12.8807
G01 X9.7228 Y12.8610
G01 X9.7372 Y12.8516
G01 X9.7876 Y12.8214
G01 X9.8027 Y12.8131
G01 X9.8333 Y12.7977
G01 X9.8711 Y12.7800
G01 X9.8868 Y12.7733
G01 X9.9189 Y12.7609
G01 X9.9582 Y12.7471
G01 X9.9910 Y12.7371
G01 X10.0076 Y12.7327
G01 X10.0481 Y12.7228
G01 X10.0649 Y12.7193
G01 X10.0987 Y12.7134
G01 X10.1399 Y12.7075
G01 X10.1741 Y12.7041
G01 X10.1912 Y12.7031
G01 X10.2328 Y12.7012
G01 X10.2500 Y12.7010
G01 X11.7500 Y12.7010
G01 X11.7672 Y12.7012
G01 X11.8088 Y12.7031
G01 X11.8430 Y12.7056
G01 X11.8771 Y12.7098
G01 X11.9183 Y12.7161
G01 X11.9351 Y12.7193
G01 X11.9686 Y12.7268
G01 X12.0090 Y12.7371
G01 X12.0255 Y12.7419
G01 X12.0580 Y12.7527
G01 X12.0972 Y12.7669
G01 X12.1132 Y12.7733
G01 X12.1289 Y12.7800
G01 X12.1667 Y12.7977
G01 X12.1973 Y12.8131
G01 X12.2124 Y12.8214
G01 X12.2482 Y12.8426
G01 X12.2772 Y12.8610
G01 X12.2914 Y12.8707
G01 X12.3386 Y12.9057
G01 X12.3651 Y12.9275
G01 X12.4087 Y12.9670
G01 X12.4330 Y12.9913
G01 X12.4725 Y13.0349
G01 X12.4943 Y13.0614
G01 X12.5293 Y13.1086
G01 X12.5390 Y13.1228
G01 X12.5568 Y13.1508
G01 X16.6932 Y13.1508
G01 X16.7110 Y13.1228
G01 X16.7307 Y13.0947
G01 X16.7557 Y13.0614
G01 X16.7775 Y13.0349
G01 X16.8053 Y13.0038
G01 X16.8290 Y12.9790
G01 X16.8538 Y12.9553
G01 X16.8849 Y12.9275
G01 X16.9114 Y12.9057
G01 X16.9447 Y12.8807
G01 X16.9728 Y12.8610
G01 X16.9872 Y12.8516
G01 X17.0228 Y12.8300
G01 X17.0527 Y12.8131
G01 X17.0833 Y12.7977
G01 X17.1211 Y12.7800
G01 X17.1528 Y12.7669
G01 X17.1689 Y12.7609
G01 X17.2082 Y12.7471
G01 X17.2410 Y12.7371
G01 X17.2814 Y12.7268
G01 X17.3149 Y12.7193
G01 X17.3487 Y12.7134
G01 X17.3899 Y12.7075
G01 X17.4241 Y12.7041
G01 X17.4828 Y12.7012
G01 X17.7408 Y12.7010
G01 X17.7406 Y9.3770
G01 X17.7099 Y9.4414
G01 X17.6937 Y9.4716
G01 X17.6447 Y9.5538
G01 X17.6263 Y9.5828
G01 X17.6166 Y9.5969
G01 X17.5598 Y9.6739
G01 X17.5387 Y9.7009
G01 X17.5163 Y9.7269
G01 X17.4519 Y9.7977
G01 X17.4277 Y9.8219
G01 X17.3569 Y9.8863
G01 X17.3309 Y9.9087
G01 X17.3039 Y9.9298
G01 X17.2269 Y9.9866
G01 X17.1984 Y10.0057
G01 X17.1165 Y10.0551
G01 X17.0866 Y10.0720
G01 X17.0714 Y10.0799
G01 X16.9850 Y10.1210
G01 X16.9536 Y10.1349
G01 X16.9216 Y10.1472
G01 X16.8477 Y10.1737
G01 X16.8151 Y10.1844
G01 X16.7821 Y10.1936
G01 X16.7059 Y10.2127
G01 X16.6724 Y10.2202
G01 X16.6386 Y10.2260
G01 X16.5610 Y10.2376
G01 X16.5440 Y10.2399
G01 X16.5098 Y10.2432
G01 X16.4143 Y10.2481
G01 X16.3800 Y10.2490
G01 X16.2628 Y10.2488
G01 X16.1673 Y10.2443
G01 X16.1331 Y10.2418
G01 X16.0990 Y10.2376
G01 X16.0214 Y10.2260
G01 X15.9876 Y10.2202
G01 X15.9541 Y10.2127
G01 X15.8613 Y10.1892
G01 X15.8285 Y10.1792
G01 X15.7384 Y10.1472
G01 X15.7064 Y10.1349
G01 X15.6750 Y10.1210
G01 X15.6040 Y10.0874
G01 X15.5734 Y10.0720
G01 X15.5435 Y10.0551
G01 X15.4762 Y10.0147
G01 X15.4472 Y9.9963
G01 X15.4192 Y9.9766
G01 X15.3561 Y9.9298
G01 X15.3291 Y9.9087
G01 X15.3031 Y9.8863
G01 X15.2323 Y9.8219
G01 X15.2081 Y9.7977
G01 X15.1437 Y9.7269
G01 X15.1213 Y9.7009
G01 X15.1002 Y9.6739
G01 X15.0434 Y9.5969
G01 X15.0243 Y9.5684
G01 X14.9749 Y9.4865
G01 X14.9580 Y9.4566
G01 X14.9426 Y9.4260
G01 X14.9090 Y9.3550
G01 X14.8951 Y9.3236
G01 X14.8828 Y9.2916
G01 X14.8563 Y9.2177
G01 X14.8456 Y9.1851
G01 X14.8364 Y9.1521
G01 X14.8173 Y9.0759
G01 X14.8098 Y9.0424
G01 X14.8040 Y9.0086
G01 X14.7901 Y8.9140
G01 X14.7868 Y8.8798
G01 X14.7857 Y8.8627
G01 X14.7819 Y8.7843
G01 X14.7810 Y8.7500
G01 X14.7819 Y8.7157
G01 X14.7857 Y8.6373
G01 X14.7882 Y8.6031
G01 X14.7924 Y8.5690
G01 X14.8040 Y8.4914
G01 X14.8098 Y8.4576
G01 X14.8173 Y8.4241
G01 X14.8364 Y8.3479
G01 X14.8456 Y8.3149
G01 X14.8563 Y8.2823
G01 X14.8828 Y8.2084
G01 X14.8951 Y8.1764
G01 X14.9090 Y8.1450
G01 X14.9426 Y8.0740
G01 X14.9580 Y8.0434
G01 X14.9663 Y8.0284
G01 X15.0153 Y7.9462
G01 X15.0337 Y7.9172
G01 X15.0434 Y7.9031
G01 X15.1106 Y7.8125
G01 X15.1323 Y7.7859
G01 X15.1508 Y7.7652
G01 X15.1508 Y6.2348
G01 X15.1323 Y6.2141
G01 X15.1213 Y6.2009
G01 X15.1002 Y6.1739
G01 X15.0434 Y6.0969
G01 X15.0243 Y6.0684
G01 X15.0153 Y6.0538
G01 X14.9663 Y5.9716
G01 X14.9501 Y5.9414
G01 X14.9090 Y5.8550
G01 X14.8951 Y5.8236
G01 X14.8888 Y5.8077
G01 X14.8563 Y5.7177
G01 X14.8456 Y5.6851
G01 X14.8364 Y5.6521
G01 X14.8173 Y5.5759
G01 X14.8098 Y5.5424
G01 X14.8040 Y5.5086
G01 X14.7924 Y5.4310
G01 X14.7882 Y5.3969
G01 X14.7857 Y5.3627
G01 X14.7819 Y5.2843
G01 X14.7810 Y5.2500
G01 X14.7819 Y5.2157
G01 X14.7857 Y5.1373
G01 X14.7882 Y5.1031
G01 X14.7924 Y5.0690
G01 X14.8040 Y4.9914
G01 X14.8098 Y4.9576
G01 X14.8173 Y4.9241
G01 X14.8364 Y4.8479
G01 X14.8456 Y4.8149
G01 X14.8563 Y4.7823
G01 X14.8888 Y4.6923
G01 X14.8951 Y4.6764
G01 X14.9090 Y4.6450
G01 X14.9501 Y4.5586
G01 X14.9663 Y4.5284
G01 X15.0153 Y4.4462
G01 X15.0337 Y4.4172
G01 X15.0434 Y4.4031
G01 X15.1002 Y4.3261
G01 X15.1213 Y4.2991
G01 X15.1323 Y4.2859
G01 X15.1508 Y4.2652
G01 X15.1508 Y2.7348
G01 X15.1323 Y2.7141
G01 X15.1106 Y2.6875
G01 X15.0434 Y2.5969
G01 X15.0243 Y2.5684
G01 X15.0153 Y2.5538
G01 X14.9749 Y2.4865
G01 X14.9580 Y2.4566
G01 X14.9426 Y2.4260
G01 X14.9090 Y2.3550
G01 X14.8951 Y2.3236
G01 X14.8828 Y2.2916
G01 X14.8563 Y2.2177
G01 X14.8456 Y2.1851
G01 X14.8408 Y2.1687
G01 X14.8134 Y2.0592
G01 X14.8067 Y2.0256
G01 X14.8040 Y2.0086
G01 X14.7924 Y1.9310
G01 X14.7882 Y1.8969
G01 X14.7857 Y1.8627
G01 X14.7819 Y1.7843
G01 X14.7810 Y1.7500
G01 X14.7812 Y1.7328
G01 X14.7868 Y1.6202
G01 X14.7901 Y1.5860
G01 X14.7924 Y1.5690
G01 X14.8067 Y1.4744
G01 X14.8098 Y1.4576
G01 X14.8173 Y1.4241
G01 X14.8408 Y1.3313
G01 X14.8508 Y1.2985
G01 X14.8828 Y1.2084
G01 X14.8888 Y1.1923
G01 X14.9019 Y1.1606
G01 X14.9426 Y1.0740
G01 X14.9580 Y1.0434
G01 X14.9749 Y1.0135
G01 X15.0153 Y0.9462
G01 X15.0337 Y0.9172
G01 X15.0534 Y0.8892
G01 X15.1002 Y0.8261
G01 X15.1213 Y0.7991
G01 X15.1437 Y0.7731
G01 X15.1964 Y0.7149
G01 X15.2201 Y0.6901
G01 X15.2449 Y0.6664
G01 X15.3031 Y0.6137
G01 X15.3291 Y0.5913
G01 X15.3561 Y0.5702
G01 X15.4192 Y0.5234
G01 X15.4472 Y0.5037
G01 X15.4762 Y0.4853
G01 X15.5584 Y0.4363
G01 X15.5886 Y0.4201
G01 X15.6750 Y0.3790
G01 X15.7064 Y0.3651
G01 X15.7384 Y0.3528
G01 X15.8123 Y0.3263
G01 X15.8449 Y0.3156
G01 X15.8779 Y0.3064
G01 X15.9541 Y0.2873
G01 X15.9876 Y0.2798
G01 X16.0214 Y0.2740
G01 X16.0990 Y0.2624
G01 X16.1331 Y0.2582
G01 X16.1673 Y0.2557
G01 X16.2628 Y0.2512
G01 X16.3972 Y0.2512
G01 X16.4927 Y0.2557
G01 X16.5098 Y0.2568
G01 X16.5440 Y0.2601
G01 X16.6386 Y0.2740
G01 X16.6556 Y0.2767
G01 X16.6892 Y0.2834
G01 X16.7987 Y0.3108
G01 X16.8315 Y0.3208
G01 X16.8477 Y0.3263
G01 X16.9377 Y0.3588
G01 X16.9694 Y0.3719
G01 X17.0714 Y0.4201
G01 X17.1016 Y0.4363
G01 X17.1165 Y0.4449
G01 X17.1984 Y0.4943
G01 X17.2269 Y0.5134
G01 X17.2408 Y0.5234
G01 X17.3039 Y0.5702
G01 X17.3309 Y0.5913
G01 X17.3569 Y0.6137
G01 X17.3979 Y0.6508
G01 X17.7321 Y0.6508
G01 X17.7731 Y0.6137
G01 X17.7991 Y0.5913
G01 X17.8261 Y0.5702
G01 X17.9031 Y0.5134
G01 X17.9316 Y0.4943
G01 X18.0135 Y0.4449
G01 X18.0434 Y0.4280
G01 X18.0586 Y0.4201
G01 X18.1450 Y0.3790
G01 X18.1764 Y0.3651
G01 X18.2084 Y0.3528
G01 X18.2823 Y0.3263
G01 X18.3149 Y0.3156
G01 X18.3313 Y0.3108
G01 X18.4241 Y0.2873
G01 X18.4576 Y0.2798
G01 X18.4914 Y0.2740
G01 X18.5690 Y0.2624
G01 X18.5860 Y0.2601
G01 X18.6202 Y0.2568
G01 X18.7328 Y0.2512
G01 X18.7500 Y0.2510
G01 X18.7843 Y0.2519
G01 X18.8627 Y0.2557
G01 X18.8969 Y0.2582
G01 X18.9310 Y0.2624
G01 X19.0086 Y0.2740
G01 X19.0424 Y0.2798
G01 X19.0592 Y0.2834
G01 X19.1687 Y0.3108
G01 X19.1851 Y0.3156
G01 X19.2177 Y0.3263
G01 X19.2916 Y0.3528
G01 X19.3236 Y0.3651
G01 X19.3550 Y0.3790
G01 X19.4414 Y0.4201
G01 X19.4716 Y0.4363
G01 X19.4865 Y0.4449
G01 X19.5538 Y0.4853
G01 X19.5828 Y0.5037
G01 X19.6108 Y0.5234
G01 X19.6739 Y0.5702
G01 X19.7009 Y0.5913
G01 X19.7141 Y0.6023
G01 X19.7851 Y0.6664
G01 X19.8099 Y0.6901
G01 X19.8336 Y0.7149
G01 X19.8977 Y0.7859
G01 X19.9087 Y0.7991
G01 X19.9298 Y0.8261
G01 X19.9766 Y0.8892
G01 X19.9963 Y0.9172
G01 X20.0147 Y0.9462
G01 X20.0551 Y1.0135
G01 X20.0637 Y1.0284
G01 X20.0799 Y1.0586
G01 X20.1210 Y1.1450
G01 X20.1349 Y1.1764
G01 X20.1472 Y1.2084
G01 X20.1737 Y1.2823
G01 X20.1792 Y1.2985
G01 X20.1892 Y1.3313
G01 X20.2127 Y1.4241
G01 X20.2202 Y1.4576
G01 X20.2260 Y1.4914
G01 X20.2376 Y1.5690
G01 X20.2418 Y1.6031
G01 X20.2443 Y1.6373
G01 X20.2481 Y1.7157
G01 X20.2490 Y1.7500
G01 X20.2481 Y1.7843
G01 X20.2443 Y1.8627
G01 X20.2418 Y1.8969
G01 X20.2376 Y1.9310
G01 X20.2233 Y2.0256
G01 X20.2166 Y2.0592
G01 X20.1936 Y2.1521
G01 X20.1844 Y2.1851
G01 X20.1737 Y2.2177
G01 X20.1472 Y2.2916
G01 X20.1349 Y2.3236
G01 X20.1210 Y2.3550
G01 X20.0874 Y2.4260
G01 X20.0720 Y2.4566
G01 X20.0551 Y2.4865
G01 X20.0057 Y2.5684
G01 X19.9866 Y2.5969
G01 X19.9298 Y2.6739
G01 X19.9087 Y2.7009
G01 X19.8863 Y2.7269
G01 X19.8336 Y2.7851
G01 X19.8099 Y2.8099
G01 X19.7851 Y2.8336
G01 X19.7269 Y2.8863
G01 X19.7009 Y2.9087
G01 X19.6739 Y2.9298
G01 X19.6108 Y2.9766
G01 X19.5828 Y2.9963
G01 X19.5538 Y3.0147
G01 X19.4865 Y3.0551
G01 X19.4566 Y3.0720
G01 X19.4260 Y3.0874
G01 X19.3550 Y3.1210
G01 X19.3236 Y3.1349
G01 X19.2916 Y3.1472
G01 X19.2177 Y3.1737
G01 X19.2015 Y3.1792
G01 X19.1687 Y3.1892
G01 X19.0759 Y3.2127
G01 X19.0424 Y3.2202
G01 X19.0086 Y3.2260
G01 X18.9140 Y3.2399
G01 X18.8969 Y3.2418
G01 X18.8627 Y3.2443
G01 X18.7843 Y3.2481
G01 X18.7500 Y3.2490
G01 X18.7157 Y3.2481
G01 X18.6202 Y3.2432
G01 X18.6031 Y3.2418
G01 X18.5690 Y3.2376
G01 X18.4744 Y3.2233
G01 X18.4408 Y3.2166
G01 X18.3479 Y3.1936
G01 X18.3149 Y3.1844
G01 X18.2823 Y3.1737
G01 X18.1923 Y3.1412
G01 X18.1606 Y3.1281
G01 X18.0740 Y3.0874
G01 X18.0434 Y3.0720
G01 X18.0135 Y3.0551
G01 X17.9462 Y3.0147
G01 X17.9172 Y2.9963
G01 X17.8892 Y2.9766
G01 X17.8125 Y2.9194
G01 X17.7859 Y2.8977
G01 X17.7321 Y2.8492
G01 X17.3979 Y2.8492
G01 X17.3492 Y2.8932
G01 X17.3492 Y4.1068
G01 X17.4277 Y4.1781
G01 X17.4519 Y4.2023
G01 X17.5277 Y4.2859
G01 X17.5494 Y4.3125
G01 X17.5789 Y4.3518
G01 X17.6215 Y4.2944
G01 X17.6426 Y4.2673
G01 X17.6650 Y4.2414
G01 X17.7327 Y4.1670
G01 X17.7570 Y4.1427
G01 X17.8314 Y4.0750
G01 X17.8573 Y4.0526
G01 X17.8707 Y4.0419
G01 X17.9514 Y3.9818
G01 X17.9794 Y3.9621
G01 X18.0084 Y3.9437
G01 X18.0800 Y3.9008
G01 X18.0948 Y3.8922
G01 X18.1250 Y3.8760
G01 X18.2159 Y3.8328
G01 X18.2472 Y3.8189
G01 X18.2792 Y3.8066
G01 X18.3740 Y3.7729
G01 X18.3904 Y3.7677
G01 X18.4234 Y3.7586
G01 X18.5043 Y3.7383
G01 X18.5378 Y3.7308
G01 X18.5716 Y3.7249
G01 X18.6541 Y3.7127
G01 X18.6882 Y3.7085
G01 X18.7224 Y3.7060
G01 X18.8228 Y3.7012
G01 X18.8400 Y3.7010
G01 X18.8743 Y3.7019
G01 X18.9576 Y3.7060
G01 X18.9918 Y3.7085
G01 X19.0259 Y3.7127
G01 X19.1253 Y3.7277
G01 X19.1590 Y3.7343
G01 X19.2566 Y3.7586
G01 X19.2896 Y3.7677
G01 X19.3222 Y3.7785
G01 X19.4008 Y3.8066
G01 X19.4328 Y3.8189
G01 X19.4641 Y3.8328
G01 X19.5550 Y3.8760
G01 X19.5852 Y3.8922
G01 X19.6716 Y3.9437
G01 X19.7006 Y3.9621
G01 X19.7147 Y3.9718
G01 X19.7956 Y4.0315
G01 X19.8227 Y4.0526
G01 X19.8486 Y4.0750
G01 X19.9104 Y4.1311
G01 X19.9230 Y4.1427
G01 X19.9473 Y4.1670
G01 X20.0150 Y4.2414
G01 X20.0374 Y4.2673
G01 X20.0585 Y4.2944
G01 X20.1182 Y4.3753
G01 X20.1373 Y4.4038
G01 X20.1463 Y4.4184
G01 X20.1892 Y4.4900
G01 X20.2061 Y4.5198
G01 X20.2215 Y4.5505
G01 X20.2643 Y4.6415
G01 X20.2774 Y4.6732
G01 X20.3115 Y4.7678
G01 X20.3223 Y4.8004
G01 X20.3314 Y4.8334
G01 X20.3517 Y4.9143
G01 X20.3592 Y4.9478
G01 X20.3651 Y4.9816
G01 X20.3773 Y5.0641
G01 X20.3815 Y5.0982
G01 X20.3830 Y5.1153
G01 X20.3881 Y5.2157
G01 X20.3890 Y5.2500
G01 X20.3881 Y5.2843
G01 X20.3830 Y5.3847
G01 X20.3796 Y5.4189
G01 X20.3773 Y5.4359
G01 X20.3651 Y5.5184
G01 X20.3592 Y5.5522
G01 X20.3517 Y5.5857
G01 X20.3314 Y5.6666
G01 X20.3223 Y5.6996
G01 X20.3171 Y5.7160
G01 X20.2834 Y5.8108
G01 X20.2711 Y5.8428
G01 X20.2572 Y5.8741
G01 X20.2215 Y5.9495
G01 X20.2061 Y5.9802
G01 X20.1978 Y5.9952
G01 X20.1463 Y6.0816
G01 X20.1279 Y6.1106
G01 X20.1082 Y6.1386
G01 X20.0585 Y6.2056
G01 X20.0374 Y6.2327
G01 X20.0263 Y6.2458
G01 X19.9589 Y6.3204
G01 X19.9392 Y6.3413
G01 X19.9392 Y13.1508
G01 X21.9821 Y13.1508
G01 X22.0359 Y13.1023
G01 X22.0625 Y13.0806
G01 X22.1392 Y13.0234
G01 X22.1672 Y13.0037
G01 X22.1816 Y12.9943
G01 X22.2635 Y12.9449
G01 X22.2934 Y12.9280
G01 X22.3240 Y12.9126
G01 X22.3950 Y12.8790
G01 X22.4264 Y12.8651
G01 X22.4423 Y12.8588
G01 X22.5323 Y12.8263
G01 X22.5649 Y12.8156
G01 X22.5979 Y12.8064
G01 X22.6741 Y12.7873
G01 X22.7076 Y12.7798
G01 X22.7414 Y12.7740
G01 X22.8190 Y12.7624
G01 X22.8531 Y12.7582
G01 X22.8873 Y12.7557
G01 X22.9657 Y12.7519
G01 X23.0000 Y12.7510
G01 X23.0343 Y12.7519
G01 X23.1127 Y12.7557
G01 X23.1469 Y12.7582
G01 X23.1810 Y12.7624
G01 X23.2586 Y12.7740
G01 X23.2924 Y12.7798
G01 X23.3259 Y12.7873
G01 X23.4021 Y12.8064
G01 X23.4351 Y12.8156
G01 X23.4677 Y12.8263
G01 X23.5577 Y12.8588
G01 X23.5736 Y12.8651
G01 X23.6050 Y12.8790
G01 X23.6760 Y12.9126
G01 X23.7066 Y12.9280
G01 X23.7365 Y12.9449
G01 X23.8184 Y12.9943
G01 X23.8469 Y13.0134
G01 X23.8608 Y13.0234
G01 X23.9375 Y13.0806
G01 X23.9641 Y13.1023
G01 X24.0179 Y13.1508
G01 X27.5842 Y13.1504
G01 X27.6046 Y13.1311
G01 X27.6792 Y13.0637
G01 X27.6923 Y13.0526
G01 X27.7194 Y13.0315
G01 X27.7864 Y12.9818
G01 X27.8144 Y12.9621
G01 X27.8434 Y12.9437
G01 X27.9298 Y12.8922
G01 X27.9448 Y12.8839
G01 X27.9755 Y12.8685
G01 X28.0509 Y12.8328
G01 X28.0822 Y12.8189
G01 X28.1142 Y12.8066
G01 X28.2090 Y12.7729
G01 X28.2418 Y12.7630
G01 X28.2584 Y12.7586
G01 X28.3393 Y12.7383
G01 X28.3728 Y12.7308
G01 X28.4066 Y12.7249
G01 X28.4891 Y12.7127
G01 X28.5061 Y12.7104
G01 X28.5403 Y12.7070
G01 X28.6407 Y12.7019
G01 X28.6750 Y12.7010
G01 X28.7093 Y12.7019
G01 X28.8097 Y12.7070
G01 X28.8268 Y12.7085
G01 X28.8609 Y12.7127
G01 X28.9434 Y12.7249
G01 X28.9772 Y12.7308
G01 X29.0107 Y12.7383
G01 X29.1085 Y12.7630
G01 X28.6695 Y12.3241
G01 X27.8078 Y12.3239
G01 X27.7736 Y12.3222
G01 X27.7565 Y12.3207
G01 X27.7224 Y12.3165
G01 X27.6886 Y12.3107
G01 X27.6552 Y12.3031
G01 X27.6386 Y12.2988
G01 X27.6057 Y12.2888
G01 X27.5734 Y12.2772
G01 X27.5417 Y12.2641
G01 X27.5107 Y12.2494
G01 X27.4805 Y12.2333
G01 X27.4511 Y12.2156
G01 X27.4225 Y12.1966
G01 X27.3950 Y12.1761
G01 X27.3816 Y12.1654
G01 X27.3556 Y12.1430
G01 X27.3308 Y12.1194
G01 X27.3071 Y12.0945
G01 X27.2847 Y12.0685
G01 X27.2636 Y12.0415
G01 X27.2535 Y12.0276
G01 X27.2345 Y11.9991
G01 X27.2168 Y11.9696
G01 X27.2007 Y11.9394
G01 X27.1931 Y11.9240
G01 X27.1792 Y11.8926
G01 X27.1669 Y11.8606
G01 X27.1561 Y11.8280
G01 X27.1470 Y11.7949
G01 X27.1395 Y11.7615
G01 X27.1336 Y11.7277
G01 X27.1313 Y11.7107
G01 X27.1279 Y11.6765
G01 X27.1262 Y11.6423
G01 X27.1260 Y9.9251
G01 X27.1269 Y9.8908
G01 X27.1279 Y9.8737
G01 X27.1313 Y9.8396
G01 X27.1363 Y9.8056
G01 X27.1430 Y9.7720
G01 X27.1513 Y9.7387
G01 X27.1613 Y9.7059
G01 X27.1729 Y9.6736
G01 X27.1792 Y9.6576
G01 X27.1931 Y9.6263
G01 X27.2086 Y9.5956
G01 X27.2255 Y9.5658
G01 X27.2438 Y9.5368
G01 X27.2636 Y9.5087
G01 X27.2847 Y9.4817
G01 X27.3071 Y9.4557
G01 X27.3308 Y9.4309
G01 X27.3556 Y9.4072
G01 X27.3685 Y9.3958
G01 X27.3947 Y9.3743
G01 X24.4936 Y9.3743
G01 X24.4918 Y9.3969
G01 X24.4876 Y9.4310
G01 X24.4760 Y9.5086
G01 X24.4702 Y9.5424
G01 X24.4627 Y9.5759
G01 X24.4436 Y9.6521
G01 X24.4344 Y9.6851
G01 X24.4237 Y9.7177
G01 X24.3972 Y9.7916
G01 X24.3849 Y9.8236
G01 X24.3710 Y9.8550
G01 X24.3374 Y9.9260
G01 X24.3220 Y9.9566
G01 X24.3051 Y9.9865
G01 X24.2647 Y10.0538
G01 X24.2463 Y10.0828
G01 X24.2266 Y10.1108
G01 X24.1798 Y10.1739
G01 X24.1587 Y10.2009
G01 X24.1363 Y10.2269
G01 X24.0836 Y10.2851
G01 X24.0599 Y10.3099
G01 X24.0351 Y10.3336
G01 X23.9769 Y10.3863
G01 X23.9509 Y10.4087
G01 X23.9239 Y10.4298
G01 X23.8608 Y10.4766
G01 X23.8328 Y10.4963
G01 X23.8038 Y10.5147
G01 X23.7365 Y10.5551
G01 X23.7066 Y10.5720
G01 X23.6760 Y10.5874
G01 X23.6050 Y10.6210
G01 X23.5736 Y10.6349
G01 X23.5416 Y10.6472
G01 X23.4677 Y10.6737
G01 X23.4351 Y10.6844
G01 X23.4021 Y10.6936
G01 X23.3259 Y10.7127
G01 X23.2924 Y10.7202
G01 X23.2586 Y10.7260
G01 X23.1810 Y10.7376
G01 X23.1469 Y10.7418
G01 X23.1127 Y10.7443
G01 X23.0343 Y10.7481
G01 X23.0000 Y10.7490
G01 X22.9657 Y10.7481
G01 X22.8873 Y10.7443
G01 X22.8531 Y10.7418
G01 X22.8190 Y10.7376
G01 X22.7414 Y10.7260
G01 X22.7076 Y10.7202
G01 X22.6741 Y10.7127
G01 X22.5979 Y10.6936
G01 X22.5649 Y10.6844
G01 X22.5323 Y10.6737
G01 X22.4584 Y10.6472
G01 X22.4423 Y10.6412
G01 X22.4106 Y10.6281
G01 X22.3086 Y10.5799
G01 X22.2784 Y10.5637
G01 X22.2635 Y10.5551
G01 X22.1962 Y10.5147
G01 X22.1672 Y10.4963
G01 X22.1392 Y10.4766
G01 X22.0761 Y10.4298
G01 X22.0491 Y10.4087
G01 X22.0359 Y10.3977
G01 X21.9649 Y10.3336
G01 X21.9523 Y10.3219
G01 X21.9281 Y10.2977
G01 X21.8523 Y10.2141
G01 X21.8306 Y10.1875
G01 X21.8202 Y10.1739
G01 X21.7734 Y10.1108
G01 X21.7537 Y10.0828
G01 X21.7353 Y10.0538
G01 X21.6949 Y9.9865
G01 X21.6780 Y9.9566
G01 X21.6626 Y9.9260
G01 X21.6290 Y9.8550
G01 X21.6151 Y9.8236
G01 X21.6028 Y9.7916
G01 X21.5763 Y9.7177
G01 X21.5708 Y9.7015
G01 X21.5608 Y9.6687
G01 X21.5334 Y9.5592
G01 X21.5298 Y9.5424
G01 X21.5240 Y9.5086
G01 X21.5124 Y9.4310
G01 X21.5082 Y9.3969
G01 X21.5057 Y9.3627
G01 X21.5019 Y9.2843
G01 X21.5012 Y9.2672
G01 X21.5012 Y9.2328
G01 X21.5057 Y9.1373
G01 X21.5082 Y9.1031
G01 X21.5101 Y9.0860
G01 X21.5267 Y8.9744
G01 X21.5298 Y8.9576
G01 X21.5373 Y8.9241
G01 X21.5608 Y8.8313
G01 X21.5708 Y8.7985
G01 X21.6028 Y8.7084
G01 X21.6151 Y8.6764
G01 X21.6290 Y8.6450
G01 X21.6626 Y8.5740
G01 X21.6780 Y8.5434
G01 X21.6949 Y8.5135
G01 X21.7353 Y8.4462
G01 X21.7537 Y8.4172
G01 X21.7734 Y8.3892
G01 X21.8202 Y8.3261
G01 X21.8413 Y8.2991
G01 X21.8637 Y8.2731
G01 X21.9164 Y8.2149
G01 X21.9401 Y8.1901
G01 X21.9649 Y8.1664
G01 X22.0359 Y8.1023
G01 X22.0625 Y8.0806
G01 X22.1392 Y8.0234
G01 X22.1672 Y8.0037
G01 X22.1962 Y7.9853
G01 X22.2635 Y7.9449
G01 X22.2934 Y7.9280
G01 X22.3240 Y7.9126
G01 X22.4106 Y7.8719
G01 X22.4423 Y7.8588
G01 X22.5323 Y7.8263
G01 X22.5649 Y7.8156
G01 X22.5979 Y7.8064
G01 X22.6741 Y7.7873
G01 X22.7076 Y7.7798
G01 X22.7414 Y7.7740
G01 X22.8360 Y7.7601
G01 X22.8702 Y7.7568
G01 X22.9425 Y7.7530
G01 X23.2099 Y7.4859
G01 X23.2645 Y7.4365
G01 X23.2776 Y7.4254
G01 X23.3046 Y7.4043
G01 X23.3501 Y7.3709
G01 X23.3786 Y7.3518
G01 X23.4417 Y7.3140
G01 X23.4720 Y7.2978
G01 X23.5229 Y7.2735
G01 X23.5543 Y7.2596
G01 X23.5863 Y7.2473
G01 X23.6232 Y7.2340
G01 X23.6558 Y7.2233
G01 X23.6889 Y7.2141
G01 X23.7437 Y7.2006
G01 X23.7773 Y7.1939
G01 X23.7943 Y7.1912
G01 X23.8501 Y7.1831
G01 X23.8842 Y7.1798
G01 X23.9406 Y7.1768
G01 X23.9748 Y7.1759
G01 X27.5841 Y7.1755
G01 X27.6046 Y7.1562
G01 X27.6664 Y7.1002
G01 X27.6923 Y7.0777
G01 X27.7194 Y7.0566
G01 X27.7864 Y7.0069
G01 X27.8144 Y6.9872
G01 X27.8434 Y6.9688
G01 X27.9150 Y6.9260
G01 X27.9448 Y6.9090
G01 X27.9755 Y6.8936
G01 X28.0509 Y6.8580
G01 X28.0822 Y6.8441
G01 X28.1142 Y6.8317
G01 X28.1928 Y6.8036
G01 X28.2254 Y6.7928
G01 X28.2584 Y6.7837
G01 X28.3393 Y6.7634
G01 X28.3728 Y6.7559
G01 X28.4066 Y6.7500
G01 X28.4891 Y6.7378
G01 X28.5232 Y6.7336
G01 X28.5574 Y6.7311
G01 X28.6407 Y6.7270
G01 X28.6750 Y6.7261
G01 X28.6940 Y6.7264
G01 X28.6744 Y6.7233
G01 X28.6408 Y6.7166
G01 X28.5479 Y6.6936
G01 X28.5149 Y6.6844
G01 X28.4823 Y6.6737
G01 X28.4084 Y6.6472
G01 X28.3764 Y6.6349
G01 X28.3606 Y6.6281
G01 X28.2740 Y6.5874
G01 X28.2434 Y6.5720
G01 X28.2135 Y6.5551
G01 X28.1462 Y6.5147
G01 X28.1172 Y6.4963
G01 X28.1031 Y6.4866
G01 X28.0261 Y6.4298
G01 X27.9991 Y6.4087
G01 X27.9731 Y6.3863
G01 X27.9023 Y6.3219
G01 X27.8901 Y6.3099
G01 X27.8664 Y6.2851
G01 X27.8137 Y6.2269
G01 X27.7913 Y6.2009
G01 X27.7702 Y6.1739
G01 X27.7234 Y6.1108
G01 X27.7134 Y6.0969
G01 X27.6943 Y6.0684
G01 X27.6449 Y5.9865
G01 X27.6280 Y5.9566
G01 X27.6126 Y5.9260
G01 X27.5790 Y5.8550
G01 X27.5651 Y5.8236
G01 X27.5588 Y5.8077
G01 X27.5263 Y5.7177
G01 X27.5156 Y5.6851
G01 X27.5064 Y5.6521
G01 X27.4873 Y5.5759
G01 X27.4834 Y5.5592
G01 X27.4767 Y5.5256
G01 X27.4624 Y5.4310
G01 X27.4582 Y5.3969
G01 X27.4557 Y5.3627
G01 X27.4512 Y5.2672
G01 X27.4510 Y5.2500
G01 X27.4519 Y5.2157
G01 X27.4557 Y5.1373
G01 X27.4582 Y5.1031
G01 X27.4624 Y5.0690
G01 X27.4740 Y4.9914
G01 X27.4767 Y4.9744
G01 X27.4834 Y4.9408
G01 X27.5064 Y4.8479
G01 X27.5156 Y4.8149
G01 X27.5263 Y4.7823
G01 X27.5588 Y4.6923
G01 X27.5719 Y4.6606
G01 X27.5790 Y4.6450
G01 X27.6126 Y4.5740
G01 X27.6280 Y4.5434
G01 X27.6449 Y4.5135
G01 X27.6853 Y4.4462
G01 X27.6943 Y4.4316
G01 X27.7134 Y4.4031
G01 X27.7702 Y4.3261
G01 X27.7913 Y4.2991
G01 X27.8137 Y4.2731
G01 X27.8664 Y4.2149
G01 X27.8901 Y4.1901
G01 X27.9149 Y4.1664
G01 X27.9731 Y4.1137
G01 X27.9991 Y4.0913
G01 X28.0261 Y4.0702
G01 X28.0892 Y4.0234
G01 X28.1172 Y4.0037
G01 X28.1462 Y3.9853
G01 X28.2135 Y3.9449
G01 X28.2434 Y3.9280
G01 X28.2740 Y3.9126
G01 X28.3450 Y3.8790
G01 X28.3764 Y3.8651
G01 X28.4084 Y3.8528
G01 X28.4823 Y3.8263
G01 X28.5149 Y3.8156
G01 X28.5479 Y3.8064
G01 X28.6241 Y3.7873
G01 X28.6576 Y3.7798
G01 X28.6744 Y3.7767
G01 X28.7860 Y3.7601
G01 X28.8202 Y3.7568
G01 X28.8373 Y3.7557
G01 X28.9328 Y3.7512
G01 X29.0500 Y3.7510
G01 X29.0843 Y3.7519
G01 X29.1627 Y3.7557
G01 X29.1969 Y3.7582
G01 X29.2310 Y3.7624
G01 X29.3086 Y3.7740
G01 X29.3424 Y3.7798
G01 X29.3759 Y3.7873
G01 X29.4521 Y3.8064
G01 X29.4687 Y3.8108
G01 X29.5015 Y3.8208
G01 X29.5916 Y3.8528
G01 X29.6236 Y3.8651
G01 X29.6550 Y3.8790
G01 X29.7260 Y3.9126
G01 X29.7566 Y3.9280
G01 X29.7716 Y3.9363
G01 X29.8684 Y3.9943
G01 X29.8969 Y4.0134
G01 X29.9108 Y4.0234
G01 X29.9739 Y4.0702
G01 X30.0009 Y4.0913
G01 X30.0269 Y4.1137
G01 X30.0679 Y4.1508
G01 X30.5397 Y4.1508
G01 X31.8414 Y2.8492
G01 X24.7679 Y2.8492
G01 X24.7269 Y2.8863
G01 X24.7009 Y2.9087
G01 X24.6739 Y2.9298
G01 X24.5969 Y2.9866
G01 X24.5684 Y3.0057
G01 X24.4865 Y3.0551
G01 X24.4566 Y3.0720
G01 X24.4414 Y3.0799
G01 X24.3550 Y3.1210
G01 X24.3236 Y3.1349
G01 X24.2916 Y3.1472
G01 X24.2177 Y3.1737
G01 X24.2015 Y3.1792
G01 X24.1687 Y3.1892
G01 X24.0592 Y3.2166
G01 X24.0424 Y3.2202
G01 X24.0086 Y3.2260
G01 X23.9310 Y3.2376
G01 X23.8969 Y3.2418
G01 X23.8627 Y3.2443
G01 X23.7672 Y3.2488
G01 X23.7500 Y3.2490
G01 X23.7157 Y3.2481
G01 X23.6373 Y3.2443
G01 X23.6031 Y3.2418
G01 X23.5690 Y3.2376
G01 X23.4914 Y3.2260
G01 X23.4576 Y3.2202
G01 X23.4408 Y3.2166
G01 X23.3479 Y3.1936
G01 X23.3149 Y3.1844
G01 X23.2823 Y3.1737
G01 X23.2084 Y3.1472
G01 X23.1764 Y3.1349
G01 X23.1450 Y3.1210
G01 X23.0740 Y3.0874
G01 X23.0434 Y3.0720
G01 X23.0135 Y3.0551
G01 X22.9462 Y3.0147
G01 X22.9172 Y2.9963
G01 X22.8892 Y2.9766
G01 X22.8261 Y2.9298
G01 X22.7991 Y2.9087
G01 X22.7731 Y2.8863
G01 X22.7023 Y2.8219
G01 X22.6781 Y2.7977
G01 X22.6137 Y2.7269
G01 X22.5913 Y2.7009
G01 X22.5702 Y2.6739
G01 X22.5234 Y2.6108
G01 X22.5037 Y2.5828
G01 X22.4853 Y2.5538
G01 X22.4449 Y2.4865
G01 X22.4280 Y2.4566
G01 X22.4126 Y2.4260
G01 X22.3719 Y2.3394
G01 X22.3588 Y2.3077
G01 X22.3263 Y2.2177
G01 X22.3156 Y2.1851
G01 X22.3064 Y2.1521
G01 X22.2873 Y2.0759
G01 X22.2798 Y2.0424
G01 X22.2740 Y2.0086
G01 X22.2624 Y1.9310
G01 X22.2582 Y1.8969
G01 X22.2557 Y1.8627
G01 X22.2519 Y1.7843
G01 X22.2510 Y1.7500
G01 X22.2519 Y1.7157
G01 X22.2557 Y1.6373
G01 X22.2582 Y1.6031
G01 X22.2624 Y1.5690
G01 X22.2740 Y1.4914
G01 X22.2798 Y1.4576
G01 X22.2873 Y1.4241
G01 X22.3064 Y1.3479
G01 X22.3156 Y1.3149
G01 X22.3263 Y1.2823
G01 X22.3528 Y1.2084
G01 X22.3651 Y1.1764
G01 X22.3790 Y1.1450
G01 X22.4126 Y1.0740
G01 X22.4280 Y1.0434
G01 X22.4449 Y1.0135
G01 X22.4943 Y0.9316
G01 X22.5134 Y0.9031
G01 X22.5702 Y0.8261
G01 X22.5913 Y0.7991
G01 X22.6137 Y0.7731
G01 X22.6664 Y0.7149
G01 X22.6901 Y0.6901
G01 X22.7149 Y0.6664
G01 X22.7731 Y0.6137
G01 X22.7991 Y0.5913
G01 X22.8261 Y0.5702
G01 X22.8892 Y0.5234
G01 X22.9172 Y0.5037
G01 X22.9462 Y0.4853
G01 X23.0135 Y0.4449
G01 X23.0434 Y0.4280
G01 X23.0740 Y0.4126
G01 X23.1450 Y0.3790
G01 X23.1764 Y0.3651
G01 X23.1923 Y0.3588
G01 X23.2823 Y0.3263
G01 X23.3149 Y0.3156
G01 X23.3479 Y0.3064
G01 X23.4408 Y0.2834
G01 X23.4744 Y0.2767
G01 X23.5860 Y0.2601
G01 X23.6202 Y0.2568
G01 X23.6373 Y0.2557
G01 X23.7328 Y0.2512
G01 X23.7672 Y0.2512
G01 X23.8627 Y0.2557
G01 X23.8969 Y0.2582
G01 X23.9140 Y0.2601
G01 X24.0086 Y0.2740
G01 X24.0424 Y0.2798
G01 X24.0592 Y0.2834
G01 X24.1687 Y0.3108
G01 X24.1851 Y0.3156
G01 X24.2177 Y0.3263
G01 X24.3077 Y0.3588
G01 X24.3394 Y0.3719
G01 X24.4414 Y0.4201
G01 X24.4716 Y0.4363
G01 X24.4865 Y0.4449
G01 X24.5684 Y0.4943
G01 X24.5969 Y0.5134
G01 X24.6108 Y0.5234
G01 X24.6739 Y0.5702
G01 X24.7009 Y0.5913
G01 X24.7269 Y0.6137
G01 X24.7679 Y0.6508
G01 X32.0271 Y0.6508
G01 X32.0681 Y0.6137
G01 X32.0941 Y0.5913
G01 X32.1211 Y0.5702
G01 X32.1842 Y0.5234
G01 X32.1981 Y0.5134
G01 X32.2266 Y0.4943
G01 X32.3234 Y0.4363
G01 X32.3536 Y0.4201
G01 X32.3690 Y0.4126
G01 X32.4400 Y0.3790
G01 X32.4714 Y0.3651
G01 X32.5034 Y0.3528
G01 X32.5935 Y0.3208
G01 X32.6099 Y0.3156
G01 X32.6429 Y0.3064
G01 X32.7191 Y0.2873
G01 X32.7526 Y0.2798
G01 X32.7864 Y0.2740
G01 X32.8640 Y0.2624
G01 X32.8981 Y0.2582
G01 X32.9152 Y0.2568
G01 X33.0278 Y0.2512
G01 X33.1622 Y0.2512
G01 X33.2748 Y0.2568
G01 X33.3090 Y0.2601
G01 X33.4036 Y0.2740
G01 X33.4206 Y0.2767
G01 X33.4542 Y0.2834
G01 X33.5471 Y0.3064
G01 X33.5801 Y0.3156
G01 X33.6127 Y0.3263
G01 X33.6866 Y0.3528
G01 X33.7186 Y0.3651
G01 X33.7500 Y0.3790
G01 X33.8364 Y0.4201
G01 X33.8666 Y0.4363
G01 X33.9488 Y0.4853
G01 X33.9778 Y0.5037
G01 X34.0058 Y0.5234
G01 X34.0825 Y0.5806
G01 X34.1091 Y0.6023
G01 X34.1801 Y0.6664
G01 X34.2049 Y0.6901
G01 X34.2169 Y0.7023
G01 X34.2339 Y0.7208
G01 X34.6622 Y0.7210
G01 X34.7185 Y0.7236
G01 X34.7527 Y0.7261
G01 X34.7868 Y0.7303
G01 X34.8256 Y0.7361
G01 X34.8594 Y0.7420
G01 X34.8929 Y0.7495
G01 X34.9310 Y0.7590
G01 X34.9641 Y0.7682
G01 X34.9966 Y0.7789
G01 X35.0336 Y0.7922
G01 X35.0497 Y0.7981
G01 X35.0814 Y0.8113
G01 X35.1479 Y0.8427
G01 X35.1782 Y0.8589
G01 X35.2413 Y0.8967
G01 X35.2557 Y0.9061
G01 X35.2837 Y0.9258
G01 X35.3289 Y0.9596
G01 X35.3554 Y0.9814
G01 X35.3974 Y1.0191
G01 X35.4222 Y1.0428
G01 X37.9142 Y3.5350
G01 X37.9523 Y3.5767
G01 X37.9747 Y3.6027
G01 X37.9958 Y3.6297
G01 X38.0192 Y3.6613
G01 X38.0389 Y3.6893
G01 X38.0573 Y3.7183
G01 X38.0775 Y3.7520
G01 X38.0944 Y3.7819
G01 X38.1098 Y3.8125
G01 X38.1337 Y3.8636
G01 X38.1469 Y3.8953
G01 X38.1717 Y3.9646
G01 X38.1816 Y3.9974
G01 X38.1955 Y4.0521
G01 X38.1995 Y4.0688
G01 X38.2062 Y4.1024
G01 X38.2147 Y4.1582
G01 X38.2189 Y4.1923
G01 X38.2214 Y4.2265
G01 X38.2233 Y4.2657
G01 X38.2242 Y4.3000
G01 X38.2242 Y8.8300
G01 X38.2233 Y8.8643
G01 X38.2214 Y8.9035
G01 X38.2189 Y8.9377
G01 X38.2170 Y8.9548
G01 X38.2062 Y9.0276
G01 X38.1995 Y9.0612
G01 X38.1955 Y9.0779
G01 X38.1860 Y9.1160
G01 X38.1768 Y9.1491
G01 X38.1661 Y9.1816
G01 X38.1469 Y9.2347
G01 X38.1337 Y9.2664
G01 X38.1266 Y9.2820
G01 X38.1098 Y9.3175
G01 X38.0944 Y9.3481
G01 X38.0775 Y9.3780
G01 X38.0573 Y9.4117
G01 X38.0483 Y9.4263
G01 X38.0292 Y9.4548
G01 X37.9958 Y9.5003
G01 X37.9747 Y9.5273
G01 X37.9523 Y9.5533
G01 X37.9259 Y9.5824
G01 X37.9022 Y9.6072
G01 X35.9022 Y11.6072
G01 X35.8774 Y11.6309
G01 X35.8354 Y11.6686
G01 X35.8089 Y11.6904
G01 X35.7953 Y11.7008
G01 X35.7637 Y11.7242
G01 X35.7357 Y11.7439
G01 X35.7067 Y11.7623
G01 X35.6582 Y11.7911
G01 X35.6279 Y11.8073
G01 X35.6125 Y11.8148
G01 X35.5614 Y11.8387
G01 X35.5297 Y11.8519
G01 X35.4766 Y11.8711
G01 X35.4441 Y11.8818
G01 X35.4110 Y11.8910
G01 X35.3745 Y11.9001
G01 X35.3019 Y11.9663
G01 X35.2891 Y11.9777
G01 X35.2625 Y11.9994
G01 X35.1719 Y12.0666
G01 X35.1434 Y12.0857
G01 X35.1200 Y12.1000
G01 X35.1434 Y12.1143
G01 X35.1578 Y12.1237
G01 X35.1858 Y12.1434
G01 X35.2625 Y12.2006
G01 X35.2891 Y12.2223
G01 X35.3601 Y12.2864
G01 X35.3849 Y12.3101
G01 X35.4086 Y12.3349
G01 X35.4727 Y12.4059
G01 X35.4837 Y12.4191
G01 X35.5048 Y12.4461
G01 X35.5616 Y12.5231
G01 X35.5807 Y12.5516
G01 X35.6301 Y12.6335
G01 X35.6470 Y12.6634
G01 X35.6624 Y12.6940
G01 X35.6894 Y12.7511
G01 X38.4458 Y9.9947
G01 X38.4458 Y6.5500
G01 X38.4467 Y6.5157
G01 X38.4486 Y6.4765
G01 X38.4511 Y6.4423
G01 X38.4553 Y6.4082
G01 X38.4638 Y6.3524
G01 X38.4705 Y6.3188
G01 X38.4840 Y6.2640
G01 X38.4932 Y6.2309
G01 X38.4983 Y6.2146
G01 X38.5172 Y6.1614
G01 X38.5295 Y6.1294
G01 X38.5434 Y6.0980
G01 X38.5602 Y6.0625
G01 X38.5677 Y6.0471
G01 X38.5839 Y6.0168
G01 X38.6127 Y5.9683
G01 X38.6311 Y5.9393
G01 X38.6508 Y5.9113
G01 X38.6742 Y5.8797
G01 X38.6953 Y5.8527
G01 X38.7177 Y5.8267
G01 X38.7441 Y5.7976
G01 X38.7678 Y5.7728
G01 X39.5678 Y4.9728
G01 X39.5926 Y4.9491
G01 X39.6346 Y4.9114
G01 X39.6611 Y4.8896
G01 X39.6747 Y4.8792
G01 X39.7063 Y4.8558
G01 X39.7343 Y4.8361
G01 X39.7633 Y4.8177
G01 X39.7970 Y4.7975
G01 X39.8269 Y4.7806
G01 X39.8421 Y4.7727
G01 X39.9086 Y4.7413
G01 X39.9403 Y4.7281
G01 X39.9564 Y4.7222
G01 X39.9934 Y4.7089
G01 X40.0259 Y4.6982
G01 X40.0590 Y4.6890
G01 X40.0955 Y4.6799
G01 X40.1099 Y4.6664
G01 X40.1809 Y4.6023
G01 X40.1941 Y4.5913
G01 X40.2211 Y4.5702
G01 X40.2842 Y4.5234
G01 X40.3122 Y4.5037
G01 X40.3412 Y4.4853
G01 X40.4008 Y4.4496
G01 X40.4010 Y4.0478
G01 X40.4036 Y3.9915
G01 X40.4061 Y3.9573
G01 X40.4103 Y3.9232
G01 X40.4188 Y3.8674
G01 X40.4255 Y3.8338
G01 X40.4434 Y3.7624
G01 X40.4533 Y3.7296
G01 X40.4781 Y3.6603
G01 X40.4913 Y3.6286
G01 X40.5227 Y3.5621
G01 X40.5389 Y3.5318
G01 X40.5767 Y3.4687
G01 X40.5958 Y3.4402
G01 X40.6396 Y3.3811
G01 X40.6614 Y3.3546
G01 X40.7108 Y3.3000
G01 X41.7822 Y2.2284
G01 X41.7727 Y2.1996
G01 X41.7636 Y2.1666
G01 X41.7433 Y2.0857
G01 X41.7358 Y2.0522
G01 X41.7299 Y2.0184
G01 X41.7154 Y1.9189
G01 X41.7120 Y1.8847
G01 X41.7110 Y1.8676
G01 X41.7069 Y1.7843
G01 X41.7060 Y1.7500
G01 X41.7069 Y1.7157
G01 X41.7120 Y1.6153
G01 X41.7135 Y1.5982
G01 X41.7177 Y1.5641
G01 X41.7327 Y1.4647
G01 X41.7393 Y1.4310
G01 X41.7636 Y1.3334
G01 X41.7727 Y1.3004
G01 X41.7835 Y1.2678
G01 X41.8116 Y1.1892
G01 X41.8239 Y1.1572
G01 X41.8307 Y1.1415
G01 X41.8735 Y1.0505
G01 X41.8889 Y1.0198
G01 X41.9058 Y0.9900
G01 X41.9577 Y0.9038
G01 X41.9768 Y0.8753
G01 X41.9868 Y0.8614
G01 X42.0365 Y0.7944
G01 X42.0576 Y0.7673
G01 X42.0800 Y0.7414
G01 X42.1477 Y0.6670
G01 X42.1720 Y0.6427
G01 X42.2464 Y0.5750
G01 X42.2723 Y0.5526
G01 X42.2994 Y0.5315
G01 X42.3664 Y0.4818
G01 X42.3944 Y0.4621
G01 X42.4234 Y0.4437
G01 X42.4950 Y0.4008
G01 X42.5248 Y0.3839
G01 X42.5555 Y0.3685
G01 X42.6309 Y0.3328
G01 X42.6622 Y0.3189
G01 X42.6942 Y0.3066
G01 X42.7728 Y0.2785
G01 X42.8054 Y0.2677
G01 X42.8218 Y0.2630
G01 X42.9193 Y0.2383
G01 X42.9528 Y0.2308
G01 X42.9866 Y0.2249
G01 X43.0861 Y0.2104
G01 X43.1032 Y0.2085
G01 X43.1374 Y0.2060
G01 X43.2207 Y0.2019
G01 X43.2550 Y0.2010
G01 X43.2893 Y0.2019
G01 X43.3726 Y0.2060
G01 X43.4068 Y0.2085
G01 X43.4409 Y0.2127
G01 X43.5234 Y0.2249
G01 X43.5572 Y0.2308
G01 X43.5907 Y0.2383
G01 X43.6716 Y0.2586
G01 X43.7046 Y0.2677
G01 X43.7372 Y0.2785
G01 X43.8318 Y0.3126
G01 X43.8635 Y0.3257
G01 X43.8791 Y0.3328
G01 X43.9545 Y0.3685
G01 X43.9852 Y0.3839
G01 X44.0150 Y0.4008
G01 X44.0866 Y0.4437
G01 X44.1156 Y0.4621
G01 X44.1436 Y0.4818
G01 X44.2106 Y0.5315
G01 X44.2377 Y0.5526
G01 X44.2636 Y0.5750
G01 X44.3254 Y0.6311
G01 X44.3503 Y0.6547
G01 X44.3623 Y0.6670
G01 X44.4300 Y0.7414
G01 X44.4524 Y0.7673
G01 X44.4735 Y0.7944
G01 X44.5232 Y0.8614
G01 X44.5429 Y0.8894
G01 X44.5613 Y0.9184
G01 X44.6042 Y0.9900
G01 X44.6211 Y1.0198
G01 X44.6365 Y1.0505
G01 X44.6722 Y1.1259
G01 X44.6861 Y1.1572
G01 X44.6984 Y1.1892
G01 X44.7265 Y1.2678
G01 X44.7373 Y1.3004
G01 X44.7464 Y1.3334
G01 X44.7707 Y1.4310
G01 X44.7742 Y1.4478
G01 X44.7801 Y1.4816
G01 X44.7923 Y1.5641
G01 X44.7965 Y1.5982
G01 X44.7990 Y1.6324
G01 X44.8031 Y1.7157
G01 X44.8040 Y1.7500
G01 X44.8031 Y1.7843
G01 X44.7990 Y1.8676
G01 X44.7965 Y1.9018
G01 X44.7923 Y1.9359
G01 X44.7773 Y2.0353
G01 X44.7707 Y2.0690
G01 X44.7464 Y2.1666
G01 X44.7373 Y2.1996
G01 X44.7321 Y2.2160
G01 X44.6984 Y2.3108
G01 X44.6861 Y2.3428
G01 X44.6722 Y2.3741
G01 X44.6365 Y2.4495
G01 X44.6290 Y2.4650
G01 X44.6128 Y2.4952
G01 X44.5613 Y2.5816
G01 X44.5429 Y2.6106
G01 X44.5232 Y2.6386
G01 X44.4735 Y2.7056
G01 X44.4631 Y2.7193
G01 X44.4413 Y2.7458
G01 X44.3739 Y2.8204
G01 X44.3503 Y2.8453
G01 X44.3254 Y2.8689
G01 X44.2636 Y2.9250
G01 X44.2377 Y2.9474
G01 X44.2106 Y2.9685
G01 X44.1297 Y3.0282
G01 X44.1012 Y3.0473
G01 X44.0282 Y3.0913
G01 X42.6771 Y4.4424
G01 X42.7488 Y4.4853
G01 X42.7778 Y4.5037
G01 X42.8058 Y4.5234
G01 X42.8689 Y4.5702
G01 X42.8825 Y4.5806
G01 X42.9091 Y4.6023
G01 X42.9801 Y4.6664
G01 X43.0049 Y4.6901
G01 X43.0286 Y4.7149
G01 X43.0927 Y4.7859
G01 X43.1144 Y4.8125
G01 X43.1248 Y4.8261
G01 X43.1716 Y4.8892
G01 X43.1913 Y4.9172
G01 X43.2097 Y4.9462
G01 X43.2501 Y5.0135
G01 X43.2587 Y5.0284
G01 X43.2749 Y5.0586
G01 X43.3160 Y5.1450
G01 X43.3299 Y5.1764
G01 X43.3422 Y5.2084
G01 X43.3687 Y5.2823
G01 X43.3794 Y5.3149
G01 X43.3842 Y5.3313
G01 X43.4116 Y5.4408
G01 X43.4152 Y5.4576
G01 X43.4210 Y5.4914
G01 X43.4326 Y5.5690
G01 X43.4368 Y5.6031
G01 X43.4393 Y5.6373
G01 X43.4438 Y5.7328
G01 X43.4440 Y5.7500
G01 X43.4431 Y5.7843
G01 X43.4393 Y5.8627
G01 X43.4368 Y5.8969
G01 X43.4326 Y5.9310
G01 X43.4183 Y6.0256
G01 X43.4152 Y6.0424
G01 X43.4077 Y6.0759
G01 X43.3886 Y6.1521
G01 X43.3794 Y6.1851
G01 X43.3687 Y6.2177
G01 X43.3422 Y6.2916
G01 X43.3362 Y6.3077
G01 X43.3231 Y6.3394
G01 X43.2824 Y6.4260
G01 X43.2670 Y6.4566
G01 X43.2501 Y6.4865
G01 X43.2007 Y6.5684
G01 X43.1816 Y6.5969
G01 X43.1716 Y6.6108
G01 X43.1248 Y6.6739
G01 X43.1037 Y6.7009
G01 X43.0813 Y6.7269
G01 X43.0169 Y6.7977
G01 X42.9927 Y6.8219
G01 X42.9801 Y6.8336
G01 X42.9219 Y6.8863
G01 X42.8959 Y6.9087
G01 X42.8689 Y6.9298
G01 X42.7919 Y6.9866
G01 X42.7634 Y7.0057
G01 X42.7400 Y7.0200
G01 X42.7634 Y7.0343
G01 X42.7778 Y7.0437
G01 X42.8058 Y7.0634
G01 X42.8825 Y7.1206
G01 X42.8959 Y7.1313
G01 X42.9186 Y7.1508
G01 X45.0091 Y7.1504
G01 X45.0296 Y7.1311
G01 X45.0914 Y7.0750
G01 X45.1042 Y7.0637
G01 X45.1307 Y7.0419
G01 X45.2253 Y6.9718
G01 X45.2394 Y6.9621
G01 X45.2684 Y6.9437
G01 X45.3400 Y6.9008
G01 X45.3698 Y6.8839
G01 X45.4005 Y6.8685
G01 X45.4759 Y6.8328
G01 X45.5072 Y6.8189
G01 X45.5232 Y6.8126
G01 X45.6340 Y6.7729
G01 X45.6668 Y6.7630
G01 X45.6834 Y6.7586
G01 X45.7643 Y6.7383
G01 X45.7978 Y6.7308
G01 X45.8316 Y6.7249
G01 X45.9141 Y6.7127
G01 X45.9482 Y6.7085
G01 X45.9824 Y6.7060
G01 X46.0828 Y6.7012
G01 X46.4000 Y6.7010
G01 X46.4343 Y6.7019
G01 X46.5176 Y6.7060
G01 X46.5518 Y6.7085
G01 X46.5859 Y6.7127
G01 X46.6684 Y6.7249
G01 X46.7022 Y6.7308
G01 X46.7357 Y6.7383
G01 X46.8166 Y6.7586
G01 X46.8496 Y6.7677
G01 X46.8822 Y6.7785
G01 X46.9608 Y6.8066
G01 X46.9928 Y6.8189
G01 X47.0085 Y6.8257
G01 X47.0995 Y6.8685
G01 X47.1302 Y6.8839
G01 X47.1600 Y6.9008
G01 X47.2462 Y6.9527
G01 X47.2747 Y6.9718
G01 X47.3556 Y7.0315
G01 X47.3827 Y7.0526
G01 X47.3958 Y7.0637
G01 X47.4704 Y7.1311
G01 X47.4953 Y7.1547
G01 X47.5189 Y7.1796
G01 X47.5750 Y7.2414
G01 X47.5974 Y7.2673
G01 X47.6185 Y7.2944
G01 X47.6682 Y7.3614
G01 X47.6879 Y7.3894
G01 X47.7063 Y7.4184
G01 X47.7492 Y7.4900
G01 X47.7661 Y7.5198
G01 X47.7815 Y7.5505
G01 X47.8172 Y7.6259
G01 X47.8311 Y7.6572
G01 X47.8434 Y7.6892
G01 X47.8715 Y7.7678
G01 X47.8823 Y7.8004
G01 X47.8914 Y7.8334
G01 X47.9117 Y7.9143
G01 X47.9192 Y7.9478
G01 X47.9251 Y7.9816
G01 X47.9396 Y8.0811
G01 X47.9430 Y8.1153
G01 X47.9440 Y8.1324
G01 X47.9481 Y8.2157
G01 X47.9490 Y8.2500
G01 X47.9481 Y8.2843
G01 X47.9440 Y8.3676
G01 X47.9415 Y8.4018
G01 X47.9373 Y8.4359
G01 X47.9251 Y8.5184
G01 X47.9192 Y8.5522
G01 X47.9157 Y8.5690
G01 X47.8870 Y8.6832
G01 X47.8823 Y8.6996
G01 X47.8715 Y8.7322
G01 X47.8434 Y8.8108
G01 X47.8311 Y8.8428
G01 X47.8172 Y8.8741
G01 X47.7815 Y8.9495
G01 X47.7740 Y8.9650
G01 X47.7578 Y8.9952
G01 X47.7063 Y9.0816
G01 X47.6879 Y9.1106
G01 X47.6782 Y9.1247
G01 X47.6081 Y9.2193
G01 X47.5974 Y9.2327
G01 X47.5750 Y9.2586
G01 X47.5189 Y9.3204
G01 X47.4980 Y9.3425
G01 X47.5128 Y9.3516
G01 X47.5414 Y9.3707
G01 X47.5886 Y9.4057
G01 X47.6151 Y9.4275
G01 X47.6587 Y9.4670
G01 X47.6830 Y9.4913
G01 X47.7225 Y9.5349
G01 X47.7443 Y9.5614
G01 X47.7793 Y9.6086
G01 X47.7890 Y9.6228
G01 X47.8074 Y9.6518
G01 X47.8286 Y9.6876
G01 X47.8369 Y9.7027
G01 X47.8448 Y9.7179
G01 X47.8628 Y9.7555
G01 X47.8767 Y9.7868
G01 X47.8891 Y9.8189
G01 X47.9029 Y9.8582
G01 X47.9081 Y9.8745
G01 X47.9129 Y9.8910
G01 X47.9232 Y9.9314
G01 X47.9307 Y9.9649
G01 X47.9339 Y9.9817
G01 X47.9402 Y10.0229
G01 X47.9444 Y10.0570
G01 X47.9469 Y10.0912
G01 X47.9488 Y10.1328
G01 X47.9490 Y11.3500
G01 X47.9488 Y11.3672
G01 X47.9469 Y11.4088
G01 X47.9459 Y11.4259
G01 X47.9425 Y11.4601
G01 X47.9366 Y11.5013
G01 X47.9307 Y11.5351
G01 X47.9272 Y11.5519
G01 X47.9173 Y11.5924
G01 X47.9081 Y11.6255
G01 X47.9029 Y11.6418
G01 X47.8831 Y11.6972
G01 X47.8700 Y11.7289
G01 X47.8628 Y11.7445
G01 X47.8448 Y11.7821
G01 X47.8369 Y11.7973
G01 X47.8286 Y11.8124
G01 X47.8074 Y11.8482
G01 X47.7890 Y11.8772
G01 X47.7793 Y11.8914
G01 X47.7547 Y11.9250
G01 X47.7336 Y11.9520
G01 X47.7225 Y11.9651
G01 X47.6830 Y12.0087
G01 X47.6587 Y12.0330
G01 X47.6462 Y12.0447
G01 X47.6151 Y12.0725
G01 X47.6020 Y12.0836
G01 X47.5886 Y12.0943
G01 X47.5553 Y12.1193
G01 X47.5272 Y12.1390
G01 X47.5128 Y12.1484
G01 X47.4624 Y12.1786
G01 X47.4473 Y12.1869
G01 X47.4167 Y12.2023
G01 X47.3789 Y12.2200
G01 X47.3632 Y12.2267
G01 X47.3311 Y12.2391
G01 X47.2918 Y12.2529
G01 X47.2590 Y12.2629
G01 X47.2186 Y12.2732
G01 X47.1851 Y12.2807
G01 X47.1513 Y12.2866
G01 X47.1101 Y12.2925
G01 X47.0759 Y12.2959
G01 X47.0343 Y12.2981
G01 X47.0000 Y12.2990
G01 X46.2555 Y12.2990
G01 X44.4072 Y14.1472
G01 X44.3824 Y14.1709
G01 X44.3533 Y14.1973
G01 X44.3273 Y14.2197
G01 X44.3139 Y14.2304
G01 X44.2548 Y14.2742
G01 X44.2263 Y14.2933
G01 X44.1632 Y14.3311
G01 X44.1329 Y14.3473
G01 X44.0664 Y14.3787
G01 X44.0347 Y14.3919
G01 X43.9654 Y14.4167
G01 X43.9491 Y14.4218
G01 X43.9160 Y14.4310
G01 X43.8612 Y14.4445
G01 X43.8276 Y14.4512
G01 X43.7548 Y14.4620
G01 X43.7206 Y14.4653
G01 X43.6643 Y14.4683
G01 X43.6300 Y14.4692
G01 X43.3767 Y14.4692
G01 X43.3614 Y14.4995
G01 X43.3532 Y14.5145
G01 X43.3355 Y14.5439
G01 X43.3165 Y14.5725
G01 X43.2960 Y14.6000
G01 X43.2743 Y14.6265
G01 X43.2512 Y14.6520
G01 X43.2392 Y14.6642
G01 X43.2144 Y14.6879
G01 X43.1884 Y14.7103
G01 X43.1614 Y14.7314
G01 X43.1333 Y14.7512
G01 X43.1043 Y14.7695
G01 X43.0895 Y14.7782
G01 X43.0593 Y14.7943
G01 X43.0283 Y14.8090
G01 X42.9966 Y14.8221
G01 X42.9643 Y14.8337
G01 X42.9479 Y14.8389
G01 X42.9148 Y14.8480
G01 X42.8814 Y14.8555
G01 X42.8476 Y14.8614
G01 X42.8306 Y14.8637
G01 X42.7964 Y14.8671
G01 X42.7622 Y14.8688
G01 X42.7450 Y14.8690
G01 X40.3450 Y14.8690
G01 X40.3107 Y14.8681
G01 X40.2765 Y14.8656
G01 X40.2594 Y14.8637
G01 X40.2255 Y14.8587
G01 X40.1919 Y14.8520
G01 X40.1586 Y14.8437
G01 X40.1257 Y14.8337
G01 X40.0934 Y14.8221
G01 X40.0617 Y14.8090
G01 X40.0307 Y14.7943
G01 X40.0155 Y14.7864
G01 X39.9857 Y14.7695
G01 X39.9567 Y14.7512
G01 X39.9286 Y14.7314
G01 X39.9016 Y14.7103
G01 X39.8756 Y14.6879
G01 X39.8508 Y14.6642
G01 X39.8271 Y14.6394
G01 X39.8047 Y14.6134
G01 X39.7940 Y14.6000
G01 X39.7735 Y14.5725
G01 X39.7545 Y14.5439
G01 X39.7368 Y14.5145
G01 X39.7286 Y14.4995
G01 X39.7131 Y14.4688
G01 X39.6992 Y14.4375
G01 X39.6869 Y14.4055
G01 X39.6813 Y14.3893
G01 X39.6713 Y14.3564
G01 X39.6630 Y14.3231
G01 X39.6595 Y14.3064
G01 X39.6536 Y14.2726
G01 X39.6513 Y14.2556
G01 X39.6494 Y14.2385
G01 X39.6469 Y14.2043
G01 X39.6460 Y14.1700
G01 X39.6460 Y13.6005
G01 X35.7070 Y17.5392
G01 X35.6653 Y17.5773
G01 X35.6394 Y17.5997
G01 X35.6123 Y17.6208
G01 X35.5669 Y17.6542
G01 X35.5383 Y17.6733
G01 X35.4901 Y17.7025
G01 X35.4752 Y17.7111
G01 X35.4450 Y17.7273
G01 X35.3941 Y17.7516
G01 X35.3627 Y17.7655
G01 X35.3307 Y17.7778
G01 X35.2775 Y17.7967
G01 X35.2447 Y17.8066
G01 X35.1900 Y17.8205
G01 X35.1565 Y17.8280
G01 X35.1227 Y17.8339
G01 X35.0668 Y17.8420
G01 X35.0327 Y17.8453
G01 X34.9764 Y17.8483
G01 X34.9421 Y17.8492
G01 X30.1780 Y17.8492
G01 X30.1708 Y17.8675
G01 X30.1569 Y17.8988
G01 X30.1493 Y17.9143
G01 X30.1332 Y17.9445
G01 X30.1245 Y17.9593
G01 X30.1062 Y17.9883
G01 X30.0965 Y18.0025
G01 X30.0760 Y18.0300
G01 X30.0543 Y18.0565
G01 X30.0429 Y18.0694
G01 X30.0312 Y18.0820
G01 X30.0070 Y18.1062
G01 X29.9815 Y18.1293
G01 X29.9684 Y18.1403
G01 X29.9414 Y18.1614
G01 X29.9275 Y18.1715
G01 X29.8989 Y18.1905
G01 X29.8843 Y18.1995
G01 X29.8545 Y18.2164
G01 X29.8393 Y18.2243
G01 X29.8083 Y18.2390
G01 X29.7925 Y18.2458
G01 X29.7766 Y18.2521
G01 X29.7443 Y18.2637
G01 X29.7114 Y18.2737
G01 X29.6948 Y18.2780
G01 X29.6614 Y18.2855
G01 X29.6445 Y18.2887
G01 X29.6276 Y18.2914
G01 X29.5935 Y18.2956
G01 X29.5593 Y18.2981
G01 X29.5422 Y18.2988
G01 X27.8250 Y18.2990
G01 X27.7907 Y18.2981
G01 X27.7565 Y18.2956
G01 X27.7224 Y18.2914
G01 X27.6886 Y18.2855
G01 X27.6552 Y18.2780
G01 X27.6221 Y18.2689
G01 X27.6057 Y18.2637
G01 X27.5734 Y18.2521
G01 X27.5417 Y18.2390
G01 X27.5262 Y18.2319
G01 X27.4955 Y18.2164
G01 X27.4805 Y18.2082
G01 X27.4657 Y18.1995
G01 X27.4367 Y18.1812
G01 X27.4086 Y18.1614
G01 X27.3950 Y18.1510
G01 X27.3685 Y18.1293
G01 X27.3556 Y18.1179
G01 X27.3308 Y18.0942
G01 X27.3071 Y18.0694
G01 X27.2847 Y18.0434
G01 X27.2740 Y18.0300
G01 X27.2535 Y18.0025
G01 X27.2345 Y17.9739
G01 X27.2255 Y17.9593
G01 X27.2086 Y17.9295
G01 X27.2007 Y17.9143
G01 X27.1860 Y17.8833
G01 X27.1792 Y17.8675
G01 X27.1720 Y17.8492
G01 X19.4908 Y17.8496
G01 X19.4704 Y17.8689
G01 X19.4086 Y17.9250
G01 X19.3827 Y17.9474
G01 X19.3556 Y17.9685
G01 X19.2886 Y18.0182
G01 X19.2606 Y18.0379
G01 X19.2316 Y18.0563
G01 X19.1600 Y18.0992
G01 X19.1302 Y18.1161
G01 X19.0995 Y18.1315
G01 X19.0241 Y18.1672
G01 X18.9928 Y18.1811
G01 X18.9608 Y18.1934
G01 X18.8822 Y18.2215
G01 X18.8496 Y18.2323
G01 X18.8166 Y18.2414
G01 X18.7357 Y18.2617
G01 X18.7022 Y18.2692
G01 X18.6684 Y18.2751
G01 X18.5859 Y18.2873
G01 X18.5518 Y18.2915
G01 X18.5176 Y18.2940
G01 X18.4343 Y18.2981
G01 X18.4000 Y18.2990
G01 X18.0828 Y18.2988
G01 X17.9824 Y18.2940
G01 X17.9482 Y18.2915
G01 X17.9141 Y18.2873
G01 X17.8316 Y18.2751
G01 X17.7978 Y18.2692
G01 X17.7643 Y18.2617
G01 X17.6834 Y18.2414
G01 X17.6504 Y18.2323
G01 X17.6340 Y18.2271
G01 X17.5232 Y18.1874
G01 X17.4915 Y18.1743
G01 X17.4759 Y18.1672
G01 X17.4005 Y18.1315
G01 X17.3698 Y18.1161
G01 X17.3400 Y18.0992
G01 X17.2684 Y18.0563
G01 X17.2394 Y18.0379
G01 X17.2253 Y18.0282
G01 X17.1307 Y17.9581
G01 X17.1173 Y17.9474
G01 X17.0914 Y17.9250
G01 X17.0296 Y17.8689
G01 X17.0087 Y17.8492
G01 X12.2408 Y17.8496
G01 X12.2204 Y17.8689
G01 X12.1586 Y17.9250
G01 X12.1458 Y17.9363
G01 X12.1193 Y17.9581
G01 X12.0247 Y18.0282
G01 X11.9962 Y18.0473
G01 X11.9816 Y18.0563
G01 X11.9100 Y18.0992
G01 X11.8802 Y18.1161
G01 X11.8495 Y18.1315
G01 X11.7741 Y18.1672
G01 X11.7428 Y18.1811
G01 X11.7268 Y18.1874
G01 X11.6160 Y18.2271
G01 X11.5832 Y18.2370
G01 X11.5666 Y18.2414
G01 X11.4857 Y18.2617
G01 X11.4522 Y18.2692
G01 X11.4184 Y18.2751
G01 X11.3359 Y18.2873
G01 X11.3018 Y18.2915
G01 X11.2676 Y18.2940
G01 X11.1672 Y18.2988
G01 X10.8500 Y18.2990
G01 X10.8157 Y18.2981
G01 X10.7324 Y18.2940
G01 X10.6982 Y18.2915
G01 X10.6641 Y18.2873
G01 X10.5816 Y18.2751
G01 X10.5478 Y18.2692
G01 X10.5143 Y18.2617
G01 X10.4334 Y18.2414
G01 X10.4004 Y18.2323
G01 X10.3678 Y18.2215
G01 X10.2892 Y18.1934
G01 X10.2572 Y18.1811
G01 X10.2259 Y18.1672
G01 X10.1505 Y18.1315
G01 X10.1198 Y18.1161
G01 X10.0900 Y18.0992
G01 X10.0184 Y18.0563
G01 X9.9894 Y18.0379
G01 X9.9614 Y18.0182
G01 X9.8944 Y17.9685
G01 X9.8673 Y17.9474
G01 X9.8414 Y17.9250
G01 X9.7796 Y17.8689
G01 X9.7587 Y17.8492
G01 X4.9913 Y17.8492
G01 X4.9704 Y17.8689
G01 X4.9086 Y17.9250
G01 X4.8827 Y17.9474
G01 X4.8556 Y17.9685
G01 X4.7886 Y18.0182
G01 X4.7606 Y18.0379
G01 X4.7462 Y18.0473
G01 X4.6600 Y18.0992
G01 X4.6302 Y18.1161
G01 X4.5995 Y18.1315
G01 X4.5085 Y18.1743
G01 X4.4928 Y18.1811
G01 X4.4608 Y18.1934
G01 X4.3822 Y18.2215
G01 X4.3496 Y18.2323
G01 X4.3166 Y18.2414
G01 X4.2190 Y18.2657
G01 X4.1853 Y18.2723
G01 X4.0859 Y18.2873
G01 X4.0518 Y18.2915
G01 X4.0176 Y18.2940
G01 X3.9343 Y18.2981
G01 X3.9000 Y18.2990
G01 X3.5828 Y18.2988
G01 X3.4653 Y18.2930
G01 X3.4311 Y18.2896
G01 X3.4141 Y18.2873
G01 X3.3316 Y18.2751
G01 X3.2978 Y18.2692
G01 X3.2643 Y18.2617
G01 X3.1834 Y18.2414
G01 X3.1504 Y18.2323
G01 X3.1340 Y18.2271
G01 X3.0392 Y18.1934
G01 X3.0072 Y18.1811
G01 X2.9759 Y18.1672
G01 X2.8850 Y18.1240
G01 X2.8548 Y18.1078
G01 X2.8400 Y18.0992
G01 X2.7684 Y18.0563
G01 X2.7394 Y18.0379
G01 X2.7114 Y18.0182
G01 X2.6307 Y17.9581
G01 X2.6173 Y17.9474
G01 X2.5914 Y17.9250
G01 X2.5170 Y17.8573
G01 X2.4927 Y17.8330
G01 X2.4250 Y17.7586
G01 X2.4026 Y17.7327
G01 X2.3815 Y17.7056
G01 X2.3318 Y17.6386
G01 X2.3121 Y17.6106
G01 X2.3027 Y17.5962
G01 X2.2508 Y17.5100
G01 X2.2339 Y17.4802
G01 X2.2185 Y17.4495
G01 X2.1757 Y17.3585
G01 X2.1689 Y17.3428
G01 X2.1566 Y17.3108
G01 X2.1285 Y17.2322
G01 X2.1177 Y17.1996
G01 X2.1086 Y17.1666
G01 X2.0883 Y17.0857
G01 X2.0843 Y17.0690
G01 X2.0777 Y17.0353
G01 X2.0627 Y16.9359
G01 X2.0585 Y16.9018
G01 X2.0560 Y16.8676
G01 X2.0519 Y16.7843
G01 X2.0510 Y16.7500
G01 X2.0512 Y16.7328
G01 X2.0570 Y16.6153
G01 X2.0604 Y16.5811
G01 X2.0627 Y16.5641
G01 X2.0749 Y16.4816
G01 X2.0808 Y16.4478
G01 X2.0883 Y16.4143
G01 X2.1130 Y16.3168
G01 X2.1229 Y16.2840
G01 X2.1285 Y16.2678
G01 X2.1566 Y16.1892
G01 X2.1689 Y16.1572
G01 X2.1828 Y16.1259
G01 X2.2260 Y16.0350
G01 X2.2339 Y16.0198
G01 X2.2508 Y15.9900
G01 X2.2937 Y15.9184
G01 X2.3121 Y15.8894
G01 X2.3318 Y15.8614
G01 X2.3815 Y15.7944
G01 X2.4026 Y15.7673
G01 X2.4137 Y15.7542
G01 X2.4811 Y15.6796
G01 X2.5020 Y15.6575
G01 X2.4728 Y15.6390
G01 X2.4447 Y15.6193
G01 X2.4114 Y15.5943
G01 X2.3849 Y15.5725
G01 X2.3538 Y15.5447
G01 X2.3290 Y15.5210
G01 X2.3053 Y15.4962
G01 X2.2775 Y15.4651
G01 X2.2664 Y15.4520
G01 X2.2453 Y15.4250
G01 X2.2207 Y15.3914
G01 X2.2016 Y15.3628
G01 X2.1800 Y15.3272
G01 X2.1631 Y15.2973
G01 X2.1477 Y15.2667
G01 X2.1300 Y15.2289
G01 X2.1169 Y15.1972
G01 X2.1027 Y15.1580
G01 X2.0919 Y15.1255
G01 X2.0827 Y15.0924
G01 X2.0728 Y15.0519
G01 X2.0661 Y15.0183
G01 X2.0598 Y14.9771
G01 X2.0556 Y14.9430
G01 X2.0531 Y14.9088
G01 X2.0512 Y14.8672
G01 X2.0510 Y14.8500
G01 X2.0510 Y14.1055
G01 X1.9608 Y14.0150
G01 X1.9114 Y13.9604
G01 X1.8896 Y13.9339
G01 X1.8558 Y13.8887
G01 X1.8361 Y13.8607
G01 X1.8177 Y13.8317
G01 X1.7889 Y13.7832
G01 X1.7727 Y13.7529
G01 X1.7484 Y13.7020
G01 X1.7345 Y13.6706
G01 X1.7222 Y13.6386
G01 X1.7033 Y13.5854
G01 X1.6934 Y13.5526
G01 X1.6795 Y13.4979
G01 X1.6720 Y13.4644
G01 X1.6688 Y13.4476
G01 X1.6580 Y13.3748
G01 X1.6547 Y13.3406
G01 X1.6536 Y13.3235
G01 X1.6517 Y13.2843
G01 X1.6508 Y13.2500
G01 X1.6508 Y10.8330
G01 X1.6325 Y10.8258
G01 X1.6012 Y10.8119
G01 X1.5857 Y10.8043
G01 X1.5555 Y10.7882
G01 X1.5261 Y10.7705
G01 X1.5117 Y10.7612
G01 X1.4836 Y10.7414
G01 X1.4700 Y10.7310
G01 X1.4566 Y10.7203
G01 X1.4306 Y10.6979
G01 X1.4180 Y10.6862
G01 X1.3938 Y10.6620
G01 X1.3821 Y10.6494
G01 X1.3597 Y10.6234
G01 X1.3490 Y10.6100
G01 X1.3285 Y10.5825
G01 X1.3095 Y10.5539
G01 X1.3005 Y10.5393
G01 X1.2918 Y10.5245
G01 X1.2757 Y10.4943
G01 X1.2681 Y10.4788
G01 X1.2542 Y10.4475
G01 X1.2479 Y10.4316
G01 X1.2363 Y10.3993
G01 X1.2311 Y10.3829
G01 X1.2220 Y10.3498
G01 X1.2145 Y10.3164
G01 X1.2113 Y10.2995
G01 X1.2063 Y10.2656
G01 X1.2044 Y10.2485
G01 X1.2029 Y10.2314
G01 X1.2012 Y10.1972
G01 X1.2010 Y8.4800
G01 X1.2019 Y8.4457
G01 X1.2044 Y8.4115
G01 X1.2086 Y8.3774
G01 X1.2113 Y8.3605
G01 X1.2180 Y8.3269
G01 X1.2263 Y8.2936
G01 X1.2311 Y8.2771
G01 X1.2363 Y8.2607
G01 X1.2479 Y8.2284
G01 X1.2610 Y8.1967
G01 X1.2681 Y8.1812
G01 X1.2836 Y8.1505
G01 X1.3005 Y8.1207
G01 X1.3095 Y8.1061
G01 X1.3285 Y8.0775
G01 X1.3490 Y8.0500
G01 X1.3707 Y8.0235
G01 X1.3938 Y7.9980
G01 X1.4058 Y7.9858
G01 X1.4306 Y7.9621
G01 X1.4566 Y7.9397
G01 X1.4700 Y7.9290
G01 X1.4836 Y7.9186
G01 X1.5117 Y7.8988
G01 X1.5407 Y7.8805
G01 X1.5705 Y7.8636
G01 X1.5857 Y7.8557
G01 X1.6144 Y7.8421
G01 X1.5750 Y7.7986
G01 X1.5526 Y7.7727
G01 X1.5315 Y7.7456
G01 X1.4818 Y7.6786
G01 X1.4718 Y7.6647
G01 X1.4527 Y7.6362
G01 X1.3922 Y7.5352
G01 X1.3839 Y7.5202
G01 X1.3685 Y7.4895
G01 X1.3328 Y7.4141
G01 X1.3189 Y7.3828
G01 X1.3066 Y7.3508
G01 X1.2729 Y7.2560
G01 X1.2630 Y7.2232
G01 X1.2586 Y7.2066
G01 X1.2383 Y7.1257
G01 X1.2308 Y7.0922
G01 X1.2249 Y7.0584
G01 X1.2127 Y6.9759
G01 X1.2085 Y6.9418
G01 X1.2060 Y6.9076
G01 X1.2019 Y6.8243
G01 X1.2012 Y6.8072
G01 X1.2012 Y6.7728
G01 X1.2070 Y6.6553
G01 X1.2085 Y6.6382
G01 X1.2127 Y6.6041
G01 X1.2277 Y6.5047
G01 X1.2343 Y6.4710
G01 X1.2630 Y6.3568
G01 X1.2677 Y6.3404
G01 X1.2785 Y6.3078
G01 X1.3066 Y6.2292
G01 X1.3189 Y6.1972
G01 X1.3328 Y6.1659
G01 X1.3685 Y6.0905
G01 X1.3839 Y6.0598
G01 X1.3922 Y6.0448
G01 X1.4437 Y5.9584
G01 X1.4621 Y5.9294
G01 X1.4718 Y5.9153
G01 X1.5419 Y5.8207
G01 X1.5526 Y5.8073
G01 X1.5750 Y5.7814
G01 X1.6427 Y5.7070
G01 X1.6670 Y5.6827
G01 X1.6796 Y5.6711
G01 X1.7542 Y5.6037
G01 X1.7807 Y5.5819
G01 X1.8639 Y5.5200
G01 X1.7807 Y5.4581
G01 X1.7542 Y5.4363
G01 X1.6796 Y5.3689
G01 X1.6670 Y5.3573
G01 X1.6427 Y5.3330
G01 X1.5750 Y5.2586
G01 X1.5526 Y5.2327
G01 X1.5315 Y5.2056
G01 X1.4818 Y5.1386
G01 X1.4718 Y5.1247
G01 X1.4527 Y5.0962
G01 X1.4008 Y5.0100
G01 X1.3839 Y4.9802
G01 X1.3685 Y4.9495
G01 X1.3328 Y4.8741
G01 X1.3189 Y4.8428
G01 X1.3126 Y4.8268
G01 X1.2785 Y4.7322
G01 X1.2729 Y4.7160
G01 X1.2630 Y4.6832
G01 X1.2343 Y4.5690
G01 X1.2277 Y4.5353
G01 X1.2249 Y4.5184
G01 X1.2127 Y4.4359
G01 X1.2085 Y4.4018
G01 X1.2060 Y4.3676
G01 X1.2019 Y4.2843
G01 X1.2012 Y4.2672
G01 X1.2012 Y4.2328
G01 X1.2060 Y4.1324
G01 X1.2085 Y4.0982
G01 X1.2127 Y4.0641
G01 X1.2249 Y3.9816
G01 X1.2308 Y3.9478
G01 X1.2383 Y3.9143
G01 X1.2586 Y3.8334
G01 X1.2677 Y3.8004
G01 X1.2729 Y3.7840
G01 X1.3066 Y3.6892
G01 X1.3189 Y3.6572
G01 X1.3328 Y3.6259
G01 X1.3685 Y3.5505
G01 X1.3839 Y3.5198
G01 X1.4008 Y3.4900
G01 X1.4437 Y3.4184
G01 X1.4621 Y3.3894
G01 X1.4718 Y3.3753
G01 X1.5315 Y3.2944
G01 X1.5526 Y3.2673
G01 X1.5750 Y3.2414
G01 X1.6427 Y3.1670
G01 X1.6670 Y3.1427
G01 X1.6796 Y3.1311
G01 X1.7414 Y3.0750
G01 X1.7673 Y3.0526
G01 X1.7944 Y3.0315
G01 X1.8639 Y2.9800
G01 X1.7944 Y2.9285
G01 X1.7673 Y2.9074
G01 X1.7414 Y2.8850
G01 X1.6796 Y2.8289
G01 X1.6670 Y2.8173
G01 X1.6427 Y2.7930
G01 X1.5750 Y2.7186
G01 X1.5526 Y2.6927
G01 X1.5315 Y2.6656
G01 X1.4718 Y2.5847
G01 X1.4621 Y2.5706
G01 X1.4437 Y2.5416
G01 X1.4008 Y2.4700
G01 X1.3839 Y2.4402
G01 X1.3685 Y2.4095
G01 X1.3328 Y2.3341
G01 X1.3189 Y2.3028
G01 X1.3066 Y2.2708
G01 X1.2729 Y2.1760
G01 X1.2677 Y2.1596
G01 X1.2586 Y2.1266
G01 X1.2383 Y2.0457
G01 X1.2308 Y2.0122
G01 X1.2249 Y1.9784
G01 X1.2127 Y1.8959
G01 X1.2085 Y1.8618
G01 X1.2060 Y1.8276
G01 X1.2012 Y1.7272
G01 X1.2012 Y1.6928
G01 X1.2019 Y1.6757
G01 X1.2060 Y1.5924
G01 X1.2085 Y1.5582
G01 X1.2127 Y1.5241
G01 X1.2249 Y1.4416
G01 X1.2308 Y1.4078
G01 X1.2343 Y1.3910
G01 X1.2586 Y1.2934
G01 X1.2677 Y1.2604
G01 X1.2785 Y1.2278
G01 X1.3126 Y1.1332
G01 X1.3257 Y1.1015
G01 X1.3760 Y0.9950
G01 X1.3839 Y0.9798
G01 X1.4008 Y0.9500
G01 X1.4437 Y0.8784
G01 X1.4621 Y0.8494
G01 X1.4818 Y0.8214
G01 X1.5315 Y0.7544
G01 X1.5526 Y0.7273
G01 X1.5750 Y0.7014
G01 X1.6311 Y0.6396
G01 X1.6547 Y0.6147
G01 X1.6796 Y0.5911
G01 X1.7414 Y0.5350
G01 X1.7673 Y0.5126
G01 X1.7944 Y0.4915
G01 X1.8614 Y0.4418
G01 X1.8894 Y0.4221
G01 X1.9184 Y0.4037
G01 X1.9900 Y0.3608
G01 X2.0198 Y0.3439
G01 X2.0505 Y0.3285
G01 X2.1259 Y0.2928
G01 X2.1572 Y0.2789
G01 X2.1892 Y0.2666
G01 X2.2678 Y0.2385
G01 X2.2840 Y0.2329
G01 X2.3168 Y0.2230
G01 X2.4310 Y0.1943
G01 X2.4647 Y0.1877
G01 X2.5641 Y0.1727
G01 X2.5982 Y0.1685
G01 X2.6324 Y0.1660
G01 X2.7328 Y0.1612
G01 X2.7672 Y0.1612
G01 X2.7843 Y0.1619
G00 Z1.0000
G00 X2.7709 Y0.4351
G01 F60.00
G01 Z-0.0900
G01 F500.00
G01 X2.8542 Y0.4391
G01 X2.8750 Y0.4407
G01 X2.8957 Y0.4432
G01 X2.9783 Y0.4555
G01 X2.9988 Y0.4590
G01 X3.0090 Y0.4612
G01 X3.1001 Y0.4839
G01 X3.1202 Y0.4895
G01 X3.1302 Y0.4926
G01 X3.2284 Y0.5278
G01 X3.2477 Y0.5357
G01 X3.2572 Y0.5401
G01 X3.3326 Y0.5758
G01 X3.3420 Y0.5803
G01 X3.3604 Y0.5902
G01 X3.4499 Y0.6438
G01 X3.4586 Y0.6495
G01 X3.4757 Y0.6615
G01 X3.5510 Y0.7175
G01 X3.5671 Y0.7308
G01 X3.5750 Y0.7377
G01 X3.6368 Y0.7937
G01 X3.6519 Y0.8081
G01 X3.6663 Y0.8232
G01 X3.7217 Y0.8843
G01 X5.2346 Y0.8843
G01 X5.2608 Y0.8556
G01 X5.2756 Y0.8408
G01 X5.3529 Y0.7708
G01 X5.3690 Y0.7575
G01 X5.3773 Y0.7512
G01 X5.4443 Y0.7015
G01 X5.4528 Y0.6954
G01 X5.4701 Y0.6838
G01 X5.5596 Y0.6302
G01 X5.5780 Y0.6203
G01 X5.5874 Y0.6158
G01 X5.6628 Y0.5801
G01 X5.6819 Y0.5716
G01 X5.7014 Y0.5641
G01 X5.7898 Y0.5326
G01 X5.7998 Y0.5295
G01 X5.8199 Y0.5239
G01 X5.9008 Y0.5036
G01 X5.9212 Y0.4990
G01 X5.9417 Y0.4955
G01 X6.0243 Y0.4832
G01 X6.0450 Y0.4807
G01 X6.0658 Y0.4791
G01 X6.1491 Y0.4751
G01 X6.1700 Y0.4745
G01 X6.1909 Y0.4751
G01 X6.2742 Y0.4791
G01 X6.2950 Y0.4807
G01 X6.3157 Y0.4832
G01 X6.3983 Y0.4955
G01 X6.4086 Y0.4971
G01 X6.4290 Y0.5012
G01 X6.5201 Y0.5239
G01 X6.5402 Y0.5295
G01 X6.5601 Y0.5360
G01 X6.6386 Y0.5641
G01 X6.6581 Y0.5716
G01 X6.6772 Y0.5801
G01 X6.7526 Y0.6158
G01 X6.7712 Y0.6251
G01 X6.7894 Y0.6354
G01 X6.8610 Y0.6783
G01 X6.8786 Y0.6895
G01 X6.8957 Y0.7015
G01 X6.9627 Y0.7512
G01 X6.9791 Y0.7641
G01 X6.9950 Y0.7777
G01 X7.0568 Y0.8337
G01 X7.0719 Y0.8481
G01 X7.0863 Y0.8632
G01 X7.1423 Y0.9250
G01 X7.1559 Y0.9409
G01 X7.1688 Y0.9573
G01 X7.2185 Y1.0243
G01 X7.2305 Y1.0414
G01 X7.2417 Y1.0590
G01 X7.2846 Y1.1306
G01 X7.2949 Y1.1488
G01 X7.3042 Y1.1674
G01 X7.3399 Y1.2428
G01 X7.3484 Y1.2619
G01 X7.3559 Y1.2814
G01 X7.3840 Y1.3599
G01 X7.3905 Y1.3798
G01 X7.3961 Y1.3999
G01 X7.4164 Y1.4808
G01 X7.4188 Y1.4910
G01 X7.4229 Y1.5114
G01 X7.4368 Y1.6043
G01 X7.4393 Y1.6250
G01 X7.4409 Y1.6458
G01 X7.4449 Y1.7291
G01 X7.4455 Y1.7500
G01 X7.4449 Y1.7709
G01 X7.4409 Y1.8542
G01 X7.4393 Y1.8750
G01 X7.4368 Y1.8957
G01 X7.4245 Y1.9783
G01 X7.4210 Y1.9988
G01 X7.4164 Y2.0192
G01 X7.3961 Y2.1001
G01 X7.3905 Y2.1202
G01 X7.3840 Y2.1401
G01 X7.3559 Y2.2186
G01 X7.3484 Y2.2381
G01 X7.3399 Y2.2572
G01 X7.3042 Y2.3326
G01 X7.2949 Y2.3512
G01 X7.2846 Y2.3694
G01 X7.2417 Y2.4410
G01 X7.2305 Y2.4586
G01 X7.2185 Y2.4757
G01 X7.1625 Y2.5510
G01 X7.1559 Y2.5591
G01 X7.1423 Y2.5750
G01 X7.0863 Y2.6368
G01 X7.0719 Y2.6519
G01 X7.0568 Y2.6663
G01 X6.9950 Y2.7223
G01 X6.9791 Y2.7359
G01 X6.9710 Y2.7425
G01 X6.8957 Y2.7985
G01 X6.8786 Y2.8105
G01 X6.8610 Y2.8217
G01 X6.7894 Y2.8646
G01 X6.7712 Y2.8749
G01 X6.7526 Y2.8842
G01 X6.6772 Y2.9199
G01 X6.6581 Y2.9284
G01 X6.6386 Y2.9359
G01 X6.5502 Y2.9674
G01 X6.5302 Y2.9734
G01 X6.5201 Y2.9761
G01 X6.4392 Y2.9964
G01 X6.4188 Y3.0010
G01 X6.3983 Y3.0045
G01 X6.3157 Y3.0168
G01 X6.2950 Y3.0193
G01 X6.2742 Y3.0209
G01 X6.1909 Y3.0249
G01 X6.1700 Y3.0255
G01 X6.1491 Y3.0249
G01 X6.0658 Y3.0209
G01 X6.0450 Y3.0193
G01 X6.0243 Y3.0168
G01 X5.9417 Y3.0045
G01 X5.9212 Y3.0010
G01 X5.9008 Y2.9964
G01 X5.8199 Y2.9761
G01 X5.7998 Y2.9705
G01 X5.7799 Y2.9640
G01 X5.7014 Y2.9359
G01 X5.6819 Y2.9284
G01 X5.6628 Y2.9199
G01 X5.5874 Y2.8842
G01 X5.5688 Y2.8749
G01 X5.5506 Y2.8646
G01 X5.4790 Y2.8217
G01 X5.4614 Y2.8105
G01 X5.4528 Y2.8046
G01 X5.3773 Y2.7488
G01 X5.3609 Y2.7359
G01 X5.3450 Y2.7223
G01 X5.2756 Y2.6592
G01 X5.2681 Y2.6519
G01 X5.2537 Y2.6368
G01 X5.1977 Y2.5750
G01 X5.1841 Y2.5591
G01 X5.1660 Y2.5357
G01 X3.7213 Y2.5361
G01 X3.6663 Y2.5968
G01 X3.6519 Y2.6119
G01 X3.6368 Y2.6263
G01 X3.5750 Y2.6823
G01 X3.5591 Y2.6959
G01 X3.5427 Y2.7088
G01 X3.4757 Y2.7585
G01 X3.4586 Y2.7705
G01 X3.4410 Y2.7817
G01 X3.3694 Y2.8246
G01 X3.3512 Y2.8349
G01 X3.3326 Y2.8442
G01 X3.2572 Y2.8799
G01 X3.2381 Y2.8884
G01 X3.2186 Y2.8959
G01 X3.1401 Y2.9240
G01 X3.1202 Y2.9305
G01 X3.1001 Y2.9361
G01 X3.0192 Y2.9564
G01 X2.9988 Y2.9610
G01 X2.9783 Y2.9645
G01 X2.8957 Y2.9768
G01 X2.8671 Y2.9800
G01 X2.8957 Y2.9832
G01 X2.9783 Y2.9955
G01 X2.9988 Y2.9990
G01 X3.0192 Y3.0036
G01 X3.1001 Y3.0239
G01 X3.1202 Y3.0295
G01 X3.1401 Y3.0360
G01 X3.2186 Y3.0641
G01 X3.2381 Y3.0716
G01 X3.2572 Y3.0801
G01 X3.3326 Y3.1158
G01 X3.3512 Y3.1251
G01 X3.3694 Y3.1354
G01 X3.4410 Y3.1783
G01 X3.4586 Y3.1895
G01 X3.4757 Y3.2015
G01 X3.5427 Y3.2512
G01 X3.5591 Y3.2641
G01 X3.5750 Y3.2777
G01 X3.6368 Y3.3337
G01 X3.6519 Y3.3481
G01 X3.6663 Y3.3632
G01 X3.7217 Y3.4243
G01 X5.1700 Y3.4243
G01 X5.1909 Y3.4249
G01 X5.2405 Y3.4274
G01 X5.2613 Y3.4295
G01 X5.3208 Y3.4383
G01 X5.3413 Y3.4424
G01 X5.3996 Y3.4570
G01 X5.4196 Y3.4630
G01 X5.4763 Y3.4833
G01 X5.4956 Y3.4913
G01 X5.5406 Y3.5124
G01 X5.5592 Y3.5218
G01 X5.5774 Y3.5321
G01 X5.6200 Y3.5578
G01 X5.6373 Y3.5694
G01 X5.6773 Y3.5989
G01 X5.6856 Y3.6052
G01 X5.7018 Y3.6185
G01 X5.7387 Y3.6518
G01 X5.7536 Y3.6659
G01 X6.0672 Y3.9791
G01 X6.1491 Y3.9751
G01 X6.1700 Y3.9745
G01 X6.1909 Y3.9751
G01 X6.2742 Y3.9791
G01 X6.2950 Y3.9807
G01 X6.3157 Y3.9832
G01 X6.3983 Y3.9955
G01 X6.4188 Y3.9990
G01 X6.4392 Y4.0036
G01 X6.5201 Y4.0239
G01 X6.5402 Y4.0295
G01 X6.5601 Y4.0360
G01 X6.6386 Y4.0641
G01 X6.6581 Y4.0716
G01 X6.6772 Y4.0801
G01 X6.7526 Y4.1158
G01 X6.7712 Y4.1251
G01 X6.7894 Y4.1354
G01 X6.8610 Y4.1783
G01 X6.8786 Y4.1895
G01 X6.8957 Y4.2015
G01 X6.9710 Y4.2575
G01 X6.9871 Y4.2708
G01 X6.9950 Y4.2777
G01 X7.0568 Y4.3337
G01 X7.0719 Y4.3481
G01 X7.0863 Y4.3632
G01 X7.1423 Y4.4250
G01 X7.1492 Y4.4329
G01 X7.1625 Y4.4490
G01 X7.2185 Y4.5243
G01 X7.2305 Y4.5414
G01 X7.2417 Y4.5590
G01 X7.2846 Y4.6306
G01 X7.2949 Y4.6488
G01 X7.3042 Y4.6674
G01 X7.3399 Y4.7428
G01 X7.3484 Y4.7619
G01 X7.3559 Y4.7814
G01 X7.3840 Y4.8599
G01 X7.3905 Y4.8798
G01 X7.3961 Y4.8999
G01 X7.4188 Y4.9910
G01 X7.4210 Y5.0012
G01 X7.4245 Y5.0217
G01 X7.4368 Y5.1043
G01 X7.4393 Y5.1250
G01 X7.4409 Y5.1458
G01 X7.4449 Y5.2291
G01 X7.4455 Y5.2500
G01 X7.4449 Y5.2709
G01 X7.4409 Y5.3542
G01 X7.4393 Y5.3750
G01 X7.4368 Y5.3957
G01 X7.4245 Y5.4783
G01 X7.4210 Y5.4988
G01 X7.4164 Y5.5192
G01 X7.3961 Y5.6001
G01 X7.3905 Y5.6202
G01 X7.3840 Y5.6401
G01 X7.3559 Y5.7186
G01 X7.3484 Y5.7381
G01 X7.3399 Y5.7572
G01 X7.3042 Y5.8326
G01 X7.2949 Y5.8512
G01 X7.2846 Y5.8694
G01 X7.2417 Y5.9410
G01 X7.2305 Y5.9586
G01 X7.2185 Y5.9757
G01 X7.1688 Y6.0427
G01 X7.1559 Y6.0591
G01 X7.1423 Y6.0750
G01 X7.0863 Y6.1368
G01 X7.0792 Y6.1444
G01 X7.0644 Y6.1592
G01 X6.9950 Y6.2223
G01 X6.9871 Y6.2292
G01 X6.9710 Y6.2425
G01 X6.8872 Y6.3046
G01 X6.8699 Y6.3162
G01 X6.8610 Y6.3217
G01 X6.7894 Y6.3646
G01 X6.7804 Y6.3698
G01 X6.7620 Y6.3797
G01 X6.6677 Y6.4243
G01 X6.6484 Y6.4322
G01 X6.6386 Y6.4359
G01 X6.5502 Y6.4674
G01 X6.5402 Y6.4705
G01 X6.5201 Y6.4761
G01 X6.4392 Y6.4964
G01 X6.4188 Y6.5010
G01 X6.3983 Y6.5045
G01 X6.3054 Y6.5182
G01 X6.2950 Y6.5193
G01 X6.2742 Y6.5209
G01 X6.1909 Y6.5249
G01 X6.1700 Y6.5255
G01 X6.1491 Y6.5249
G01 X6.0658 Y6.5209
G01 X6.0450 Y6.5193
G01 X6.0243 Y6.5168
G01 X5.9417 Y6.5045
G01 X5.9212 Y6.5010
G01 X5.9008 Y6.4964
G01 X5.8199 Y6.4761
G01 X5.7998 Y6.4705
G01 X5.7799 Y6.4640
G01 X5.7014 Y6.4359
G01 X5.6819 Y6.4284
G01 X5.6628 Y6.4199
G01 X5.5874 Y6.3842
G01 X5.5780 Y6.3797
G01 X5.5596 Y6.3698
G01 X5.4790 Y6.3217
G01 X5.4614 Y6.3105
G01 X5.4443 Y6.2985
G01 X5.3773 Y6.2488
G01 X5.3609 Y6.2359
G01 X5.3450 Y6.2223
G01 X5.2832 Y6.1663
G01 X5.2681 Y6.1519
G01 X5.2537 Y6.1368
G01 X5.1977 Y6.0750
G01 X5.1841 Y6.0591
G01 X5.1712 Y6.0427
G01 X5.1215 Y5.9757
G01 X5.1095 Y5.9586
G01 X5.0983 Y5.9410
G01 X5.0554 Y5.8694
G01 X5.0451 Y5.8512
G01 X5.0358 Y5.8326
G01 X5.0001 Y5.7572
G01 X4.9916 Y5.7381
G01 X4.9841 Y5.7186
G01 X4.9560 Y5.6401
G01 X4.9495 Y5.6202
G01 X4.9439 Y5.6001
G01 X4.9236 Y5.5192
G01 X4.9190 Y5.4988
G01 X4.9155 Y5.4783
G01 X4.9018 Y5.3854
G01 X4.9007 Y5.3750
G01 X4.8991 Y5.3542
G01 X4.8951 Y5.2709
G01 X4.8945 Y5.2500
G01 X4.8951 Y5.2291
G01 X4.8991 Y5.1468
G01 X4.8281 Y5.0757
G01 X3.7213 Y5.0761
G01 X3.6663 Y5.1368
G01 X3.6519 Y5.1519
G01 X3.6368 Y5.1663
G01 X3.5750 Y5.2223
G01 X3.5591 Y5.2359
G01 X3.5427 Y5.2488
G01 X3.4757 Y5.2985
G01 X3.4586 Y5.3105
G01 X3.4410 Y5.3217
G01 X3.3694 Y5.3646
G01 X3.3512 Y5.3749
G01 X3.3326 Y5.3842
G01 X3.2572 Y5.4199
G01 X3.2381 Y5.4284
G01 X3.2186 Y5.4359
G01 X3.1401 Y5.4640
G01 X3.1202 Y5.4705
G01 X3.1001 Y5.4761
G01 X3.0192 Y5.4964
G01 X2.9988 Y5.5010
G01 X2.9783 Y5.5045
G01 X2.8957 Y5.5168
G01 X2.8671 Y5.5200
G01 X2.8957 Y5.5232
G01 X2.9783 Y5.5355
G01 X2.9988 Y5.5390
G01 X3.0192 Y5.5436
G01 X3.1001 Y5.5639
G01 X3.1202 Y5.5695
G01 X3.1401 Y5.5760
G01 X3.2186 Y5.6041
G01 X3.2381 Y5.6116
G01 X3.2572 Y5.6201
G01 X3.3326 Y5.6558
G01 X3.3512 Y5.6651
G01 X3.3694 Y5.6754
G01 X3.4410 Y5.7183
G01 X3.4586 Y5.7295
G01 X3.4757 Y5.7415
G01 X3.5427 Y5.7912
G01 X3.5591 Y5.8041
G01 X3.5750 Y5.8177
G01 X3.6368 Y5.8737
G01 X3.6519 Y5.8881
G01 X3.6663 Y5.9032
G01 X3.7217 Y5.9643
G01 X4.2100 Y5.9643
G01 X4.2309 Y5.9649
G01 X4.2805 Y5.9674
G01 X4.2909 Y5.9683
G01 X4.3117 Y5.9709
G01 X4.3505 Y5.9766
G01 X4.3711 Y5.9802
G01 X4.3915 Y5.9848
G01 X4.4296 Y5.9943
G01 X4.4497 Y5.9999
G01 X4.4596 Y6.0030
G01 X4.5065 Y6.0197
G01 X4.5163 Y6.0233
G01 X4.5356 Y6.0313
G01 X4.5899 Y6.0570
G01 X4.6084 Y6.0669
G01 X4.6600 Y6.0978
G01 X4.6773 Y6.1094
G01 X4.6858 Y6.1155
G01 X4.7173 Y6.1389
G01 X4.7338 Y6.1518
G01 X4.7496 Y6.1654
G01 X4.7787 Y6.1918
G01 X4.7938 Y6.2061
G01 X6.0673 Y7.4791
G01 X6.1491 Y7.4751
G01 X6.1700 Y7.4745
G01 X6.1909 Y7.4751
G01 X6.2742 Y7.4791
G01 X6.2950 Y7.4807
G01 X6.3157 Y7.4832
G01 X6.3983 Y7.4955
G01 X6.4188 Y7.4990
G01 X6.4392 Y7.5036
G01 X6.5201 Y7.5239
G01 X6.5402 Y7.5295
G01 X6.5601 Y7.5360
G01 X6.6386 Y7.5641
G01 X6.6581 Y7.5716
G01 X6.6772 Y7.5801
G01 X6.7526 Y7.6158
G01 X6.7712 Y7.6251
G01 X6.7894 Y7.6354
G01 X6.8610 Y7.6783
G01 X6.8786 Y7.6895
G01 X6.8957 Y7.7015
G01 X6.9627 Y7.7512
G01 X6.9791 Y7.7641
G01 X6.9950 Y7.7777
G01 X7.0568 Y7.8337
G01 X7.0719 Y7.8481
G01 X7.0863 Y7.8632
G01 X7.1423 Y7.9250
G01 X7.1559 Y7.9409
G01 X7.1688 Y7.9573
G01 X7.2185 Y8.0243
G01 X7.2305 Y8.0414
G01 X7.2417 Y8.0590
G01 X7.2846 Y8.1306
G01 X7.2949 Y8.1488
G01 X7.3042 Y8.1674
G01 X7.3399 Y8.2428
G01 X7.3484 Y8.2619
G01 X7.3559 Y8.2814
G01 X7.3840 Y8.3599
G01 X7.3905 Y8.3798
G01 X7.3934 Y8.3898
G01 X7.4188 Y8.4910
G01 X7.4210 Y8.5012
G01 X7.4245 Y8.5217
G01 X7.4368 Y8.6043
G01 X7.4393 Y8.6250
G01 X7.4409 Y8.6458
G01 X7.4449 Y8.7291
G01 X7.4455 Y8.7500
G01 X7.4449 Y8.7709
G01 X7.4409 Y8.8542
G01 X7.4393 Y8.8750
G01 X7.4368 Y8.8957
G01 X7.4245 Y8.9783
G01 X7.4210 Y8.9988
G01 X7.4164 Y9.0192
G01 X7.3961 Y9.1001
G01 X7.3905 Y9.1202
G01 X7.3840 Y9.1401
G01 X7.3559 Y9.2186
G01 X7.3484 Y9.2381
G01 X7.3399 Y9.2572
G01 X7.3042 Y9.3326
G01 X7.2949 Y9.3512
G01 X7.2846 Y9.3694
G01 X7.2417 Y9.4410
G01 X7.2305 Y9.4586
G01 X7.2185 Y9.4757
G01 X7.1688 Y9.5427
G01 X7.1559 Y9.5591
G01 X7.1423 Y9.5750
G01 X7.0863 Y9.6368
G01 X7.0719 Y9.6519
G01 X7.0568 Y9.6663
G01 X6.9950 Y9.7223
G01 X6.9791 Y9.7359
G01 X6.9627 Y9.7488
G01 X6.8957 Y9.7985
G01 X6.8786 Y9.8105
G01 X6.8610 Y9.8217
G01 X6.7894 Y9.8646
G01 X6.7712 Y9.8749
G01 X6.7526 Y9.8842
G01 X6.6772 Y9.9199
G01 X6.6581 Y9.9284
G01 X6.6386 Y9.9359
G01 X6.5601 Y9.9640
G01 X6.5402 Y9.9705
G01 X6.5201 Y9.9761
G01 X6.4392 Y9.9964
G01 X6.4188 Y10.0010
G01 X6.3983 Y10.0045
G01 X6.3157 Y10.0168
G01 X6.2950 Y10.0193
G01 X6.2742 Y10.0209
G01 X6.1909 Y10.0249
G01 X6.1804 Y10.0253
G01 X6.1596 Y10.0253
G01 X6.0554 Y10.0202
G01 X6.0346 Y10.0182
G01 X6.0243 Y10.0168
G01 X5.9417 Y10.0045
G01 X5.9212 Y10.0010
G01 X5.9008 Y9.9964
G01 X5.8199 Y9.9761
G01 X5.7998 Y9.9705
G01 X5.7799 Y9.9640
G01 X5.7014 Y9.9359
G01 X5.6819 Y9.9284
G01 X5.6628 Y9.9199
G01 X5.5874 Y9.8842
G01 X5.5780 Y9.8797
G01 X5.5596 Y9.8698
G01 X5.4790 Y9.8217
G01 X5.4614 Y9.8105
G01 X5.4443 Y9.7985
G01 X5.3773 Y9.7488
G01 X5.3609 Y9.7359
G01 X5.3529 Y9.7292
G01 X5.2756 Y9.6592
G01 X5.2681 Y9.6519
G01 X5.2537 Y9.6368
G01 X5.1977 Y9.5750
G01 X5.1841 Y9.5591
G01 X5.1712 Y9.5427
G01 X5.1215 Y9.4757
G01 X5.1154 Y9.4672
G01 X5.1038 Y9.4499
G01 X5.0554 Y9.3694
G01 X5.0502 Y9.3604
G01 X5.0403 Y9.3420
G01 X4.9957 Y9.2477
G01 X4.9916 Y9.2381
G01 X4.9841 Y9.2186
G01 X4.9560 Y9.1401
G01 X4.9526 Y9.1302
G01 X4.9466 Y9.1102
G01 X4.9212 Y9.0090
G01 X4.9171 Y8.9886
G01 X4.9155 Y8.9783
G01 X4.9018 Y8.8854
G01 X4.9007 Y8.8750
G01 X4.8991 Y8.8542
G01 X4.8951 Y8.7709
G01 X4.8945 Y8.7500
G01 X4.8951 Y8.7291
G01 X4.8991 Y8.6468
G01 X3.8682 Y7.6158
G01 X3.7214 Y7.6159
G01 X3.6663 Y7.6768
G01 X3.6519 Y7.6919
G01 X3.6368 Y7.7063
G01 X3.5750 Y7.7623
G01 X3.5591 Y7.7759
G01 X3.5427 Y7.7888
G01 X3.4757 Y7.8385
G01 X3.4586 Y7.8505
G01 X3.4410 Y7.8617
G01 X3.3694 Y7.9046
G01 X3.3512 Y7.9149
G01 X3.3326 Y7.9242
G01 X3.2572 Y7.9599
G01 X3.2381 Y7.9684
G01 X3.2186 Y7.9759
G01 X3.1302 Y8.0074
G01 X3.1102 Y8.0134
G01 X3.1001 Y8.0161
G01 X3.0090 Y8.0388
G01 X2.9886 Y8.0429
G01 X2.9783 Y8.0445
G01 X2.9107 Y8.0545
G01 X3.6104 Y8.0547
G01 X3.6313 Y8.0557
G01 X3.6417 Y8.0566
G01 X3.6521 Y8.0577
G01 X3.6727 Y8.0608
G01 X3.6830 Y8.0627
G01 X3.7034 Y8.0673
G01 X3.7135 Y8.0700
G01 X3.7335 Y8.0760
G01 X3.7531 Y8.0830
G01 X3.7724 Y8.0910
G01 X3.7819 Y8.0954
G01 X3.8006 Y8.1048
G01 X3.8097 Y8.1098
G01 X3.8187 Y8.1151
G01 X3.8364 Y8.1262
G01 X3.8534 Y8.1383
G01 X3.8618 Y8.1446
G01 X3.8699 Y8.1511
G01 X3.8857 Y8.1648
G01 X3.9008 Y8.1792
G01 X3.9081 Y8.1866
G01 X3.9152 Y8.1943
G01 X3.9289 Y8.2101
G01 X3.9417 Y8.2266
G01 X3.9478 Y8.2350
G01 X3.9595 Y8.2524
G01 X3.9702 Y8.2703
G01 X3.9752 Y8.2794
G01 X3.9800 Y8.2887
G01 X3.9890 Y8.3076
G01 X3.9970 Y8.3269
G01 X4.0040 Y8.3465
G01 X4.0071 Y8.3565
G01 X4.0127 Y8.3766
G01 X4.0151 Y8.3868
G01 X4.0173 Y8.3970
G01 X4.0209 Y8.4176
G01 X4.0234 Y8.4383
G01 X4.0243 Y8.4487
G01 X4.0253 Y8.4696
G01 X4.0255 Y8.4800
G01 X4.0255 Y10.1800
G01 X4.0249 Y10.2009
G01 X4.0234 Y10.2217
G01 X4.0209 Y10.2424
G01 X4.0173 Y10.2630
G01 X4.0127 Y10.2834
G01 X4.0071 Y10.3035
G01 X4.0006 Y10.3233
G01 X3.9931 Y10.3428
G01 X3.9846 Y10.3619
G01 X3.9752 Y10.3806
G01 X3.9702 Y10.3897
G01 X3.9595 Y10.4076
G01 X3.9538 Y10.4164
G01 X3.9417 Y10.4334
G01 X3.9289 Y10.4499
G01 X3.9152 Y10.4657
G01 X3.9008 Y10.4808
G01 X3.8934 Y10.4881
G01 X3.8779 Y10.5022
G01 X3.8618 Y10.5154
G01 X3.8450 Y10.5278
G01 X3.8276 Y10.5395
G01 X3.8097 Y10.5502
G01 X3.7913 Y10.5600
G01 X3.7724 Y10.5690
G01 X3.7531 Y10.5770
G01 X3.7335 Y10.5840
G01 X3.7235 Y10.5871
G01 X3.7034 Y10.5927
G01 X3.6830 Y10.5973
G01 X3.6624 Y10.6009
G01 X3.6521 Y10.6023
G01 X3.6417 Y10.6034
G01 X3.6209 Y10.6049
G01 X3.6000 Y10.6055
G01 X3.5757 Y10.6055
G01 X3.5757 Y12.9080
G01 X3.6422 Y12.9745
G01 X4.5104 Y12.9747
G01 X4.5454 Y12.9763
G01 X4.5662 Y12.9778
G01 X4.5869 Y12.9803
G01 X4.6215 Y12.9856
G01 X4.6420 Y12.9897
G01 X4.6522 Y12.9921
G01 X4.6860 Y13.0007
G01 X4.7060 Y13.0068
G01 X4.7488 Y13.0221
G01 X4.7681 Y13.0301
G01 X4.7776 Y13.0344
G01 X4.7998 Y13.0449
G01 X4.8184 Y13.0543
G01 X4.8366 Y13.0646
G01 X4.8576 Y13.0772
G01 X4.8665 Y13.0827
G01 X4.8839 Y13.0943
G01 X4.9204 Y13.1213
G01 X4.9365 Y13.1346
G01 X4.9701 Y13.1651
G01 X4.9776 Y13.1724
G01 X4.9920 Y13.1875
G01 X5.0085 Y13.2057
G01 X5.0221 Y13.2215
G01 X5.0350 Y13.2380
G01 X5.0496 Y13.2577
G01 X5.0616 Y13.2747
G01 X5.0673 Y13.2835
G01 X5.0907 Y13.3224
G01 X5.1005 Y13.3409
G01 X5.1199 Y13.3819
G01 X5.1279 Y13.4012
G01 X5.1363 Y13.4243
G01 X9.6137 Y13.4243
G01 X9.6221 Y13.4012
G01 X9.6301 Y13.3819
G01 X9.6495 Y13.3409
G01 X9.6593 Y13.3224
G01 X9.6772 Y13.2924
G01 X9.6884 Y13.2747
G01 X9.7004 Y13.2577
G01 X9.7213 Y13.2296
G01 X9.7346 Y13.2135
G01 X9.7580 Y13.1875
G01 X9.7651 Y13.1799
G01 X9.7799 Y13.1651
G01 X9.8057 Y13.1415
G01 X9.8215 Y13.1279
G01 X9.8380 Y13.1150
G01 X9.8661 Y13.0943
G01 X9.8835 Y13.0827
G01 X9.9134 Y13.0646
G01 X9.9316 Y13.0543
G01 X9.9502 Y13.0449
G01 X9.9819 Y13.0301
G01 X10.0012 Y13.0221
G01 X10.0341 Y13.0102
G01 X10.0539 Y13.0036
G01 X10.0741 Y12.9981
G01 X10.1080 Y12.9897
G01 X10.1285 Y12.9856
G01 X10.1631 Y12.9803
G01 X10.1734 Y12.9789
G01 X10.1942 Y12.9769
G01 X10.2291 Y12.9751
G01 X10.2500 Y12.9745
G01 X11.7500 Y12.9745
G01 X11.7709 Y12.9751
G01 X11.7954 Y12.9763
G01 X11.8162 Y12.9778
G01 X11.8369 Y12.9803
G01 X11.8612 Y12.9839
G01 X11.8818 Y12.9875
G01 X11.9022 Y12.9921
G01 X11.9259 Y12.9981
G01 X11.9360 Y13.0007
G01 X11.9560 Y13.0068
G01 X11.9890 Y13.0184
G01 X12.0085 Y13.0260
G01 X12.0276 Y13.0344
G01 X12.0498 Y13.0449
G01 X12.0591 Y13.0495
G01 X12.0776 Y13.0593
G01 X12.1076 Y13.0772
G01 X12.1253 Y13.0884
G01 X12.1423 Y13.1004
G01 X12.1620 Y13.1150
G01 X12.1785 Y13.1279
G01 X12.1865 Y13.1346
G01 X12.2201 Y13.1651
G01 X12.2276 Y13.1724
G01 X12.2420 Y13.1875
G01 X12.2585 Y13.2057
G01 X12.2721 Y13.2215
G01 X12.2850 Y13.2380
G01 X12.3057 Y13.2661
G01 X12.3173 Y13.2835
G01 X12.3228 Y13.2924
G01 X12.3407 Y13.3224
G01 X12.3505 Y13.3409
G01 X12.3699 Y13.3819
G01 X12.3779 Y13.4012
G01 X12.3863 Y13.4243
G01 X16.8637 Y13.4243
G01 X16.8721 Y13.4012
G01 X16.8801 Y13.3819
G01 X16.8995 Y13.3409
G01 X16.9093 Y13.3224
G01 X16.9327 Y13.2835
G01 X16.9443 Y13.2661
G01 X16.9713 Y13.2296
G01 X16.9846 Y13.2135
G01 X17.0151 Y13.1799
G01 X17.0299 Y13.1651
G01 X17.0375 Y13.1580
G01 X17.0557 Y13.1415
G01 X17.0715 Y13.1279
G01 X17.0880 Y13.1150
G01 X17.1077 Y13.1004
G01 X17.1247 Y13.0884
G01 X17.1424 Y13.0772
G01 X17.1634 Y13.0646
G01 X17.1816 Y13.0543
G01 X17.2002 Y13.0449
G01 X17.2224 Y13.0344
G01 X17.2319 Y13.0301
G01 X17.2512 Y13.0221
G01 X17.2841 Y13.0102
G01 X17.3039 Y13.0036
G01 X17.3241 Y12.9981
G01 X17.3580 Y12.9897
G01 X17.3785 Y12.9856
G01 X17.4131 Y12.9803
G01 X17.4338 Y12.9778
G01 X17.4442 Y12.9769
G01 X17.4791 Y12.9751
G01 X17.5000 Y12.9745
G01 X18.0143 Y12.9745
G01 X18.0139 Y6.2212
G01 X17.9532 Y6.1663
G01 X17.9381 Y6.1519
G01 X17.9237 Y6.1368
G01 X17.8677 Y6.0750
G01 X17.8541 Y6.0591
G01 X17.8412 Y6.0427
G01 X17.7915 Y5.9757
G01 X17.7795 Y5.9586
G01 X17.7683 Y5.9410
G01 X17.7202 Y5.8604
G01 X17.7151 Y5.8512
G01 X17.7058 Y5.8326
G01 X17.6701 Y5.7572
G01 X17.6616 Y5.7381
G01 X17.6541 Y5.7186
G01 X17.6260 Y5.6401
G01 X17.6226 Y5.6302
G01 X17.6166 Y5.6102
G01 X17.5936 Y5.5192
G01 X17.5890 Y5.4988
G01 X17.5847 Y5.4732
G01 X17.5819 Y5.4891
G01 X17.5773 Y5.5095
G01 X17.5583 Y5.5856
G01 X17.5527 Y5.6057
G01 X17.5461 Y5.6256
G01 X17.5197 Y5.6995
G01 X17.5122 Y5.7190
G01 X17.5037 Y5.7381
G01 X17.4701 Y5.8090
G01 X17.4608 Y5.8277
G01 X17.4505 Y5.8458
G01 X17.4046 Y5.9221
G01 X17.3989 Y5.9308
G01 X17.3869 Y5.9479
G01 X17.3401 Y6.0110
G01 X17.3273 Y6.0274
G01 X17.3137 Y6.0432
G01 X17.2609 Y6.1014
G01 X17.2465 Y6.1165
G01 X17.2314 Y6.1309
G01 X17.1732 Y6.1837
G01 X17.1574 Y6.1973
G01 X17.1410 Y6.2101
G01 X17.0757 Y6.2585
G01 X17.0757 Y7.7415
G01 X17.1410 Y7.7899
G01 X17.1493 Y7.7962
G01 X17.1654 Y7.8094
G01 X17.2391 Y7.8762
G01 X17.2465 Y7.8835
G01 X17.2609 Y7.8986
G01 X17.3206 Y7.9646
G01 X17.3273 Y7.9726
G01 X17.3401 Y7.9890
G01 X17.3869 Y8.0521
G01 X17.3989 Y8.0692
G01 X17.4101 Y8.0868
G01 X17.4505 Y8.1542
G01 X17.4608 Y8.1723
G01 X17.4701 Y8.1910
G01 X17.5037 Y8.2619
G01 X17.5122 Y8.2810
G01 X17.5197 Y8.3005
G01 X17.5461 Y8.3744
G01 X17.5527 Y8.3943
G01 X17.5583 Y8.4144
G01 X17.5773 Y8.4905
G01 X17.5819 Y8.5109
G01 X17.5855 Y8.5315
G01 X17.5970 Y8.6092
G01 X17.5996 Y8.6299
G01 X17.6011 Y8.6507
G01 X17.6049 Y8.7291
G01 X17.6055 Y8.7500
G01 X17.6049 Y8.7709
G01 X17.6011 Y8.8493
G01 X17.5996 Y8.8701
G01 X17.5970 Y8.8908
G01 X17.5855 Y8.9685
G01 X17.5819 Y8.9891
G01 X17.5773 Y9.0095
G01 X17.5583 Y9.0856
G01 X17.5556 Y9.0957
G01 X17.5495 Y9.1157
G01 X17.5161 Y9.2093
G01 X17.5122 Y9.2190
G01 X17.5037 Y9.2381
G01 X17.4701 Y9.3090
G01 X17.4608 Y9.3277
G01 X17.4505 Y9.3458
G01 X17.4046 Y9.4221
G01 X17.3930 Y9.4394
G01 X17.3869 Y9.4479
G01 X17.3401 Y9.5110
G01 X17.3273 Y9.5274
G01 X17.3137 Y9.5432
G01 X17.2609 Y9.6014
G01 X17.2465 Y9.6165
G01 X17.2314 Y9.6309
G01 X17.1732 Y9.6837
G01 X17.1654 Y9.6906
G01 X17.1493 Y9.7038
G01 X17.0779 Y9.7569
G01 X17.0608 Y9.7689
G01 X17.0432 Y9.7801
G01 X16.9668 Y9.8257
G01 X16.9484 Y9.8356
G01 X16.9390 Y9.8401
G01 X16.8681 Y9.8737
G01 X16.8490 Y9.8822
G01 X16.8295 Y9.8897
G01 X16.7556 Y9.9161
G01 X16.7357 Y9.9227
G01 X16.7156 Y9.9283
G01 X16.6395 Y9.9473
G01 X16.6191 Y9.9519
G01 X16.5985 Y9.9555
G01 X16.5208 Y9.9670
G01 X16.5001 Y9.9696
G01 X16.4897 Y9.9705
G01 X16.4009 Y9.9749
G01 X16.3800 Y9.9755
G01 X16.2696 Y9.9753
G01 X16.1807 Y9.9711
G01 X16.1599 Y9.9696
G01 X16.1495 Y9.9684
G01 X16.0615 Y9.9555
G01 X16.0409 Y9.9519
G01 X16.0205 Y9.9473
G01 X15.9444 Y9.9283
G01 X15.9243 Y9.9227
G01 X15.9044 Y9.9161
G01 X15.8207 Y9.8861
G01 X15.8110 Y9.8822
G01 X15.7919 Y9.8737
G01 X15.7210 Y9.8401
G01 X15.7023 Y9.8308
G01 X15.6842 Y9.8205
G01 X15.6168 Y9.7801
G01 X15.5992 Y9.7689
G01 X15.5821 Y9.7569
G01 X15.5190 Y9.7101
G01 X15.5026 Y9.6973
G01 X15.4868 Y9.6837
G01 X15.4286 Y9.6309
G01 X15.4135 Y9.6165
G01 X15.3991 Y9.6014
G01 X15.3463 Y9.5432
G01 X15.3327 Y9.5274
G01 X15.3199 Y9.5110
G01 X15.2731 Y9.4479
G01 X15.2670 Y9.4394
G01 X15.2554 Y9.4221
G01 X15.2095 Y9.3458
G01 X15.1992 Y9.3277
G01 X15.1899 Y9.3090
G01 X15.1519 Y9.2286
G01 X15.1439 Y9.2093
G01 X15.1403 Y9.1995
G01 X15.1139 Y9.1256
G01 X15.1073 Y9.1057
G01 X15.1017 Y9.0856
G01 X15.0827 Y9.0095
G01 X15.0781 Y8.9891
G01 X15.0745 Y8.9685
G01 X15.0630 Y8.8908
G01 X15.0604 Y8.8701
G01 X15.0589 Y8.8493
G01 X15.0551 Y8.7709
G01 X15.0545 Y8.7500
G01 X15.0551 Y8.7291
G01 X15.0589 Y8.6507
G01 X15.0604 Y8.6299
G01 X15.0630 Y8.6092
G01 X15.0745 Y8.5315
G01 X15.0781 Y8.5109
G01 X15.0827 Y8.4905
G01 X15.1017 Y8.4144
G01 X15.1073 Y8.3943
G01 X15.1139 Y8.3744
G01 X15.1403 Y8.3005
G01 X15.1478 Y8.2810
G01 X15.1563 Y8.2619
G01 X15.1899 Y8.1910
G01 X15.1992 Y8.1723
G01 X15.2043 Y8.1632
G01 X15.2554 Y8.0779
G01 X15.2670 Y8.0606
G01 X15.2731 Y8.0521
G01 X15.3199 Y7.9890
G01 X15.3327 Y7.9726
G01 X15.3463 Y7.9568
G01 X15.3991 Y7.8986
G01 X15.4135 Y7.8835
G01 X15.4243 Y7.8730
G01 X15.4243 Y6.1270
G01 X15.4135 Y6.1165
G01 X15.3991 Y6.1014
G01 X15.3463 Y6.0432
G01 X15.3327 Y6.0274
G01 X15.3199 Y6.0110
G01 X15.2731 Y5.9479
G01 X15.2611 Y5.9308
G01 X15.2499 Y5.9132
G01 X15.2095 Y5.8458
G01 X15.1992 Y5.8277
G01 X15.1899 Y5.8090
G01 X15.1563 Y5.7381
G01 X15.1478 Y5.7190
G01 X15.1403 Y5.6995
G01 X15.1105 Y5.6157
G01 X15.1044 Y5.5957
G01 X15.1017 Y5.5856
G01 X15.0827 Y5.5095
G01 X15.0781 Y5.4891
G01 X15.0745 Y5.4685
G01 X15.0630 Y5.3908
G01 X15.0604 Y5.3701
G01 X15.0595 Y5.3597
G01 X15.0547 Y5.2604
G01 X15.0547 Y5.2396
G01 X15.0551 Y5.2291
G01 X15.0595 Y5.1403
G01 X15.0604 Y5.1299
G01 X15.0630 Y5.1092
G01 X15.0745 Y5.0315
G01 X15.0781 Y5.0109
G01 X15.0827 Y4.9905
G01 X15.1017 Y4.9144
G01 X15.1073 Y4.8943
G01 X15.1139 Y4.8744
G01 X15.1403 Y4.8005
G01 X15.1478 Y4.7810
G01 X15.1563 Y4.7619
G01 X15.1899 Y4.6910
G01 X15.1992 Y4.6723
G01 X15.2095 Y4.6542
G01 X15.2554 Y4.5779
G01 X15.2611 Y4.5692
G01 X15.2731 Y4.5521
G01 X15.3199 Y4.4890
G01 X15.3262 Y4.4807
G01 X15.3394 Y4.4646
G01 X15.3991 Y4.3986
G01 X15.4135 Y4.3835
G01 X15.4243 Y4.3730
G01 X15.4243 Y2.6270
G01 X15.4135 Y2.6165
G01 X15.3991 Y2.6014
G01 X15.3463 Y2.5432
G01 X15.3327 Y2.5274
G01 X15.3199 Y2.5110
G01 X15.2731 Y2.4479
G01 X15.2670 Y2.4394
G01 X15.2554 Y2.4221
G01 X15.2043 Y2.3368
G01 X15.1992 Y2.3277
G01 X15.1899 Y2.3090
G01 X15.1563 Y2.2381
G01 X15.1478 Y2.2190
G01 X15.1403 Y2.1995
G01 X15.1139 Y2.1256
G01 X15.1073 Y2.1057
G01 X15.1017 Y2.0856
G01 X15.0827 Y2.0095
G01 X15.0781 Y1.9891
G01 X15.0745 Y1.9685
G01 X15.0630 Y1.8908
G01 X15.0604 Y1.8701
G01 X15.0589 Y1.8493
G01 X15.0551 Y1.7709
G01 X15.0545 Y1.7500
G01 X15.0551 Y1.7291
G01 X15.0589 Y1.6507
G01 X15.0604 Y1.6299
G01 X15.0630 Y1.6092
G01 X15.0745 Y1.5315
G01 X15.0781 Y1.5109
G01 X15.0827 Y1.4905
G01 X15.1017 Y1.4144
G01 X15.1073 Y1.3943
G01 X15.1139 Y1.3744
G01 X15.1403 Y1.3005
G01 X15.1478 Y1.2810
G01 X15.1563 Y1.2619
G01 X15.1899 Y1.1910
G01 X15.1992 Y1.1723
G01 X15.2095 Y1.1542
G01 X15.2499 Y1.0868
G01 X15.2611 Y1.0692
G01 X15.2731 Y1.0521
G01 X15.3199 Y0.9890
G01 X15.3327 Y0.9726
G01 X15.3463 Y0.9568
G01 X15.3991 Y0.8986
G01 X15.4135 Y0.8835
G01 X15.4286 Y0.8691
G01 X15.4868 Y0.8163
G01 X15.5026 Y0.8027
G01 X15.5190 Y0.7899
G01 X15.5906 Y0.7370
G01 X15.6079 Y0.7254
G01 X15.6168 Y0.7199
G01 X15.6842 Y0.6795
G01 X15.7023 Y0.6692
G01 X15.7210 Y0.6599
G01 X15.7919 Y0.6263
G01 X15.8014 Y0.6219
G01 X15.8207 Y0.6139
G01 X15.9044 Y0.5839
G01 X15.9243 Y0.5773
G01 X15.9444 Y0.5717
G01 X16.0205 Y0.5527
G01 X16.0409 Y0.5481
G01 X16.0615 Y0.5445
G01 X16.1392 Y0.5330
G01 X16.1599 Y0.5304
G01 X16.1807 Y0.5289
G01 X16.2591 Y0.5251
G01 X16.2800 Y0.5245
G01 X16.3904 Y0.5247
G01 X16.4793 Y0.5289
G01 X16.5001 Y0.5304
G01 X16.5105 Y0.5316
G01 X16.5985 Y0.5445
G01 X16.6088 Y0.5462
G01 X16.6293 Y0.5502
G01 X16.7257 Y0.5744
G01 X16.7357 Y0.5773
G01 X16.7556 Y0.5839
G01 X16.8393 Y0.6139
G01 X16.8586 Y0.6219
G01 X16.8681 Y0.6263
G01 X16.9390 Y0.6599
G01 X16.9577 Y0.6692
G01 X16.9758 Y0.6795
G01 X17.0432 Y0.7199
G01 X17.0608 Y0.7311
G01 X17.0694 Y0.7370
G01 X17.1410 Y0.7899
G01 X17.1493 Y0.7962
G01 X17.1654 Y0.8094
G01 X17.2391 Y0.8762
G01 X17.2538 Y0.8909
G01 X17.2843 Y0.9243
G01 X17.8457 Y0.9243
G01 X17.8762 Y0.8909
G01 X17.8909 Y0.8762
G01 X17.9646 Y0.8094
G01 X17.9807 Y0.7962
G01 X17.9890 Y0.7899
G01 X18.0521 Y0.7431
G01 X18.0692 Y0.7311
G01 X18.0779 Y0.7254
G01 X18.1632 Y0.6743
G01 X18.1816 Y0.6644
G01 X18.1910 Y0.6599
G01 X18.2619 Y0.6263
G01 X18.2810 Y0.6178
G01 X18.3005 Y0.6103
G01 X18.3843 Y0.5805
G01 X18.4043 Y0.5744
G01 X18.4144 Y0.5717
G01 X18.4905 Y0.5527
G01 X18.5109 Y0.5481
G01 X18.5315 Y0.5445
G01 X18.6092 Y0.5330
G01 X18.6299 Y0.5304
G01 X18.6507 Y0.5289
G01 X18.7291 Y0.5251
G01 X18.7500 Y0.5245
G01 X18.7709 Y0.5251
G01 X18.8493 Y0.5289
G01 X18.8701 Y0.5304
G01 X18.8908 Y0.5330
G01 X18.9685 Y0.5445
G01 X18.9891 Y0.5481
G01 X19.0095 Y0.5527
G01 X19.0856 Y0.5717
G01 X19.1057 Y0.5773
G01 X19.1256 Y0.5839
G01 X19.1995 Y0.6103
G01 X19.2190 Y0.6178
G01 X19.2381 Y0.6263
G01 X19.3090 Y0.6599
G01 X19.3277 Y0.6692
G01 X19.3458 Y0.6795
G01 X19.4132 Y0.7199
G01 X19.4308 Y0.7311
G01 X19.4479 Y0.7431
G01 X19.5110 Y0.7899
G01 X19.5274 Y0.8027
G01 X19.5432 Y0.8163
G01 X19.6091 Y0.8762
G01 X19.6165 Y0.8835
G01 X19.6309 Y0.8986
G01 X19.6837 Y0.9568
G01 X19.6973 Y0.9726
G01 X19.7101 Y0.9890
G01 X19.7569 Y1.0521
G01 X19.7689 Y1.0692
G01 X19.7801 Y1.0868
G01 X19.8205 Y1.1542
G01 X19.8308 Y1.1723
G01 X19.8401 Y1.1910
G01 X19.8737 Y1.2619
G01 X19.8822 Y1.2810
G01 X19.8897 Y1.3005
G01 X19.9161 Y1.3744
G01 X19.9195 Y1.3843
G01 X19.9256 Y1.4043
G01 X19.9473 Y1.4905
G01 X19.9519 Y1.5109
G01 X19.9555 Y1.5315
G01 X19.9670 Y1.6092
G01 X19.9696 Y1.6299
G01 X19.9711 Y1.6507
G01 X19.9749 Y1.7291
G01 X19.9755 Y1.7500
G01 X19.9749 Y1.7709
G01 X19.9711 Y1.8493
G01 X19.9696 Y1.8701
G01 X19.9684 Y1.8805
G01 X19.9555 Y1.9685
G01 X19.9519 Y1.9891
G01 X19.9473 Y2.0095
G01 X19.9283 Y2.0856
G01 X19.9227 Y2.1057
G01 X19.9161 Y2.1256
G01 X19.8897 Y2.1995
G01 X19.8861 Y2.2093
G01 X19.8781 Y2.2286
G01 X19.8401 Y2.3090
G01 X19.8308 Y2.3277
G01 X19.8205 Y2.3458
G01 X19.7801 Y2.4132
G01 X19.7689 Y2.4308
G01 X19.7569 Y2.4479
G01 X19.7101 Y2.5110
G01 X19.6973 Y2.5274
G01 X19.6837 Y2.5432
G01 X19.6238 Y2.6091
G01 X19.6091 Y2.6238
G01 X19.6014 Y2.6309
G01 X19.5432 Y2.6837
G01 X19.5274 Y2.6973
G01 X19.5110 Y2.7101
G01 X19.4479 Y2.7569
G01 X19.4394 Y2.7630
G01 X19.4221 Y2.7746
G01 X19.3458 Y2.8205
G01 X19.3277 Y2.8308
G01 X19.3090 Y2.8401
G01 X19.2381 Y2.8737
G01 X19.2190 Y2.8822
G01 X19.1995 Y2.8897
G01 X19.1256 Y2.9161
G01 X19.1057 Y2.9227
G01 X19.0856 Y2.9283
G01 X19.0095 Y2.9473
G01 X18.9891 Y2.9519
G01 X18.9685 Y2.9555
G01 X18.8908 Y2.9670
G01 X18.8701 Y2.9696
G01 X18.8493 Y2.9711
G01 X18.7709 Y2.9749
G01 X18.7604 Y2.9753
G01 X18.7396 Y2.9753
G01 X18.6507 Y2.9711
G01 X18.6299 Y2.9696
G01 X18.6092 Y2.9670
G01 X18.5212 Y2.9538
G01 X18.5109 Y2.9519
G01 X18.4905 Y2.9473
G01 X18.4144 Y2.9283
G01 X18.3943 Y2.9227
G01 X18.3744 Y2.9161
G01 X18.3005 Y2.8897
G01 X18.2810 Y2.8822
G01 X18.2619 Y2.8737
G01 X18.1910 Y2.8401
G01 X18.1723 Y2.8308
G01 X18.1632 Y2.8257
G01 X18.0868 Y2.7801
G01 X18.0692 Y2.7689
G01 X18.0521 Y2.7569
G01 X17.9807 Y2.7038
G01 X17.9646 Y2.6906
G01 X17.9568 Y2.6837
G01 X17.8909 Y2.6238
G01 X17.8762 Y2.6091
G01 X17.8457 Y2.5757
G01 X17.2843 Y2.5757
G01 X17.2538 Y2.6091
G01 X17.2391 Y2.6238
G01 X17.1654 Y2.6906
G01 X17.1574 Y2.6973
G01 X17.1410 Y2.7101
G01 X17.0757 Y2.7585
G01 X17.0757 Y4.2415
G01 X17.1410 Y4.2899
G01 X17.1574 Y4.3027
G01 X17.1732 Y4.3163
G01 X17.2314 Y4.3691
G01 X17.2465 Y4.3835
G01 X17.2609 Y4.3986
G01 X17.3137 Y4.4568
G01 X17.3273 Y4.4726
G01 X17.3401 Y4.4890
G01 X17.3869 Y4.5521
G01 X17.3989 Y4.5692
G01 X17.4046 Y4.5779
G01 X17.4505 Y4.6542
G01 X17.4608 Y4.6723
G01 X17.4701 Y4.6910
G01 X17.5037 Y4.7619
G01 X17.5122 Y4.7810
G01 X17.5197 Y4.8005
G01 X17.5461 Y4.8744
G01 X17.5527 Y4.8943
G01 X17.5583 Y4.9144
G01 X17.5773 Y4.9905
G01 X17.5819 Y5.0109
G01 X17.5847 Y5.0268
G01 X17.5890 Y5.0012
G01 X17.5936 Y4.9808
G01 X17.6166 Y4.8898
G01 X17.6226 Y4.8698
G01 X17.6260 Y4.8599
G01 X17.6541 Y4.7814
G01 X17.6616 Y4.7619
G01 X17.6701 Y4.7428
G01 X17.7058 Y4.6674
G01 X17.7103 Y4.6580
G01 X17.7202 Y4.6396
G01 X17.7683 Y4.5590
G01 X17.7795 Y4.5414
G01 X17.7915 Y4.5243
G01 X17.8412 Y4.4573
G01 X17.8541 Y4.4409
G01 X17.8677 Y4.4250
G01 X17.9237 Y4.3632
G01 X17.9381 Y4.3481
G01 X17.9532 Y4.3337
G01 X18.0229 Y4.2708
G01 X18.0309 Y4.2641
G01 X18.0473 Y4.2512
G01 X18.1143 Y4.2015
G01 X18.1314 Y4.1895
G01 X18.1490 Y4.1783
G01 X18.2206 Y4.1354
G01 X18.2388 Y4.1251
G01 X18.2574 Y4.1158
G01 X18.3423 Y4.0757
G01 X18.3519 Y4.0716
G01 X18.3714 Y4.0641
G01 X18.4499 Y4.0360
G01 X18.4698 Y4.0295
G01 X18.4899 Y4.0239
G01 X18.5708 Y4.0036
G01 X18.5912 Y3.9990
G01 X18.6117 Y3.9955
G01 X18.6943 Y3.9832
G01 X18.7150 Y3.9807
G01 X18.7358 Y3.9791
G01 X18.8296 Y3.9747
G01 X18.8504 Y3.9747
G01 X18.8609 Y3.9751
G01 X18.9442 Y3.9791
G01 X18.9650 Y3.9807
G01 X18.9857 Y3.9832
G01 X19.0683 Y3.9955
G01 X19.0888 Y3.9990
G01 X19.0990 Y4.0012
G01 X19.1901 Y4.0239
G01 X19.2102 Y4.0295
G01 X19.2301 Y4.0360
G01 X19.3086 Y4.0641
G01 X19.3281 Y4.0716
G01 X19.3472 Y4.0801
G01 X19.4226 Y4.1158
G01 X19.4412 Y4.1251
G01 X19.4594 Y4.1354
G01 X19.5310 Y4.1783
G01 X19.5486 Y4.1895
G01 X19.5657 Y4.2015
G01 X19.6327 Y4.2512
G01 X19.6491 Y4.2641
G01 X19.6650 Y4.2777
G01 X19.7268 Y4.3337
G01 X19.7419 Y4.3481
G01 X19.7563 Y4.3632
G01 X19.8123 Y4.4250
G01 X19.8259 Y4.4409
G01 X19.8325 Y4.4490
G01 X19.8885 Y4.5243
G01 X19.9005 Y4.5414
G01 X19.9117 Y4.5590
G01 X19.9546 Y4.6306
G01 X19.9649 Y4.6488
G01 X19.9742 Y4.6674
G01 X20.0099 Y4.7428
G01 X20.0184 Y4.7619
G01 X20.0259 Y4.7814
G01 X20.0540 Y4.8599
G01 X20.0605 Y4.8798
G01 X20.0661 Y4.8999
G01 X20.0864 Y4.9808
G01 X20.0910 Y5.0012
G01 X20.0945 Y5.0217
G01 X20.1068 Y5.1043
G01 X20.1093 Y5.1250
G01 X20.1109 Y5.1458
G01 X20.1149 Y5.2291
G01 X20.1155 Y5.2500
G01 X20.1149 Y5.2709
G01 X20.1109 Y5.3542
G01 X20.1093 Y5.3750
G01 X20.1068 Y5.3957
G01 X20.0945 Y5.4783
G01 X20.0910 Y5.4988
G01 X20.0864 Y5.5192
G01 X20.0661 Y5.6001
G01 X20.0634 Y5.6102
G01 X20.0574 Y5.6302
G01 X20.0259 Y5.7186
G01 X20.0184 Y5.7381
G01 X20.0099 Y5.7572
G01 X19.9742 Y5.8326
G01 X19.9649 Y5.8512
G01 X19.9546 Y5.8694
G01 X19.9117 Y5.9410
G01 X19.9005 Y5.9586
G01 X19.8885 Y5.9757
G01 X19.8388 Y6.0427
G01 X19.8259 Y6.0591
G01 X19.8123 Y6.0750
G01 X19.7563 Y6.1368
G01 X19.7419 Y6.1519
G01 X19.7268 Y6.1663
G01 X19.6657 Y6.2217
G01 X19.6657 Y13.4243
G01 X22.0957 Y13.4243
G01 X22.1262 Y13.3909
G01 X22.1409 Y13.3762
G01 X22.2146 Y13.3094
G01 X22.2226 Y13.3027
G01 X22.2390 Y13.2899
G01 X22.3106 Y13.2370
G01 X22.3279 Y13.2254
G01 X22.3368 Y13.2199
G01 X22.4042 Y13.1795
G01 X22.4223 Y13.1692
G01 X22.4410 Y13.1599
G01 X22.5214 Y13.1219
G01 X22.5310 Y13.1178
G01 X22.5505 Y13.1103
G01 X22.6244 Y13.0839
G01 X22.6443 Y13.0773
G01 X22.6644 Y13.0717
G01 X22.7405 Y13.0527
G01 X22.7609 Y13.0481
G01 X22.7815 Y13.0445
G01 X22.8592 Y13.0330
G01 X22.8799 Y13.0304
G01 X22.9007 Y13.0289
G01 X22.9791 Y13.0251
G01 X23.0000 Y13.0245
G01 X23.0209 Y13.0251
G01 X23.0993 Y13.0289
G01 X23.1201 Y13.0304
G01 X23.1408 Y13.0330
G01 X23.2185 Y13.0445
G01 X23.2391 Y13.0481
G01 X23.2595 Y13.0527
G01 X23.3356 Y13.0717
G01 X23.3557 Y13.0773
G01 X23.3756 Y13.0839
G01 X23.4495 Y13.1103
G01 X23.4593 Y13.1139
G01 X23.4786 Y13.1219
G01 X23.5590 Y13.1599
G01 X23.5777 Y13.1692
G01 X23.5958 Y13.1795
G01 X23.6632 Y13.2199
G01 X23.6721 Y13.2254
G01 X23.6894 Y13.2370
G01 X23.7610 Y13.2899
G01 X23.7693 Y13.2962
G01 X23.7854 Y13.3094
G01 X23.8591 Y13.3762
G01 X23.8738 Y13.3909
G01 X23.9042 Y13.4243
G01 X27.7038 Y13.4239
G01 X27.7587 Y13.3632
G01 X27.7731 Y13.3481
G01 X27.7882 Y13.3337
G01 X27.8500 Y13.2777
G01 X27.8579 Y13.2708
G01 X27.8740 Y13.2575
G01 X27.9493 Y13.2015
G01 X27.9664 Y13.1895
G01 X27.9840 Y13.1783
G01 X28.0556 Y13.1354
G01 X28.0738 Y13.1251
G01 X28.0924 Y13.1158
G01 X28.1678 Y13.0801
G01 X28.1869 Y13.0716
G01 X28.2064 Y13.0641
G01 X28.2849 Y13.0360
G01 X28.3048 Y13.0295
G01 X28.3249 Y13.0239
G01 X28.4058 Y13.0036
G01 X28.4262 Y12.9990
G01 X28.4467 Y12.9955
G01 X28.5293 Y12.9832
G01 X28.5500 Y12.9807
G01 X28.5708 Y12.9791
G01 X28.6541 Y12.9751
G01 X28.6646 Y12.9747
G01 X28.6854 Y12.9747
G01 X28.7896 Y12.9798
G01 X28.8104 Y12.9818
G01 X28.8207 Y12.9832
G01 X28.9033 Y12.9955
G01 X28.9238 Y12.9990
G01 X28.9442 Y13.0036
G01 X29.0251 Y13.0239
G01 X29.0452 Y13.0295
G01 X29.0651 Y13.0360
G01 X29.1436 Y13.0641
G01 X29.1631 Y13.0716
G01 X29.1822 Y13.0801
G01 X29.2576 Y13.1158
G01 X29.2762 Y13.1251
G01 X29.2944 Y13.1354
G01 X29.3660 Y13.1783
G01 X29.3836 Y13.1895
G01 X29.4007 Y13.2015
G01 X29.4677 Y13.2512
G01 X29.4841 Y13.2641
G01 X29.5000 Y13.2777
G01 X29.5618 Y13.3337
G01 X29.5769 Y13.3481
G01 X29.5913 Y13.3632
G01 X29.6473 Y13.4250
G01 X29.6609 Y13.4409
G01 X29.6675 Y13.4490
G01 X29.7296 Y13.5328
G01 X29.7412 Y13.5501
G01 X29.7467 Y13.5590
G01 X29.7948 Y13.6396
G01 X29.7999 Y13.6488
G01 X29.8092 Y13.6674
G01 X29.8449 Y13.7428
G01 X29.8534 Y13.7619
G01 X29.8609 Y13.7814
G01 X29.8890 Y13.8599
G01 X29.8924 Y13.8698
G01 X29.8984 Y13.8898
G01 X29.9238 Y13.9910
G01 X29.9260 Y14.0012
G01 X29.9295 Y14.0217
G01 X29.9418 Y14.1043
G01 X29.9443 Y14.1250
G01 X29.9452 Y14.1354
G01 X29.9499 Y14.2291
G01 X29.9505 Y14.2500
G01 X29.9498 Y14.2743
G01 X32.6994 Y14.2743
G01 X32.6736 Y14.2509
G01 X32.6585 Y14.2365
G01 X32.6441 Y14.2214
G01 X32.6207 Y14.1957
G01 X31.2699 Y14.1957
G01 X31.2490 Y14.1951
G01 X31.1994 Y14.1926
G01 X31.1786 Y14.1905
G01 X31.1191 Y14.1817
G01 X31.0986 Y14.1776
G01 X31.0402 Y14.1630
G01 X31.0203 Y14.1570
G01 X30.9636 Y14.1367
G01 X30.9443 Y14.1287
G01 X30.8993 Y14.1076
G01 X30.8807 Y14.0982
G01 X30.8625 Y14.0879
G01 X30.8288 Y14.0677
G01 X30.8112 Y14.0565
G01 X30.7941 Y14.0445
G01 X30.7626 Y14.0211
G01 X30.7461 Y14.0082
G01 X30.7303 Y13.9946
G01 X30.6935 Y13.9611
G01 X28.7828 Y12.0506
G01 X27.8250 Y12.0506
G01 X27.8041 Y12.0501
G01 X27.7833 Y12.0485
G01 X27.7626 Y12.0460
G01 X27.7420 Y12.0424
G01 X27.7216 Y12.0378
G01 X27.7115 Y12.0352
G01 X27.6915 Y12.0291
G01 X27.6817 Y12.0257
G01 X27.6622 Y12.0182
G01 X27.6431 Y12.0097
G01 X27.6244 Y12.0003
G01 X27.6153 Y11.9953
G01 X27.5974 Y11.9846
G01 X27.5800 Y11.9730
G01 X27.5632 Y11.9605
G01 X27.5471 Y11.9473
G01 X27.5316 Y11.9333
G01 X27.5169 Y11.9185
G01 X27.5098 Y11.9108
G01 X27.4961 Y11.8950
G01 X27.4833 Y11.8786
G01 X27.4712 Y11.8615
G01 X27.4601 Y11.8438
G01 X27.4498 Y11.8257
G01 X27.4404 Y11.8070
G01 X27.4319 Y11.7879
G01 X27.4244 Y11.7684
G01 X27.4179 Y11.7486
G01 X27.4123 Y11.7285
G01 X27.4099 Y11.7183
G01 X27.4058 Y11.6978
G01 X27.4027 Y11.6772
G01 X27.4016 Y11.6668
G01 X27.4001 Y11.6460
G01 X27.3995 Y11.6251
G01 X27.3995 Y9.9251
G01 X27.3997 Y9.9147
G01 X27.4007 Y9.8938
G01 X27.4016 Y9.8834
G01 X27.4041 Y9.8627
G01 X27.4077 Y9.8421
G01 X27.4123 Y9.8217
G01 X27.4179 Y9.8016
G01 X27.4210 Y9.7917
G01 X27.4280 Y9.7720
G01 X27.4319 Y9.7623
G01 X27.4404 Y9.7432
G01 X27.4450 Y9.7338
G01 X27.4548 Y9.7154
G01 X27.4655 Y9.6975
G01 X27.4772 Y9.6801
G01 X27.4896 Y9.6634
G01 X27.4961 Y9.6552
G01 X27.5098 Y9.6394
G01 X27.5242 Y9.6243
G01 X27.5393 Y9.6099
G01 X27.5471 Y9.6030
G01 X27.5632 Y9.5897
G01 X27.5716 Y9.5834
G01 X27.5886 Y9.5714
G01 X27.6063 Y9.5602
G01 X27.6244 Y9.5499
G01 X27.6431 Y9.5405
G01 X27.6526 Y9.5362
G01 X27.6719 Y9.5282
G01 X27.6915 Y9.5211
G01 X27.7115 Y9.5151
G01 X27.7216 Y9.5124
G01 X27.7318 Y9.5100
G01 X27.7523 Y9.5059
G01 X27.7626 Y9.5043
G01 X27.7833 Y9.5017
G01 X27.8041 Y9.5002
G01 X27.8146 Y9.4998
G01 X28.3189 Y9.4997
G01 X28.2948 Y9.4925
G01 X28.2064 Y9.4610
G01 X28.1869 Y9.4535
G01 X28.1678 Y9.4450
G01 X28.0924 Y9.4094
G01 X28.0738 Y9.4000
G01 X28.0556 Y9.3897
G01 X27.9751 Y9.3413
G01 X27.9664 Y9.3356
G01 X27.9493 Y9.3236
G01 X27.8823 Y9.2739
G01 X27.8659 Y9.2611
G01 X27.8500 Y9.2474
G01 X27.7882 Y9.1914
G01 X27.7731 Y9.1770
G01 X27.7587 Y9.1619
G01 X27.7033 Y9.1008
G01 X24.3169 Y9.1008
G01 X24.2232 Y9.1944
G01 X24.2253 Y9.2396
G01 X24.2253 Y9.2604
G01 X24.2205 Y9.3597
G01 X24.2196 Y9.3701
G01 X24.2170 Y9.3908
G01 X24.2038 Y9.4788
G01 X24.2019 Y9.4891
G01 X24.1973 Y9.5095
G01 X24.1783 Y9.5856
G01 X24.1727 Y9.6057
G01 X24.1661 Y9.6256
G01 X24.1397 Y9.6995
G01 X24.1322 Y9.7190
G01 X24.1237 Y9.7381
G01 X24.0901 Y9.8090
G01 X24.0808 Y9.8277
G01 X24.0705 Y9.8458
G01 X24.0301 Y9.9132
G01 X24.0189 Y9.9308
G01 X24.0069 Y9.9479
G01 X23.9601 Y10.0110
G01 X23.9473 Y10.0274
G01 X23.9406 Y10.0354
G01 X23.8809 Y10.1014
G01 X23.8665 Y10.1165
G01 X23.8514 Y10.1309
G01 X23.7932 Y10.1837
G01 X23.7774 Y10.1973
G01 X23.7610 Y10.2101
G01 X23.6979 Y10.2569
G01 X23.6808 Y10.2689
G01 X23.6632 Y10.2801
G01 X23.5958 Y10.3205
G01 X23.5777 Y10.3308
G01 X23.5590 Y10.3401
G01 X23.4881 Y10.3737
G01 X23.4690 Y10.3822
G01 X23.4495 Y10.3897
G01 X23.3756 Y10.4161
G01 X23.3557 Y10.4227
G01 X23.3356 Y10.4283
G01 X23.2595 Y10.4473
G01 X23.2391 Y10.4519
G01 X23.2185 Y10.4555
G01 X23.1408 Y10.4670
G01 X23.1201 Y10.4696
G01 X23.0993 Y10.4711
G01 X23.0209 Y10.4749
G01 X23.0000 Y10.4755
G01 X22.9791 Y10.4749
G01 X22.9007 Y10.4711
G01 X22.8799 Y10.4696
G01 X22.8592 Y10.4670
G01 X22.7815 Y10.4555
G01 X22.7609 Y10.4519
G01 X22.7405 Y10.4473
G01 X22.6543 Y10.4256
G01 X22.6443 Y10.4227
G01 X22.6244 Y10.4161
G01 X22.5505 Y10.3897
G01 X22.5310 Y10.3822
G01 X22.5119 Y10.3737
G01 X22.4410 Y10.3401
G01 X22.4223 Y10.3308
G01 X22.4042 Y10.3205
G01 X22.3368 Y10.2801
G01 X22.3192 Y10.2689
G01 X22.3021 Y10.2569
G01 X22.2390 Y10.2101
G01 X22.2226 Y10.1973
G01 X22.2068 Y10.1837
G01 X22.1486 Y10.1309
G01 X22.1335 Y10.1165
G01 X22.1191 Y10.1014
G01 X22.0663 Y10.0432
G01 X22.0527 Y10.0274
G01 X22.0399 Y10.0110
G01 X21.9931 Y9.9479
G01 X21.9811 Y9.9308
