(G-CODE GENERATED BY FLATCAM v8.994 - www.flatcam.org - Version Date: 2020/11/7)

(Name: SolarAmp-Edge_Cuts.gbr_cutout_cnc)
(Type: G-code from Geometry)
(Units: MM)

(Created on Friday, 28 June 2024 at 14:54)

(This preprocessor is the default preprocessor used by FlatCAM.)
(It is made to work with MACH3 compatible motion controllers.)

(TOOL DIAMETER: 2.0 mm)
(Feedrate_XY: 120.0 mm/min)
(Feedrate_Z: 60.0 mm/min)
(Feedrate rapids 1500.0 mm/min)

(Z_Cut: -1.8 mm)
(DepthPerCut: 0.9 mm <=>2 passes)
(Z_Move: 1.0 mm)
(Z Start: None mm)
(Z End: 15.0 mm)
(X,Y End: None mm)
(Steps per circle: 64)
(Preprocessor Geometry: default)

(X range:   -1.1250 ...   51.1250  mm)
(Y range:   -1.1250 ...   20.6250  mm)

(Spindle Speed: 0.0 RPM)
G21
G90
G94

G01 F120.00

M5
G00 Z15.0000
G00 X0.0000 Y0.0000
T1
M6    
(MSG, Change to Tool Dia = 2.0000)
M0
G00 Z15.0000

M03
G01 F120.00
G00 X-1.1250 Y19.5000
G01 F60.00
G01 Z-0.9000
G01 F120.00
G01 X-1.1236 Y19.5564
G01 X-1.1130 Y19.6639
G01 X-1.0916 Y19.7722
G01 X-1.0596 Y19.8778
G01 X-1.0175 Y19.9799
G01 X-0.9656 Y20.0773
G01 X-0.9043 Y20.1692
G01 X-0.8344 Y20.2546
G01 X-0.7564 Y20.3327
G01 X-0.6711 Y20.4029
G01 X-0.5794 Y20.4643
G01 X-0.4821 Y20.5164
G01 X-0.3802 Y20.5588
G01 X-0.2745 Y20.5910
G01 X-0.1663 Y20.6126
G01 X-0.0564 Y20.6236
G01 X0.0000 Y20.6250
G01 X50.0000 Y20.6250
G01 X50.0564 Y20.6236
G01 X50.1663 Y20.6126
G01 X50.2745 Y20.5910
G01 X50.3802 Y20.5588
G01 X50.4799 Y20.5175
G01 X50.5773 Y20.4656
G01 X50.6711 Y20.4029
G01 X50.7546 Y20.3344
G01 X50.8327 Y20.2564
G01 X50.9043 Y20.1692
G01 X50.9656 Y20.0773
G01 X51.0164 Y19.9821
G01 X51.0596 Y19.8778
G01 X51.0916 Y19.7722
G01 X51.1126 Y19.6663
G01 X51.1237 Y19.5540
G01 X51.1250 Y19.5000
G01 X51.1250 Y0.0000
G01 X51.1236 Y-0.0564
G01 X51.1126 Y-0.1663
G01 X51.0910 Y-0.2745
G01 X51.0588 Y-0.3802
G01 X51.0164 Y-0.4821
G01 X50.9656 Y-0.5773
G01 X50.9029 Y-0.6711
G01 X50.8344 Y-0.7546
G01 X50.7564 Y-0.8327
G01 X50.6692 Y-0.9043
G01 X50.5794 Y-0.9643
G01 X50.4821 Y-1.0164
G01 X50.3778 Y-1.0596
G01 X50.2722 Y-1.0916
G01 X50.1663 Y-1.1126
G01 X50.0564 Y-1.1236
G01 X50.0000 Y-1.1250
G01 X0.0000 Y-1.1250
G01 X-0.0564 Y-1.1236
G01 X-0.1663 Y-1.1126
G01 X-0.2745 Y-1.0910
G01 X-0.3802 Y-1.0588
G01 X-0.4821 Y-1.0164
G01 X-0.5773 Y-0.9656
G01 X-0.6711 Y-0.9029
G01 X-0.7546 Y-0.8344
G01 X-0.8327 Y-0.7564
G01 X-0.9043 Y-0.6692
G01 X-0.9643 Y-0.5794
G01 X-1.0164 Y-0.4821
G01 X-1.0596 Y-0.3778
G01 X-1.0910 Y-0.2745
G01 X-1.1126 Y-0.1663
G01 X-1.1237 Y-0.0540
G01 X-1.1250 Y0.0000
G01 X-1.1250 Y19.5000
G00 X-1.1250 Y19.5000
G01 F60.00
G01 Z-1.8000
G01 F120.00
G01 X-1.1250 Y0.0000
G01 X-1.1237 Y-0.0540
G01 X-1.1126 Y-0.1663
G01 X-1.0910 Y-0.2745
G01 X-1.0596 Y-0.3778
G01 X-1.0164 Y-0.4821
G01 X-0.9643 Y-0.5794
G01 X-0.9043 Y-0.6692
G01 X-0.8327 Y-0.7564
G01 X-0.7546 Y-0.8344
G01 X-0.6711 Y-0.9029
G01 X-0.5773 Y-0.9656
G01 X-0.4821 Y-1.0164
G01 X-0.3802 Y-1.0588
G01 X-0.2745 Y-1.0910
G01 X-0.1663 Y-1.1126
G01 X-0.0564 Y-1.1236
G01 X0.0000 Y-1.1250
G01 X50.0000 Y-1.1250
G01 X50.0564 Y-1.1236
G01 X50.1663 Y-1.1126
G01 X50.2722 Y-1.0916
G01 X50.3778 Y-1.0596
G01 X50.4821 Y-1.0164
G01 X50.5794 Y-0.9643
G01 X50.6692 Y-0.9043
G01 X50.7564 Y-0.8327
G01 X50.8344 Y-0.7546
G01 X50.9029 Y-0.6711
G01 X50.9656 Y-0.5773
G01 X51.0164 Y-0.4821
G01 X51.0588 Y-0.3802
G01 X51.0910 Y-0.2745
G01 X51.1126 Y-0.1663
G01 X51.1236 Y-0.0564
G01 X51.1250 Y0.0000
G01 X51.1250 Y19.5000
G01 X51.1237 Y19.5540
G01 X51.1126 Y19.6663
G01 X51.0916 Y19.7722
G01 X51.0596 Y19.8778
G01 X51.0164 Y19.9821
G01 X50.9656 Y20.0773
G01 X50.9043 Y20.1692
G01 X50.8327 Y20.2564
G01 X50.7546 Y20.3344
G01 X50.6711 Y20.4029
G01 X50.5773 Y20.4656
G01 X50.4799 Y20.5175
G01 X50.3802 Y20.5588
G01 X50.2745 Y20.5910
G01 X50.1663 Y20.6126
G01 X50.0564 Y20.6236
G01 X50.0000 Y20.6250
G01 X0.0000 Y20.6250
G01 X-0.0564 Y20.6236
G01 X-0.1663 Y20.6126
G01 X-0.2745 Y20.5910
G01 X-0.3802 Y20.5588
G01 X-0.4821 Y20.5164
G01 X-0.5794 Y20.4643
G01 X-0.6711 Y20.4029
G01 X-0.7564 Y20.3327
G01 X-0.8344 Y20.2546
G01 X-0.9043 Y20.1692
G01 X-0.9656 Y20.0773
G01 X-1.0175 Y19.9799
G01 X-1.0596 Y19.8778
G01 X-1.0916 Y19.7722
G01 X-1.1130 Y19.6639
G01 X-1.1236 Y19.5564
G01 X-1.1250 Y19.5000
G00 Z1.0000
M05
G00 Z1.0000
G00 Z15.00


