(G-CODE GENERATED BY FLATCAM v8.994 - www.flatcam.org - Version Date: 2020/11/7)

(Name: SolarModular-B_Cu.gbr_iso_combined_cnc)
(Type: G-code from Geometry)
(Units: MM)

(Created on Wednesday, 12 June 2024 at 16:13)

(This preprocessor is the default preprocessor used by FlatCAM.)
(It is made to work with MACH3 compatible motion controllers.)

(TOOL DIAMETER: 0.3039 mm)
(Feedrate_XY: 500.0 mm/min)
(Feedrate_Z: 60.0 mm/min)
(Feedrate rapids 1500.0 mm/min)

(Z_Cut: -0.09 mm)
(Z_Move: 1.0 mm)
(Z Start: None mm)
(Z End: 15.0 mm)
(X,Y End: None mm)
(Steps per circle: 64)
(Preprocessor Geometry: default)

(X range:    0.7549 ...   55.0532  mm)
(Y range:    2.2170 ...  124.3449  mm)

(Spindle Speed: 15000.0 RPM)
G21
G90
G94

G01 F500.00

M5
G00 Z15.0000
G00 X0.0000 Y0.0000
T2
M6    
(MSG, Change to Tool Dia = 0.3039)
M0
G00 Z15.0000

M03 S15000.0
G01 F500.00
G00 X9.9224 Y10.8316
G01 F60.00
G01 Z-0.0900
G01 F500.00
G01 X9.9075 Y10.8331
G01 X9.7040 Y10.8429
G01 X9.4931 Y10.8326
G01 X9.2842 Y10.8016
G01 X9.0794 Y10.7503
G01 X8.8805 Y10.6791
G01 X8.6896 Y10.5888
G01 X8.5085 Y10.4802
G01 X8.3388 Y10.3544
G01 X8.1824 Y10.2126
G01 X8.0406 Y10.0562
G01 X7.9148 Y9.8865
G01 X7.8062 Y9.7054
G01 X7.7159 Y9.5145
G01 X7.6447 Y9.3156
G01 X7.5934 Y9.1108
G01 X7.5624 Y8.9019
G01 X7.5521 Y8.6910
G01 X7.5624 Y8.4800
G01 X7.5934 Y8.2711
G01 X7.6447 Y8.0663
G01 X7.7159 Y7.8675
G01 X7.8062 Y7.6765
G01 X7.9148 Y7.4954
G01 X8.0406 Y7.3258
G01 X8.1824 Y7.1693
G01 X8.3388 Y7.0275
G01 X8.5085 Y6.9017
G01 X8.6896 Y6.7931
G01 X8.8805 Y6.7028
G01 X9.0794 Y6.6317
G01 X9.2842 Y6.5804
G01 X9.4931 Y6.5494
G01 X9.7040 Y6.5390
G01 X9.9150 Y6.5494
G01 X10.1239 Y6.5804
G01 X10.3287 Y6.6317
G01 X10.5275 Y6.7028
G01 X10.7185 Y6.7931
G01 X10.8996 Y6.9017
G01 X11.0692 Y7.0275
G01 X11.2257 Y7.1693
G01 X11.3675 Y7.3258
G01 X11.4933 Y7.4954
G01 X11.6019 Y7.6765
G01 X11.6922 Y7.8675
G01 X11.7633 Y8.0663
G01 X11.8146 Y8.2711
G01 X11.8456 Y8.4800
G01 X11.8560 Y8.6910
G01 X11.8456 Y8.9019
G01 X11.8146 Y9.1108
G01 X11.7633 Y9.3156
G01 X11.6922 Y9.5145
G01 X11.6019 Y9.7054
G01 X11.4933 Y9.8865
G01 X11.3675 Y10.0562
G01 X11.2257 Y10.2126
G01 X11.0692 Y10.3544
G01 X10.8996 Y10.4802
G01 X10.7185 Y10.5888
G01 X10.5275 Y10.6791
G01 X10.3287 Y10.7503
G01 X10.1239 Y10.8016
G01 X9.9224 Y10.8316
G00 Z1.0000
G00 X9.9625 Y11.1022
G01 F60.00
G01 Z-0.0900
G01 F500.00
G01 X9.9418 Y11.1047
G01 X9.9209 Y11.1063
G01 X9.7249 Y11.1159
G01 X9.7040 Y11.1164
G01 X9.6832 Y11.1159
G01 X9.4871 Y11.1063
G01 X9.4663 Y11.1047
G01 X9.4456 Y11.1022
G01 X9.2514 Y11.0734
G01 X9.2308 Y11.0698
G01 X9.2105 Y11.0652
G01 X9.0201 Y11.0176
G01 X9.0000 Y11.0120
G01 X8.9801 Y11.0054
G01 X8.7953 Y10.9393
G01 X8.7758 Y10.9318
G01 X8.7568 Y10.9233
G01 X8.5793 Y10.8394
G01 X8.5607 Y10.8300
G01 X8.5425 Y10.8197
G01 X8.3742 Y10.7188
G01 X8.3565 Y10.7077
G01 X8.3394 Y10.6956
G01 X8.1818 Y10.5787
G01 X8.1653 Y10.5659
G01 X8.1495 Y10.5522
G01 X8.0041 Y10.4204
G01 X7.9890 Y10.4060
G01 X7.9746 Y10.3909
G01 X7.8428 Y10.2455
G01 X7.8291 Y10.2297
G01 X7.8163 Y10.2132
G01 X7.6994 Y10.0556
G01 X7.6873 Y10.0385
G01 X7.6762 Y10.0208
G01 X7.5753 Y9.8525
G01 X7.5650 Y9.8343
G01 X7.5556 Y9.8157
G01 X7.4717 Y9.6382
G01 X7.4632 Y9.6192
G01 X7.4557 Y9.5997
G01 X7.3896 Y9.4149
G01 X7.3830 Y9.3950
G01 X7.3774 Y9.3749
G01 X7.3298 Y9.1845
G01 X7.3252 Y9.1642
G01 X7.3216 Y9.1436
G01 X7.2928 Y8.9494
G01 X7.2903 Y8.9287
G01 X7.2887 Y8.9079
G01 X7.2791 Y8.7118
G01 X7.2786 Y8.6910
G01 X7.2791 Y8.6701
G01 X7.2887 Y8.4741
G01 X7.2903 Y8.4532
G01 X7.2928 Y8.4325
G01 X7.3216 Y8.2384
G01 X7.3252 Y8.2178
G01 X7.3298 Y8.1974
G01 X7.3774 Y8.0070
G01 X7.3830 Y7.9869
G01 X7.3896 Y7.9671
G01 X7.4557 Y7.7823
G01 X7.4632 Y7.7628
G01 X7.4717 Y7.7437
G01 X7.5556 Y7.5663
G01 X7.5650 Y7.5476
G01 X7.5753 Y7.5294
G01 X7.6762 Y7.3611
G01 X7.6873 Y7.3435
G01 X7.6994 Y7.3264
G01 X7.8163 Y7.1687
G01 X7.8291 Y7.1523
G01 X7.8428 Y7.1365
G01 X7.9746 Y6.9910
G01 X7.9890 Y6.9759
G01 X8.0041 Y6.9615
G01 X8.1495 Y6.8297
G01 X8.1653 Y6.8161
G01 X8.1818 Y6.8032
G01 X8.3394 Y6.6863
G01 X8.3565 Y6.6743
G01 X8.3742 Y6.6631
G01 X8.5425 Y6.5622
G01 X8.5607 Y6.5519
G01 X8.5793 Y6.5425
G01 X8.7568 Y6.4586
G01 X8.7758 Y6.4501
G01 X8.7953 Y6.4426
G01 X8.9801 Y6.3765
G01 X9.0000 Y6.3699
G01 X9.0201 Y6.3644
G01 X9.2105 Y6.3167
G01 X9.2308 Y6.3121
G01 X9.2514 Y6.3085
G01 X9.4456 Y6.2797
G01 X9.4663 Y6.2772
G01 X9.4871 Y6.2757
G01 X9.6832 Y6.2660
G01 X9.7040 Y6.2655
G01 X9.7249 Y6.2660
G01 X9.9209 Y6.2757
G01 X9.9418 Y6.2772
G01 X9.9625 Y6.2797
G01 X10.1566 Y6.3085
G01 X10.1772 Y6.3121
G01 X10.1976 Y6.3167
G01 X10.3880 Y6.3644
G01 X10.4081 Y6.3699
G01 X10.4279 Y6.3765
G01 X10.6127 Y6.4426
G01 X10.6322 Y6.4501
G01 X10.6513 Y6.4586
G01 X10.8287 Y6.5425
G01 X10.8474 Y6.5519
G01 X10.8656 Y6.5622
G01 X11.0339 Y6.6631
G01 X11.0515 Y6.6743
G01 X11.0686 Y6.6863
G01 X11.2263 Y6.8032
G01 X11.2427 Y6.8161
G01 X11.2585 Y6.8297
G01 X11.4040 Y6.9615
G01 X11.4191 Y6.9759
G01 X11.4335 Y6.9910
G01 X11.5653 Y7.1365
G01 X11.5789 Y7.1523
G01 X11.5918 Y7.1687
G01 X11.7087 Y7.3264
G01 X11.7207 Y7.3435
G01 X11.7319 Y7.3611
G01 X11.8328 Y7.5294
G01 X11.8431 Y7.5476
G01 X11.8525 Y7.5663
G01 X11.9364 Y7.7437
G01 X11.9449 Y7.7628
G01 X11.9524 Y7.7823
G01 X12.0185 Y7.9671
G01 X12.0251 Y7.9869
G01 X12.0306 Y8.0070
G01 X12.0783 Y8.1974
G01 X12.0829 Y8.2178
G01 X12.0865 Y8.2384
G01 X12.1153 Y8.4325
G01 X12.1178 Y8.4532
G01 X12.1193 Y8.4741
G01 X12.1290 Y8.6701
G01 X12.1295 Y8.6910
G01 X12.1290 Y8.7118
G01 X12.1193 Y8.9079
G01 X12.1178 Y8.9287
G01 X12.1153 Y8.9494
G01 X12.0865 Y9.1436
G01 X12.0829 Y9.1642
G01 X12.0783 Y9.1845
G01 X12.0306 Y9.3749
G01 X12.0251 Y9.3950
G01 X12.0185 Y9.4149
G01 X11.9524 Y9.5997
G01 X11.9449 Y9.6192
G01 X11.9364 Y9.6382
G01 X11.8525 Y9.8157
G01 X11.8431 Y9.8343
G01 X11.8328 Y9.8525
G01 X11.7319 Y10.0208
G01 X11.7207 Y10.0385
G01 X11.7087 Y10.0556
G01 X11.5918 Y10.2132
G01 X11.5789 Y10.2297
G01 X11.5653 Y10.2455
G01 X11.4335 Y10.3909
G01 X11.4191 Y10.4060
G01 X11.4040 Y10.4204
G01 X11.2585 Y10.5522
G01 X11.2427 Y10.5659
G01 X11.2263 Y10.5787
G01 X11.0686 Y10.6956
G01 X11.0515 Y10.7077
G01 X11.0339 Y10.7188
G01 X10.8656 Y10.8197
G01 X10.8474 Y10.8300
G01 X10.8287 Y10.8394
G01 X10.6513 Y10.9233
G01 X10.6322 Y10.9318
G01 X10.6127 Y10.9393
G01 X10.4279 Y11.0054
G01 X10.4081 Y11.0120
G01 X10.3880 Y11.0176
G01 X10.1976 Y11.0652
G01 X10.1772 Y11.0698
G01 X10.1566 Y11.0734
G01 X9.9625 Y11.1022
G00 Z1.0000
G00 X10.0026 Y11.3727
G01 F60.00
G01 Z-0.0900
G01 F500.00
G01 X9.9686 Y11.3769
G01 X9.9344 Y11.3795
G01 X9.7383 Y11.3891
G01 X9.7040 Y11.3899
G01 X9.6697 Y11.3891
G01 X9.4737 Y11.3795
G01 X9.4395 Y11.3769
G01 X9.4054 Y11.3727
G01 X9.2113 Y11.3439
G01 X9.1775 Y11.3381
G01 X9.1440 Y11.3306
G01 X8.9536 Y11.2829
G01 X8.9206 Y11.2737
G01 X8.8880 Y11.2630
G01 X8.7032 Y11.1968
G01 X8.6712 Y11.1845
G01 X8.6398 Y11.1706
G01 X8.4624 Y11.0867
G01 X8.4317 Y11.0712
G01 X8.4019 Y11.0543
G01 X8.2335 Y10.9534
G01 X8.2046 Y10.9351
G01 X8.1765 Y10.9153
G01 X8.0189 Y10.7984
G01 X7.9918 Y10.7773
G01 X7.9658 Y10.7549
G01 X7.8204 Y10.6231
G01 X7.7956 Y10.5994
G01 X7.7719 Y10.5746
G01 X7.6401 Y10.4292
G01 X7.6177 Y10.4032
G01 X7.5966 Y10.3761
G01 X7.4797 Y10.2185
G01 X7.4599 Y10.1904
G01 X7.4416 Y10.1615
G01 X7.3407 Y9.9931
G01 X7.3238 Y9.9633
G01 X7.3083 Y9.9326
G01 X7.2244 Y9.7552
G01 X7.2105 Y9.7238
G01 X7.1982 Y9.6918
G01 X7.1320 Y9.5070
G01 X7.1213 Y9.4744
G01 X7.1121 Y9.4414
G01 X7.0644 Y9.2510
G01 X7.0569 Y9.2175
G01 X7.0511 Y9.1837
G01 X7.0223 Y8.9896
G01 X7.0181 Y8.9555
G01 X7.0155 Y8.9213
G01 X7.0059 Y8.7253
G01 X7.0051 Y8.6910
G01 X7.0059 Y8.6567
G01 X7.0155 Y8.4606
G01 X7.0181 Y8.4264
G01 X7.0223 Y8.3924
G01 X7.0511 Y8.1982
G01 X7.0569 Y8.1644
G01 X7.0644 Y8.1310
G01 X7.1121 Y7.9406
G01 X7.1213 Y7.9075
G01 X7.1320 Y7.8749
G01 X7.1982 Y7.6901
G01 X7.2105 Y7.6581
G01 X7.2244 Y7.6268
G01 X7.3083 Y7.4493
G01 X7.3238 Y7.4187
G01 X7.3407 Y7.3888
G01 X7.4416 Y7.2205
G01 X7.4599 Y7.1915
G01 X7.4797 Y7.1635
G01 X7.5966 Y7.0058
G01 X7.6177 Y6.9788
G01 X7.6401 Y6.9528
G01 X7.7719 Y6.8074
G01 X7.7956 Y6.7825
G01 X7.8204 Y6.7589
G01 X7.9658 Y6.6270
G01 X7.9918 Y6.6046
G01 X8.0189 Y6.5835
G01 X8.1765 Y6.4666
G01 X8.2046 Y6.4469
G01 X8.2335 Y6.4285
G01 X8.4019 Y6.3276
G01 X8.4317 Y6.3107
G01 X8.4624 Y6.2953
G01 X8.6398 Y6.2113
G01 X8.6712 Y6.1974
G01 X8.7032 Y6.1851
G01 X8.8880 Y6.1190
G01 X8.9206 Y6.1082
G01 X8.9536 Y6.0991
G01 X9.1440 Y6.0514
G01 X9.1775 Y6.0439
G01 X9.2113 Y6.0380
G01 X9.4054 Y6.0092
G01 X9.4395 Y6.0050
G01 X9.4737 Y6.0025
G01 X9.6697 Y5.9928
G01 X9.7040 Y5.9920
G01 X9.7383 Y5.9928
G01 X9.9344 Y6.0025
G01 X9.9686 Y6.0050
G01 X10.0026 Y6.0092
G01 X10.1968 Y6.0380
G01 X10.2306 Y6.0439
G01 X10.2640 Y6.0514
G01 X10.4544 Y6.0991
G01 X10.4875 Y6.1082
G01 X10.5201 Y6.1190
G01 X10.7049 Y6.1851
G01 X10.7369 Y6.1974
G01 X10.7682 Y6.2113
G01 X10.9457 Y6.2953
G01 X10.9763 Y6.3107
G01 X11.0062 Y6.3276
G01 X11.1745 Y6.4285
G01 X11.2035 Y6.4469
G01 X11.2315 Y6.4666
G01 X11.3892 Y6.5835
G01 X11.4162 Y6.6046
G01 X11.4422 Y6.6270
G01 X11.5876 Y6.7589
G01 X11.6125 Y6.7825
G01 X11.6361 Y6.8074
G01 X11.7680 Y6.9528
G01 X11.7904 Y6.9788
G01 X11.8115 Y7.0058
G01 X11.9284 Y7.1635
G01 X11.9481 Y7.1915
G01 X11.9665 Y7.2205
G01 X12.0674 Y7.3888
G01 X12.0843 Y7.4187
G01 X12.0997 Y7.4493
G01 X12.1837 Y7.6268
G01 X12.1976 Y7.6581
G01 X12.2099 Y7.6901
G01 X12.2760 Y7.8749
G01 X12.2868 Y7.9075
G01 X12.2959 Y7.9406
G01 X12.3436 Y8.1310
G01 X12.3511 Y8.1644
G01 X12.3570 Y8.1982
G01 X12.3858 Y8.3924
G01 X12.3900 Y8.4264
G01 X12.3925 Y8.4606
G01 X12.4022 Y8.6567
G01 X12.4030 Y8.6910
G01 X12.4022 Y8.7253
G01 X12.3925 Y8.9213
G01 X12.3900 Y8.9555
G01 X12.3858 Y8.9896
G01 X12.3570 Y9.1837
G01 X12.3511 Y9.2175
G01 X12.3436 Y9.2510
G01 X12.2959 Y9.4414
G01 X12.2868 Y9.4744
G01 X12.2760 Y9.5070
G01 X12.2099 Y9.6918
G01 X12.1976 Y9.7238
G01 X12.1837 Y9.7552
G01 X12.0997 Y9.9326
G01 X12.0843 Y9.9633
G01 X12.0674 Y9.9931
G01 X11.9665 Y10.1615
G01 X11.9481 Y10.1904
G01 X11.9284 Y10.2185
G01 X11.8115 Y10.3761
G01 X11.7904 Y10.4032
G01 X11.7680 Y10.4292
G01 X11.6361 Y10.5746
G01 X11.6125 Y10.5994
G01 X11.5876 Y10.6231
G01 X11.4422 Y10.7549
G01 X11.4162 Y10.7773
G01 X11.3892 Y10.7984
G01 X11.2315 Y10.9153
G01 X11.2035 Y10.9351
G01 X11.1745 Y10.9534
G01 X11.0062 Y11.0543
G01 X10.9763 Y11.0712
G01 X10.9457 Y11.0867
G01 X10.7682 Y11.1706
G01 X10.7369 Y11.1845
G01 X10.7049 Y11.1968
G01 X10.5201 Y11.2630
G01 X10.4875 Y11.2737
G01 X10.4544 Y11.2829
G01 X10.2640 Y11.3306
G01 X10.2306 Y11.3381
G01 X10.1968 Y11.3439
G01 X10.0026 Y11.3727
G00 Z1.0000
G00 X4.6519 Y15.1115
G01 F60.00
G01 Z-0.0900
G01 F500.00
G01 X4.6519 Y9.7979
G01 X4.3503 Y9.7979
G01 X4.3354 Y9.7968
G01 X4.3281 Y9.7957
G01 X4.3171 Y9.7934
G01 X4.3064 Y9.7902
G01 X4.2959 Y9.7864
G01 X4.2891 Y9.7833
G01 X4.2791 Y9.7782
G01 X4.2727 Y9.7743
G01 X4.2635 Y9.7680
G01 X4.2548 Y9.7610
G01 X4.2466 Y9.7534
G01 X4.2390 Y9.7452
G01 X4.2320 Y9.7365
G01 X4.2257 Y9.7273
G01 X4.2218 Y9.7209
G01 X4.2167 Y9.7109
G01 X4.2136 Y9.7041
G01 X4.2098 Y9.6936
G01 X4.2066 Y9.6829
G01 X4.2050 Y9.6756
G01 X4.2032 Y9.6646
G01 X4.2023 Y9.6534
G01 X4.2021 Y9.6460
G01 X4.2021 Y7.9460
G01 X4.2028 Y7.9311
G01 X4.2050 Y7.9163
G01 X4.2086 Y7.9019
G01 X4.2123 Y7.8913
G01 X4.2167 Y7.8810
G01 X4.2218 Y7.8711
G01 X4.2277 Y7.8615
G01 X4.2366 Y7.8496
G01 X4.2466 Y7.8385
G01 X4.2548 Y7.8309
G01 X4.2635 Y7.8239
G01 X4.2759 Y7.8156
G01 X4.2857 Y7.8102
G01 X4.2959 Y7.8056
G01 X4.3064 Y7.8017
G01 X4.3171 Y7.7986
G01 X4.3281 Y7.7963
G01 X4.3429 Y7.7944
G01 X4.3540 Y7.7940
G01 X6.0540 Y7.7940
G01 X6.0689 Y7.7948
G01 X6.0837 Y7.7969
G01 X6.0946 Y7.7995
G01 X6.1087 Y7.8042
G01 X6.1223 Y7.8102
G01 X6.1321 Y7.8156
G01 X6.1415 Y7.8217
G01 X6.1504 Y7.8285
G01 X6.1615 Y7.8385
G01 X6.1691 Y7.8467
G01 X6.1761 Y7.8555
G01 X6.1844 Y7.8679
G01 X6.1898 Y7.8777
G01 X6.1944 Y7.8878
G01 X6.1983 Y7.8983
G01 X6.2014 Y7.9090
G01 X6.2037 Y7.9200
G01 X6.2056 Y7.9348
G01 X6.2060 Y7.9460
G01 X6.2060 Y9.6460
G01 X6.2052 Y9.6609
G01 X6.2037 Y9.6719
G01 X6.2014 Y9.6829
G01 X6.1983 Y9.6936
G01 X6.1944 Y9.7041
G01 X6.1898 Y9.7143
G01 X6.1862 Y9.7209
G01 X6.1804 Y9.7304
G01 X6.1738 Y9.7395
G01 X6.1666 Y9.7480
G01 X6.1588 Y9.7560
G01 X6.1504 Y9.7634
G01 X6.1415 Y9.7702
G01 X6.1321 Y9.7763
G01 X6.1223 Y9.7817
G01 X6.1122 Y9.7864
G01 X6.1017 Y9.7902
G01 X6.0946 Y9.7924
G01 X6.0873 Y9.7942
G01 X6.0763 Y9.7963
G01 X6.0689 Y9.7972
G01 X6.0578 Y9.7979
G01 X5.7562 Y9.7979
G01 X5.7562 Y15.1115
G01 X5.8079 Y15.1501
G01 X5.8718 Y15.2077
G01 X5.8823 Y15.2182
G01 X5.9375 Y15.2792
G01 X5.9445 Y15.2879
G01 X5.9955 Y15.3571
G01 X6.0399 Y15.4307
G01 X6.0453 Y15.4405
G01 X6.0805 Y15.5149
G01 X6.0862 Y15.5286
G01 X6.1150 Y15.6096
G01 X6.1361 Y15.6930
G01 X6.1390 Y15.7076
G01 X6.1514 Y15.7927
G01 X6.1558 Y15.8785
G01 X6.1558 Y15.8934
G01 X6.1519 Y15.9718
G01 X6.1505 Y15.9867
G01 X6.1377 Y16.0717
G01 X6.1170 Y16.1551
G01 X6.1127 Y16.1694
G01 X6.0835 Y16.2503
G01 X6.0436 Y16.3347
G01 X5.9955 Y16.4148
G01 X5.9445 Y16.4840
G01 X5.9350 Y16.4955
G01 X5.8772 Y16.5591
G01 X5.8136 Y16.6170
G01 X5.8021 Y16.6264
G01 X5.7360 Y16.6754
G01 X5.7266 Y16.6815
G01 X5.6528 Y16.7255
G01 X5.5683 Y16.7655
G01 X5.4804 Y16.7969
G01 X5.3897 Y16.8196
G01 X5.2973 Y16.8333
G01 X5.2040 Y16.8379
G01 X5.1107 Y16.8333
G01 X5.0183 Y16.8196
G01 X4.9277 Y16.7969
G01 X4.8397 Y16.7655
G01 X4.7553 Y16.7255
G01 X4.6752 Y16.6775
G01 X4.6001 Y16.6218
G01 X4.5309 Y16.5591
G01 X4.4682 Y16.4899
G01 X4.4146 Y16.4179
G01 X4.4085 Y16.4085
G01 X4.3645 Y16.3347
G01 X4.3245 Y16.2503
G01 X4.2931 Y16.1623
G01 X4.2704 Y16.0717
G01 X4.2567 Y15.9793
G01 X4.2521 Y15.8860
G01 X4.2567 Y15.7927
G01 X4.2697 Y15.7039
G01 X4.2720 Y15.6930
G01 X4.2931 Y15.6096
G01 X4.3245 Y15.5217
G01 X4.3645 Y15.4372
G01 X4.4105 Y15.3602
G01 X4.4168 Y15.3510
G01 X4.4682 Y15.2821
G01 X4.5283 Y15.2155
G01 X4.5363 Y15.2077
G01 X4.5973 Y15.1525
G01 X4.6060 Y15.1455
G01 X4.6519 Y15.1115
G00 Z1.0000
G00 X4.3784 Y14.9817
G01 F60.00
G01 Z-0.0900
G01 F500.00
G01 X4.3784 Y10.0714
G01 X4.3540 Y10.0714
G01 X4.3332 Y10.0709
G01 X4.3227 Y10.0703
G01 X4.3020 Y10.0682
G01 X4.2813 Y10.0652
G01 X4.2608 Y10.0611
G01 X4.2406 Y10.0560
G01 X4.2305 Y10.0531
G01 X4.2107 Y10.0466
G01 X4.1912 Y10.0390
G01 X4.1721 Y10.0306
G01 X4.1535 Y10.0212
G01 X4.1353 Y10.0109
G01 X4.1177 Y9.9997
G01 X4.1006 Y9.9877
G01 X4.0923 Y9.9814
G01 X4.0761 Y9.9681
G01 X4.0607 Y9.9541
G01 X4.0459 Y9.9393
G01 X4.0388 Y9.9317
G01 X4.0251 Y9.9159
G01 X4.0123 Y9.8994
G01 X4.0003 Y9.8823
G01 X3.9946 Y9.8736
G01 X3.9838 Y9.8557
G01 X3.9788 Y9.8465
G01 X3.9694 Y9.8279
G01 X3.9610 Y9.8088
G01 X3.9534 Y9.7893
G01 X3.9469 Y9.7695
G01 X3.9413 Y9.7493
G01 X3.9367 Y9.7290
G01 X3.9332 Y9.7084
G01 X3.9306 Y9.6877
G01 X3.9291 Y9.6668
G01 X3.9286 Y9.6460
G01 X3.9286 Y7.9460
G01 X3.9291 Y7.9251
G01 X3.9306 Y7.9043
G01 X3.9318 Y7.8939
G01 X3.9332 Y7.8835
G01 X3.9367 Y7.8630
G01 X3.9413 Y7.8426
G01 X3.9469 Y7.8225
G01 X3.9500 Y7.8125
G01 X3.9534 Y7.8026
G01 X3.9610 Y7.7832
G01 X3.9694 Y7.7641
G01 X3.9740 Y7.7547
G01 X3.9788 Y7.7454
G01 X3.9891 Y7.7272
G01 X3.9946 Y7.7183
G01 X4.0062 Y7.7010
G01 X4.0123 Y7.6925
G01 X4.0251 Y7.6761
G01 X4.0319 Y7.6681
G01 X4.0459 Y7.6526
G01 X4.0532 Y7.6451
G01 X4.0683 Y7.6307
G01 X4.0841 Y7.6171
G01 X4.0923 Y7.6106
G01 X4.1090 Y7.5981
G01 X4.1177 Y7.5922
G01 X4.1353 Y7.5810
G01 X4.1443 Y7.5758
G01 X4.1627 Y7.5659
G01 X4.1721 Y7.5614
G01 X4.1816 Y7.5570
G01 X4.2009 Y7.5490
G01 X4.2206 Y7.5420
G01 X4.2305 Y7.5388
G01 X4.2507 Y7.5333
G01 X4.2608 Y7.5308
G01 X4.2710 Y7.5287
G01 X4.2916 Y7.5251
G01 X4.3123 Y7.5226
G01 X4.3227 Y7.5217
G01 X4.3436 Y7.5206
G01 X4.3540 Y7.5205
G01 X6.0540 Y7.5205
G01 X6.0645 Y7.5206
G01 X6.0853 Y7.5217
G01 X6.1061 Y7.5237
G01 X6.1268 Y7.5268
G01 X6.1473 Y7.5308
G01 X6.1574 Y7.5333
G01 X6.1675 Y7.5359
G01 X6.1875 Y7.5420
G01 X6.1974 Y7.5454
G01 X6.2168 Y7.5529
G01 X6.2359 Y7.5614
G01 X6.2453 Y7.5659
G01 X6.2637 Y7.5758
G01 X6.2728 Y7.5810
G01 X6.2904 Y7.5922
G01 X6.2990 Y7.5981
G01 X6.3075 Y7.6042
G01 X6.3239 Y7.6171
G01 X6.3398 Y7.6307
G01 X6.3474 Y7.6378
G01 X6.3622 Y7.6526
G01 X6.3693 Y7.6602
G01 X6.3762 Y7.6681
G01 X6.3894 Y7.6842
G01 X6.3958 Y7.6925
G01 X6.4078 Y7.7096
G01 X6.4190 Y7.7272
G01 X6.4242 Y7.7363
G01 X6.4341 Y7.7547
G01 X6.4386 Y7.7641
G01 X6.4430 Y7.7736
G01 X6.4510 Y7.7928
G01 X6.4580 Y7.8125
G01 X6.4612 Y7.8225
G01 X6.4641 Y7.8325
G01 X6.4692 Y7.8527
G01 X6.4732 Y7.8732
G01 X6.4749 Y7.8835
G01 X6.4763 Y7.8939
G01 X6.4783 Y7.9147
G01 X6.4794 Y7.9355
G01 X6.4795 Y7.9460
G01 X6.4794 Y9.6564
G01 X6.4783 Y9.6773
G01 X6.4763 Y9.6980
G01 X6.4732 Y9.7187
G01 X6.4692 Y9.7392
G01 X6.4641 Y9.7594
G01 X6.4612 Y9.7695
G01 X6.4546 Y9.7893
G01 X6.4471 Y9.8088
G01 X6.4386 Y9.8279
G01 X6.4293 Y9.8465
G01 X6.4190 Y9.8647
G01 X6.4078 Y9.8823
G01 X6.3958 Y9.8994
G01 X6.3829 Y9.9159
G01 X6.3693 Y9.9317
G01 X6.3549 Y9.9468
G01 X6.3398 Y9.9612
G01 X6.3239 Y9.9749
G01 X6.3075 Y9.9877
G01 X6.2904 Y9.9997
G01 X6.2728 Y10.0109
G01 X6.2546 Y10.0212
G01 X6.2359 Y10.0306
G01 X6.2168 Y10.0390
G01 X6.1974 Y10.0466
G01 X6.1775 Y10.0531
G01 X6.1574 Y10.0587
G01 X6.1370 Y10.0633
G01 X6.1165 Y10.0668
G01 X6.0957 Y10.0694
G01 X6.0749 Y10.0709
G01 X6.0540 Y10.0714
G01 X6.0297 Y10.0714
G01 X6.0297 Y14.9817
G01 X6.0631 Y15.0121
G01 X6.0779 Y15.0269
G01 X6.1446 Y15.1006
G01 X6.1513 Y15.1085
G01 X6.1642 Y15.1250
G01 X6.2171 Y15.1965
G01 X6.2230 Y15.2051
G01 X6.2341 Y15.2228
G01 X6.2745 Y15.2901
G01 X6.2848 Y15.3083
G01 X6.2942 Y15.3269
G01 X6.3321 Y15.4074
G01 X6.3401 Y15.4267
G01 X6.3437 Y15.4365
G01 X6.3702 Y15.5104
G01 X6.3767 Y15.5302
G01 X6.3823 Y15.5504
G01 X6.4014 Y15.6265
G01 X6.4059 Y15.6469
G01 X6.4095 Y15.6675
G01 X6.4210 Y15.7451
G01 X6.4236 Y15.7659
G01 X6.4251 Y15.7867
G01 X6.4290 Y15.8651
G01 X6.4295 Y15.8860
G01 X6.4290 Y15.9068
G01 X6.4251 Y15.9853
G01 X6.4236 Y16.0061
G01 X6.4210 Y16.0268
G01 X6.4095 Y16.1045
G01 X6.4059 Y16.1250
G01 X6.4014 Y16.1454
G01 X6.3823 Y16.2216
G01 X6.3767 Y16.2417
G01 X6.3702 Y16.2615
G01 X6.3437 Y16.3354
G01 X6.3362 Y16.3549
G01 X6.3277 Y16.3740
G01 X6.2942 Y16.4450
G01 X6.2848 Y16.4636
G01 X6.2745 Y16.4818
G01 X6.2341 Y16.5492
G01 X6.2230 Y16.5668
G01 X6.2109 Y16.5839
G01 X6.1642 Y16.6469
G01 X6.1513 Y16.6634
G01 X6.1377 Y16.6792
G01 X6.0850 Y16.7374
G01 X6.0706 Y16.7525
G01 X6.0631 Y16.7598
G01 X5.9973 Y16.8196
G01 X5.9815 Y16.8333
G01 X5.9650 Y16.8461
G01 X5.9019 Y16.8929
G01 X5.8849 Y16.9049
G01 X5.8672 Y16.9161
G01 X5.7999 Y16.9564
G01 X5.7817 Y16.9667
G01 X5.7631 Y16.9761
G01 X5.6921 Y17.0097
G01 X5.6730 Y17.0181
G01 X5.6535 Y17.0257
G01 X5.5796 Y17.0521
G01 X5.5598 Y17.0587
G01 X5.5396 Y17.0642
G01 X5.4635 Y17.0833
G01 X5.4431 Y17.0879
G01 X5.4225 Y17.0915
G01 X5.3449 Y17.1030
G01 X5.3241 Y17.1055
G01 X5.3033 Y17.1071
G01 X5.2249 Y17.1109
G01 X5.2040 Y17.1114
G01 X5.1832 Y17.1109
G01 X5.1047 Y17.1071
G01 X5.0839 Y17.1055
G01 X5.0632 Y17.1030
G01 X4.9855 Y17.0915
G01 X4.9650 Y17.0879
G01 X4.9446 Y17.0833
G01 X4.8684 Y17.0642
G01 X4.8483 Y17.0587
G01 X4.8285 Y17.0521
G01 X4.7546 Y17.0257
G01 X4.7351 Y17.0181
G01 X4.7160 Y17.0097
G01 X4.6450 Y16.9761
G01 X4.6264 Y16.9667
G01 X4.6082 Y16.9564
G01 X4.5408 Y16.9161
G01 X4.5232 Y16.9049
G01 X4.5061 Y16.8929
G01 X4.4431 Y16.8461
G01 X4.4266 Y16.8333
G01 X4.4108 Y16.8196
G01 X4.3526 Y16.7669
G01 X4.3375 Y16.7525
G01 X4.3302 Y16.7450
G01 X4.2704 Y16.6792
G01 X4.2567 Y16.6634
G01 X4.2439 Y16.6469
G01 X4.1971 Y16.5839
G01 X4.1851 Y16.5668
G01 X4.1739 Y16.5492
G01 X4.1336 Y16.4818
G01 X4.1233 Y16.4636
G01 X4.1139 Y16.4450
G01 X4.0803 Y16.3740
G01 X4.0719 Y16.3549
G01 X4.0643 Y16.3354
G01 X4.0379 Y16.2615
G01 X4.0313 Y16.2417
G01 X4.0258 Y16.2216
G01 X4.0067 Y16.1454
G01 X4.0021 Y16.1250
G01 X3.9985 Y16.1045
G01 X3.9870 Y16.0268
G01 X3.9845 Y16.0061
G01 X3.9829 Y15.9853
G01 X3.9791 Y15.9068
G01 X3.9787 Y15.8964
G01 X3.9787 Y15.8755
G01 X3.9829 Y15.7867
G01 X3.9845 Y15.7659
G01 X3.9870 Y15.7451
G01 X3.9985 Y15.6675
G01 X4.0021 Y15.6469
G01 X4.0067 Y15.6265
G01 X4.0258 Y15.5504
G01 X4.0313 Y15.5302
G01 X4.0379 Y15.5104
G01 X4.0643 Y15.4365
G01 X4.0680 Y15.4267
G01 X4.0760 Y15.4074
G01 X4.1139 Y15.3269
G01 X4.1233 Y15.3083
G01 X4.1336 Y15.2901
G01 X4.1739 Y15.2228
G01 X4.1851 Y15.2051
G01 X4.1910 Y15.1965
G01 X4.2439 Y15.1250
G01 X4.2502 Y15.1167
G01 X4.2635 Y15.1006
G01 X4.3302 Y15.0269
G01 X4.3450 Y15.0121
G01 X4.3784 Y14.9817
G00 Z1.0000
G00 X4.1049 Y14.8681
G01 F60.00
G01 Z-0.0900
G01 F500.00
G01 X4.1049 Y10.2990
G01 X4.0865 Y10.2917
G01 X4.0708 Y10.2850
G01 X4.0398 Y10.2703
G01 X4.0245 Y10.2624
G01 X4.0095 Y10.2541
G01 X3.9801 Y10.2365
G01 X3.9516 Y10.2174
G01 X3.9240 Y10.1970
G01 X3.9106 Y10.1863
G01 X3.8975 Y10.1752
G01 X3.8721 Y10.1522
G01 X3.8598 Y10.1402
G01 X3.8361 Y10.1154
G01 X3.8137 Y10.0894
G01 X3.7926 Y10.0623
G01 X3.7729 Y10.0343
G01 X3.7635 Y10.0199
G01 X3.7459 Y9.9905
G01 X3.7376 Y9.9755
G01 X3.7222 Y9.9448
G01 X3.7083 Y9.9135
G01 X3.7019 Y9.8975
G01 X3.6959 Y9.8814
G01 X3.6852 Y9.8489
G01 X3.6760 Y9.8158
G01 X3.6720 Y9.7991
G01 X3.6654 Y9.7655
G01 X3.6603 Y9.7315
G01 X3.6570 Y9.6974
G01 X3.6559 Y9.6803
G01 X3.6551 Y9.6460
G01 X3.6551 Y7.9460
G01 X3.6559 Y7.9117
G01 X3.6584 Y7.8775
G01 X3.6603 Y7.8604
G01 X3.6654 Y7.8265
G01 X3.6685 Y7.8096
G01 X3.6760 Y7.7761
G01 X3.6804 Y7.7595
G01 X3.6852 Y7.7431
G01 X3.6959 Y7.7105
G01 X3.7083 Y7.6785
G01 X3.7150 Y7.6627
G01 X3.7222 Y7.6471
G01 X3.7376 Y7.6165
G01 X3.7459 Y7.6014
G01 X3.7635 Y7.5720
G01 X3.7729 Y7.5576
G01 X3.7926 Y7.5296
G01 X3.8137 Y7.5025
G01 X3.8248 Y7.4894
G01 X3.8361 Y7.4766
G01 X3.8598 Y7.4517
G01 X3.8846 Y7.4281
G01 X3.9106 Y7.4057
G01 X3.9240 Y7.3949
G01 X3.9516 Y7.3745
G01 X3.9801 Y7.3554
G01 X3.9947 Y7.3464
G01 X4.0245 Y7.3295
G01 X4.0398 Y7.3216
G01 X4.0552 Y7.3141
G01 X4.0865 Y7.3002
G01 X4.1186 Y7.2879
G01 X4.1511 Y7.2771
G01 X4.1676 Y7.2723
G01 X4.1842 Y7.2679
G01 X4.2177 Y7.2604
G01 X4.2515 Y7.2546
G01 X4.2855 Y7.2504
G01 X4.3197 Y7.2478
G01 X4.3540 Y7.2470
G01 X6.0540 Y7.2470
G01 X6.0712 Y7.2472
G01 X6.1055 Y7.2489
G01 X6.1396 Y7.2523
G01 X6.1566 Y7.2546
G01 X6.1904 Y7.2604
G01 X6.2239 Y7.2679
G01 X6.2405 Y7.2723
G01 X6.2733 Y7.2823
G01 X6.3056 Y7.2938
G01 X6.3215 Y7.3002
G01 X6.3529 Y7.3141
G01 X6.3835 Y7.3295
G01 X6.3986 Y7.3378
G01 X6.4134 Y7.3464
G01 X6.4424 Y7.3648
G01 X6.4704 Y7.3846
G01 X6.4841 Y7.3949
G01 X6.5106 Y7.4167
G01 X6.5234 Y7.4281
G01 X6.5360 Y7.4397
G01 X6.5603 Y7.4640
G01 X6.5833 Y7.4894
G01 X6.6051 Y7.5159
G01 X6.6255 Y7.5435
G01 X6.6352 Y7.5576
G01 X6.6536 Y7.5866
G01 X6.6705 Y7.6165
G01 X6.6859 Y7.6471
G01 X6.6998 Y7.6785
G01 X6.7062 Y7.6944
G01 X6.7177 Y7.7267
G01 X6.7277 Y7.7595
G01 X6.7321 Y7.7761
G01 X6.7396 Y7.8096
G01 X6.7427 Y7.8265
G01 X6.7477 Y7.8604
G01 X6.7511 Y7.8945
G01 X6.7522 Y7.9117
G01 X6.7530 Y7.9460
G01 X6.7530 Y9.6460
G01 X6.7522 Y9.6803
G01 X6.7496 Y9.7145
G01 X6.7454 Y9.7485
G01 X6.7396 Y9.7823
G01 X6.7360 Y9.7991
G01 X6.7277 Y9.8324
G01 X6.7177 Y9.8652
G01 X6.7121 Y9.8814
G01 X6.6998 Y9.9135
G01 X6.6859 Y9.9448
G01 X6.6705 Y9.9755
G01 X6.6622 Y9.9905
G01 X6.6446 Y10.0199
G01 X6.6255 Y10.0484
G01 X6.6154 Y10.0623
G01 X6.6051 Y10.0760
G01 X6.5833 Y10.1025
G01 X6.5603 Y10.1279
G01 X6.5483 Y10.1402
G01 X6.5234 Y10.1639
G01 X6.4975 Y10.1863
G01 X6.4704 Y10.2074
G01 X6.4565 Y10.2174
G01 X6.4280 Y10.2365
G01 X6.4134 Y10.2455
G01 X6.3835 Y10.2624
G01 X6.3529 Y10.2778
G01 X6.3373 Y10.2850
G01 X6.3215 Y10.2917
G01 X6.3032 Y10.2990
G01 X6.3032 Y14.8681
G01 X6.3403 Y14.9091
G01 X6.3628 Y14.9350
G01 X6.3839 Y14.9621
G01 X6.4306 Y15.0251
G01 X6.4504 Y15.0532
G01 X6.4597 Y15.0676
G01 X6.5091 Y15.1495
G01 X6.5260 Y15.1794
G01 X6.5339 Y15.1946
G01 X6.5821 Y15.2966
G01 X6.5953 Y15.3283
G01 X6.6277 Y15.4183
G01 X6.6333 Y15.4345
G01 X6.6432 Y15.4673
G01 X6.6706 Y15.5768
G01 X6.6742 Y15.5935
G01 X6.6801 Y15.6273
G01 X6.6939 Y15.7220
G01 X6.6973 Y15.7561
G01 X6.6983 Y15.7733
G01 X6.7028 Y15.8688
G01 X6.7028 Y15.9031
G01 X6.6983 Y15.9987
G01 X6.6958 Y16.0329
G01 X6.6939 Y16.0499
G01 X6.6801 Y16.1446
G01 X6.6742 Y16.1784
G01 X6.6667 Y16.2119
G01 X6.6432 Y16.3046
G01 X6.6333 Y16.3375
G01 X6.6012 Y16.4276
G01 X6.5889 Y16.4596
G01 X6.5821 Y16.4754
G01 X6.5414 Y16.5619
G01 X6.5260 Y16.5926
G01 X6.5091 Y16.6224
G01 X6.4687 Y16.6898
G01 X6.4504 Y16.7188
G01 X6.4306 Y16.7468
G01 X6.3839 Y16.8099
G01 X6.3628 Y16.8369
G01 X6.3403 Y16.8629
G01 X6.2759 Y16.9336
G01 X6.2517 Y16.9579
G01 X6.2391 Y16.9696
G01 X6.1809 Y17.0223
G01 X6.1550 Y17.0447
G01 X6.1279 Y17.0658
G01 X6.0649 Y17.1126
G01 X6.0368 Y17.1323
G01 X6.0078 Y17.1507
G01 X5.9405 Y17.1910
G01 X5.9106 Y17.2079
G01 X5.8800 Y17.2234
G01 X5.8090 Y17.2569
G01 X5.7777 Y17.2708
G01 X5.7457 Y17.2832
G01 X5.6717 Y17.3096
G01 X5.6392 Y17.3204
G01 X5.6061 Y17.3295
G01 X5.5299 Y17.3486
G01 X5.4965 Y17.3561
G01 X5.4627 Y17.3620
G01 X5.3850 Y17.3735
G01 X5.3510 Y17.3777
G01 X5.3167 Y17.3802
G01 X5.2383 Y17.3841
G01 X5.2040 Y17.3849
G01 X5.1697 Y17.3841
G01 X5.0913 Y17.3802
G01 X5.0571 Y17.3777
G01 X5.0231 Y17.3735
G01 X4.9454 Y17.3620
G01 X4.9116 Y17.3561
G01 X4.8781 Y17.3486
G01 X4.8020 Y17.3295
G01 X4.7689 Y17.3204
G01 X4.7363 Y17.3096
G01 X4.6624 Y17.2832
G01 X4.6304 Y17.2708
G01 X4.5990 Y17.2569
G01 X4.5281 Y17.2234
G01 X4.4974 Y17.2079
G01 X4.4676 Y17.1910
G01 X4.4002 Y17.1507
G01 X4.3712 Y17.1323
G01 X4.3432 Y17.1126
G01 X4.2801 Y17.0658
G01 X4.2531 Y17.0447
G01 X4.2271 Y17.0223
G01 X4.1564 Y16.9579
G01 X4.1321 Y16.9336
G01 X4.1204 Y16.9211
G01 X4.0677 Y16.8629
G01 X4.0453 Y16.8369
G01 X4.0242 Y16.8099
G01 X3.9774 Y16.7468
G01 X3.9577 Y16.7188
G01 X3.9393 Y16.6898
G01 X3.8990 Y16.6224
G01 X3.8821 Y16.5926
G01 X3.8666 Y16.5619
G01 X3.8331 Y16.4910
G01 X3.8192 Y16.4596
G01 X3.8068 Y16.4276
G01 X3.7804 Y16.3537
G01 X3.7696 Y16.3211
G01 X3.7605 Y16.2880
G01 X3.7414 Y16.2119
G01 X3.7339 Y16.1784
G01 X3.7280 Y16.1446
G01 X3.7165 Y16.0669
G01 X3.7123 Y16.0329
G01 X3.7098 Y15.9987
G01 X3.7053 Y15.9031
G01 X3.7053 Y15.8688
G01 X3.7059 Y15.8517
G01 X3.7098 Y15.7733
G01 X3.7123 Y15.7390
G01 X3.7165 Y15.7050
G01 X3.7280 Y15.6273
G01 X3.7339 Y15.5935
G01 X3.7414 Y15.5601
G01 X3.7605 Y15.4839
G01 X3.7696 Y15.4508
G01 X3.7804 Y15.4183
G01 X3.8128 Y15.3283
G01 X3.8259 Y15.2966
G01 X3.8331 Y15.2810
G01 X3.8666 Y15.2100
G01 X3.8821 Y15.1794
G01 X3.8990 Y15.1495
G01 X3.9483 Y15.0676
G01 X3.9674 Y15.0390
G01 X3.9774 Y15.0251
G01 X4.0346 Y14.9484
G01 X4.0564 Y14.9219
G01 X4.1049 Y14.8681
G00 Z1.0000
G00 X11.6019 Y20.1717
G01 F60.00
G01 Z-0.0900
G01 F500.00
G01 X11.5703 Y20.1528
G01 X11.5610 Y20.1467
G01 X11.4762 Y20.0838
G01 X11.4676 Y20.0766
G01 X11.3949 Y20.0107
G01 X11.3869 Y20.0029
G01 X11.3136 Y19.9218
G01 X11.2505 Y19.8371
G01 X11.2422 Y19.8247
G01 X11.1899 Y19.7373
G01 X11.1847 Y19.7273
G01 X11.1398 Y19.6318
G01 X11.1040 Y19.5324
G01 X11.0997 Y19.5182
G01 X11.0742 Y19.4157
G01 X11.0585 Y19.3113
G01 X11.0571 Y19.2964
G01 X11.0523 Y19.1984
G01 X11.0521 Y19.1872
G01 X11.0571 Y19.0855
G01 X11.0585 Y19.0707
G01 X11.0742 Y18.9662
G01 X11.0997 Y18.8638
G01 X11.1040 Y18.8495
G01 X11.1398 Y18.7501
G01 X11.1847 Y18.6546
G01 X11.1918 Y18.6415
G01 X11.2462 Y18.5510
G01 X11.3090 Y18.4661
G01 X11.3184 Y18.4545
G01 X11.3895 Y18.3764
G01 X11.4676 Y18.3054
G01 X11.4791 Y18.2959
G01 X11.5640 Y18.2332
G01 X11.6519 Y18.1803
G01 X11.6519 Y14.1003
G01 X11.6545 Y14.0499
G01 X11.6625 Y13.9963
G01 X11.6757 Y13.9438
G01 X11.6939 Y13.8927
G01 X11.7171 Y13.8437
G01 X11.7449 Y13.7973
G01 X11.7772 Y13.7538
G01 X11.8085 Y13.7190
G01 X22.1517 Y3.3755
G01 X22.1918 Y3.3392
G01 X22.2323 Y3.3090
G01 X22.2416 Y3.3029
G01 X22.2753 Y3.2827
G01 X22.2885 Y3.2757
G01 X22.3308 Y3.2558
G01 X22.3818 Y3.2376
G01 X22.4271 Y3.2261
G01 X22.4417 Y3.2232
G01 X22.4880 Y3.2165
G01 X22.5384 Y3.2139
G01 X25.4271 Y3.2138
G01 X25.4271 Y2.9122
G01 X25.4278 Y2.9011
G01 X25.4287 Y2.8937
G01 X25.4300 Y2.8863
G01 X25.4326 Y2.8754
G01 X25.4360 Y2.8648
G01 X25.4401 Y2.8544
G01 X25.4450 Y2.8443
G01 X25.4487 Y2.8379
G01 X25.4548 Y2.8285
G01 X25.4616 Y2.8196
G01 X25.4664 Y2.8139
G01 X25.4743 Y2.8059
G01 X25.4826 Y2.7985
G01 X25.4915 Y2.7917
G01 X25.5009 Y2.7856
G01 X25.5074 Y2.7820
G01 X25.5175 Y2.7771
G01 X25.5278 Y2.7729
G01 X25.5385 Y2.7695
G01 X25.5494 Y2.7669
G01 X25.5641 Y2.7648
G01 X25.5790 Y2.7640
G01 X27.2828 Y2.7641
G01 X27.2939 Y2.7648
G01 X27.3087 Y2.7669
G01 X27.3231 Y2.7706
G01 X27.3337 Y2.7742
G01 X27.3473 Y2.7802
G01 X27.3603 Y2.7876
G01 X27.3695 Y2.7939
G01 X27.3811 Y2.8034
G01 X27.3916 Y2.8139
G01 X27.4011 Y2.8255
G01 X27.4094 Y2.8379
G01 X27.4164 Y2.8510
G01 X27.4221 Y2.8648
G01 X27.4264 Y2.8790
G01 X27.4281 Y2.8863
G01 X27.4298 Y2.8974
G01 X27.4309 Y2.9122
G01 X27.4310 Y4.6160
G01 X27.4302 Y4.6309
G01 X27.4281 Y4.6456
G01 X27.4255 Y4.6565
G01 X27.4221 Y4.6672
G01 X27.4194 Y4.6741
G01 X27.4148 Y4.6843
G01 X27.4094 Y4.6941
G01 X27.4054 Y4.7004
G01 X27.3988 Y4.7095
G01 X27.3916 Y4.7180
G01 X27.3838 Y4.7260
G01 X27.3754 Y4.7334
G01 X27.3695 Y4.7380
G01 X27.3603 Y4.7443
G01 X27.3507 Y4.7500
G01 X27.3406 Y4.7549
G01 X27.3302 Y4.7590
G01 X27.3196 Y4.7624
G01 X27.3087 Y4.7650
G01 X27.3013 Y4.7663
G01 X27.2939 Y4.7672
G01 X27.2828 Y4.7679
G01 X26.9812 Y4.7679
G01 X26.9812 Y10.3688
G01 X26.9785 Y10.4229
G01 X26.9706 Y10.4765
G01 X26.9594 Y10.5219
G01 X26.9551 Y10.5362
G01 X26.9392 Y10.5801
G01 X26.9160 Y10.6291
G01 X26.8921 Y10.6693
G01 X26.8838 Y10.6817
G01 X26.8558 Y10.7191
G01 X26.8246 Y10.7539
G01 X25.6838 Y11.8949
G01 X25.6838 Y12.6656
G01 X25.6892 Y12.6746
G01 X25.6943 Y12.6845
G01 X25.7127 Y12.7234
G01 X25.7168 Y12.7338
G01 X25.7324 Y12.7778
G01 X25.7439 Y12.8231
G01 X25.7463 Y12.8341
G01 X25.7535 Y12.8840
G01 X25.7561 Y12.9344
G01 X25.7562 Y13.1140
G01 X26.2040 Y13.1140
G01 X26.2189 Y13.1148
G01 X26.2337 Y13.1169
G01 X26.2446 Y13.1195
G01 X26.2552 Y13.1229
G01 X26.2656 Y13.1271
G01 X26.2757 Y13.1320
G01 X26.2853 Y13.1376
G01 X26.2975 Y13.1462
G01 X26.3061 Y13.1534
G01 X26.3141 Y13.1612
G01 X26.3215 Y13.1696
G01 X26.3283 Y13.1785
G01 X26.3344 Y13.1879
G01 X26.3398 Y13.1977
G01 X26.3444 Y13.2078
G01 X26.3483 Y13.2183
G01 X26.3514 Y13.2290
G01 X26.3537 Y13.2400
G01 X26.3556 Y13.2548
G01 X26.3560 Y13.2660
G01 X26.3559 Y15.2697
G01 X26.3556 Y15.2771
G01 X26.3543 Y15.2883
G01 X26.3514 Y15.3029
G01 X26.3471 Y15.3172
G01 X26.3444 Y15.3241
G01 X26.3398 Y15.3343
G01 X26.3362 Y15.3409
G01 X26.3304 Y15.3504
G01 X26.3215 Y15.3624
G01 X26.3115 Y15.3734
G01 X26.3033 Y15.3810
G01 X26.2975 Y15.3858
G01 X26.2885 Y15.3923
G01 X26.2757 Y15.4000
G01 X26.2656 Y15.4049
G01 X26.2552 Y15.4090
G01 X26.2446 Y15.4124
G01 X26.2300 Y15.4157
G01 X26.2189 Y15.4172
G01 X26.2040 Y15.4179
G01 X24.2003 Y15.4179
G01 X24.1891 Y15.4172
G01 X24.1781 Y15.4157
G01 X24.1635 Y15.4124
G01 X24.1528 Y15.4090
G01 X24.1425 Y15.4049
G01 X24.1324 Y15.4000
G01 X24.1227 Y15.3943
G01 X24.1135 Y15.3880
G01 X24.1048 Y15.3810
G01 X24.0993 Y15.3760
G01 X24.0914 Y15.3680
G01 X24.0866 Y15.3624
G01 X24.0777 Y15.3504
G01 X24.0718 Y15.3409
G01 X24.0683 Y15.3343
G01 X24.0636 Y15.3241
G01 X24.0610 Y15.3172
G01 X24.0566 Y15.3029
G01 X24.0537 Y15.2883
G01 X24.0525 Y15.2771
G01 X24.0521 Y15.2697
G01 X24.0521 Y13.4179
G01 X23.5319 Y13.4179
G01 X23.5170 Y13.4172
G01 X23.5022 Y13.4150
G01 X23.4878 Y13.4114
G01 X23.4772 Y13.4077
G01 X23.4669 Y13.4033
G01 X23.4538 Y13.3963
G01 X23.4444 Y13.3902
G01 X23.4355 Y13.3834
G01 X23.4271 Y13.3760
G01 X23.4168 Y13.3652
G01 X23.4098 Y13.3565
G01 X23.4035 Y13.3473
G01 X23.3962 Y13.3343
G01 X23.3915 Y13.3241
G01 X23.3876 Y13.3136
G01 X23.3836 Y13.2993
G01 X23.3816 Y13.2883
G01 X23.3803 Y13.2771
G01 X23.3799 Y13.2660
G01 X23.3800 Y11.2622
G01 X23.3807 Y11.2511
G01 X23.3822 Y11.2400
G01 X23.3845 Y11.2290
G01 X23.3888 Y11.2148
G01 X23.3930 Y11.2044
G01 X23.3997 Y11.1911
G01 X23.4055 Y11.1815
G01 X23.4121 Y11.1725
G01 X23.4168 Y11.1667
G01 X23.4244 Y11.1585
G01 X23.4355 Y11.1485
G01 X23.4475 Y11.1396
G01 X23.4570 Y11.1338
G01 X23.4636 Y11.1302
G01 X23.4772 Y11.1242
G01 X23.4914 Y11.1195
G01 X23.4986 Y11.1177
G01 X23.5096 Y11.1157
G01 X23.5244 Y11.1142
G01 X24.9030 Y11.1140
G01 X25.8769 Y10.1401
G01 X25.8769 Y4.7679
G01 X25.5790 Y4.7679
G01 X25.5641 Y4.7672
G01 X25.5494 Y4.7650
G01 X25.5385 Y4.7624
G01 X25.5278 Y4.7590
G01 X25.5141 Y4.7533
G01 X25.5041 Y4.7482
G01 X25.4915 Y4.7402
G01 X25.4826 Y4.7334
G01 X25.4716 Y4.7234
G01 X25.4616 Y4.7124
G01 X25.4548 Y4.7035
G01 X25.4487 Y4.6941
G01 X25.4417 Y4.6809
G01 X25.4373 Y4.6707
G01 X25.4326 Y4.6565
G01 X25.4293 Y4.6419
G01 X25.4278 Y4.6309
G01 X25.4271 Y4.6160
G01 X25.4271 Y4.3181
G01 X22.7708 Y4.3181
G01 X12.7562 Y14.3327
G01 X12.7562 Y18.1803
G01 X12.8440 Y18.2332
G01 X12.9289 Y18.2959
G01 X12.9405 Y18.3054
G01 X13.0186 Y18.3764
G01 X13.0896 Y18.4545
G01 X13.0991 Y18.4661
G01 X13.1618 Y18.5510
G01 X13.2163 Y18.6415
G01 X13.2233 Y18.6546
G01 X13.2683 Y18.7501
G01 X13.3040 Y18.8495
G01 X13.3084 Y18.8638
G01 X13.3338 Y18.9662
G01 X13.3495 Y19.0707
G01 X13.3510 Y19.0855
G01 X13.3559 Y19.1872
G01 X13.3558 Y19.1984
G01 X13.3510 Y19.2964
G01 X13.3495 Y19.3113
G01 X13.3338 Y19.4157
G01 X13.3064 Y19.5254
G01 X13.2710 Y19.6248
G01 X13.2653 Y19.6386
G01 X13.2200 Y19.7340
G01 X13.1639 Y19.8278
G01 X13.1575 Y19.8371
G01 X13.0991 Y19.9159
G01 X13.0896 Y19.9274
G01 X13.0186 Y20.0055
G01 X12.9377 Y20.0790
G01 X12.9289 Y20.0860
G01 X12.8501 Y20.1445
G01 X12.8409 Y20.1508
G01 X12.7503 Y20.2051
G01 X12.7404 Y20.2103
G01 X12.7062 Y20.2264
G01 X12.7062 Y33.1282
G01 X12.9471 Y33.3691
G01 X12.9808 Y33.4066
G01 X13.0088 Y33.4440
G01 X13.0152 Y33.4532
G01 X13.0410 Y33.4966
G01 X13.0611 Y33.5388
G01 X13.0668 Y33.5525
G01 X13.0824 Y33.5966
G01 X13.0939 Y33.6419
G01 X13.0968 Y33.6565
G01 X13.1035 Y33.7028
G01 X13.1061 Y33.7532
G01 X13.1062 Y44.4460
G01 X13.1035 Y44.5001
G01 X13.0968 Y44.5463
G01 X13.0948 Y44.5573
G01 X13.0844 Y44.5991
G01 X13.0801 Y44.6133
G01 X13.0642 Y44.6573
G01 X13.0489 Y44.6900
G01 X13.0553 Y44.7080
G01 X13.0584 Y44.7188
G01 X13.0822 Y44.8140
G01 X13.0851 Y44.8286
G01 X13.1004 Y44.9331
G01 X13.1060 Y45.0460
G01 X13.1010 Y45.1514
G01 X13.0995 Y45.1663
G01 X13.0838 Y45.2707
G01 X13.0591 Y45.3702
G01 X13.3471 Y45.6582
G01 X13.3808 Y45.6957
G01 X13.4131 Y45.7392
G01 X13.4410 Y45.7857
G01 X13.4611 Y45.8279
G01 X13.4668 Y45.8416
G01 X13.4824 Y45.8857
G01 X13.4939 Y45.9310
G01 X13.4968 Y45.9456
G01 X13.5035 Y45.9918
G01 X13.5061 Y46.0422
G01 X13.5061 Y71.6897
G01 X13.5035 Y71.7401
G01 X13.4968 Y71.7863
G01 X13.4939 Y71.8010
G01 X13.4824 Y71.8462
G01 X13.4642 Y71.8973
G01 X13.4443 Y71.9396
G01 X13.4373 Y71.9527
G01 X13.4171 Y71.9864
G01 X13.4110 Y71.9958
G01 X13.3808 Y72.0362
G01 X13.3471 Y72.0737
G01 X12.9791 Y72.4417
G01 X13.0038 Y72.5412
G01 X13.0195 Y72.6457
G01 X13.0210 Y72.6605
G01 X13.0258 Y72.7585
G01 X13.0258 Y72.7734
G01 X13.0204 Y72.8789
G01 X13.0051 Y72.9834
G01 X13.0022 Y72.9980
G01 X12.9764 Y73.1004
G01 X12.9383 Y73.2068
G01 X12.8900 Y73.3090
G01 X12.8358 Y73.3997
G01 X12.8275 Y73.4121
G01 X12.7645 Y73.4968
G01 X12.6937 Y73.5751
G01 X12.6832 Y73.5857
G01 X12.6105 Y73.6516
G01 X12.5989 Y73.6610
G01 X12.5140 Y73.7238
G01 X12.4171 Y73.7819
G01 X12.3149 Y73.8302
G01 X12.2155 Y73.8660
G01 X12.2012 Y73.8703
G01 X12.0988 Y73.8958
G01 X11.9943 Y73.9115
G01 X11.9795 Y73.9129
G01 X11.8740 Y73.9179
G01 X11.7611 Y73.9124
G01 X11.6493 Y73.8958
G01 X11.5396 Y73.8683
G01 X11.4332 Y73.8302
G01 X11.3310 Y73.7819
G01 X11.2340 Y73.7238
G01 X11.1432 Y73.6564
G01 X11.0595 Y73.5805
G01 X10.9836 Y73.4968
G01 X10.9162 Y73.4060
G01 X10.8581 Y73.3090
G01 X10.8098 Y73.2068
G01 X10.7717 Y73.1004
G01 X10.7442 Y72.9907
G01 X10.7276 Y72.8789
G01 X10.7221 Y72.7660
G01 X10.7276 Y72.6531
G01 X10.7429 Y72.5486
G01 X10.7459 Y72.5340
G01 X10.7717 Y72.4316
G01 X10.8071 Y72.3321
G01 X10.8128 Y72.3183
G01 X10.8547 Y72.2296
G01 X10.8618 Y72.2165
G01 X10.9162 Y72.1260
G01 X10.9836 Y72.0352
G01 X11.0595 Y71.9514
G01 X11.1376 Y71.8804
G01 X11.1462 Y71.8732
G01 X11.2279 Y71.8125
G01 X11.2403 Y71.8042
G01 X11.3310 Y71.7500
G01 X11.4264 Y71.7047
G01 X11.4402 Y71.6990
G01 X11.5396 Y71.6636
G01 X11.6493 Y71.6362
G01 X11.7611 Y71.6196
G01 X11.8666 Y71.6142
G01 X11.8815 Y71.6142
G01 X11.9795 Y71.6190
G01 X11.9943 Y71.6205
G01 X12.0988 Y71.6362
G01 X12.1983 Y71.6609
G01 X12.4019 Y71.4573
G01 X12.4019 Y46.2747
G01 X12.2783 Y46.1511
G01 X12.1788 Y46.1758
G01 X12.0743 Y46.1915
G01 X12.0595 Y46.1929
G01 X11.9540 Y46.1979
G01 X11.8486 Y46.1929
G01 X11.8337 Y46.1915
G01 X11.7293 Y46.1758
G01 X11.6232 Y46.1494
G01 X11.6126 Y46.1460
G01 X11.5132 Y46.1102
G01 X11.4110 Y46.0619
G01 X11.3140 Y46.0038
G01 X11.2262 Y45.9388
G01 X11.2176 Y45.9316
G01 X11.1395 Y45.8605
G01 X11.0636 Y45.7768
G01 X10.9962 Y45.6860
G01 X10.9418 Y45.5955
G01 X10.9347 Y45.5823
G01 X10.8928 Y45.4936
G01 X10.8871 Y45.4798
G01 X10.8517 Y45.3804
G01 X10.8259 Y45.2780
G01 X10.8229 Y45.2634
G01 X10.8076 Y45.1589
G01 X10.8021 Y45.0497
G01 X10.8023 Y45.0385
G01 X10.8076 Y44.9331
G01 X10.8242 Y44.8212
G01 X10.8517 Y44.7116
G01 X10.8898 Y44.6051
G01 X10.9381 Y44.5029
G01 X10.9962 Y44.4060
G01 X11.0636 Y44.3152
G01 X11.1343 Y44.2368
G01 X11.1421 Y44.2288
G01 X11.2232 Y44.1555
G01 X11.3140 Y44.0882
G01 X11.4110 Y44.0300
G01 X11.5064 Y43.9847
G01 X11.5167 Y43.9803
G01 X11.6196 Y43.9436
G01 X11.7220 Y43.9178
G01 X11.7330 Y43.9155
G01 X11.8337 Y43.9005
G01 X11.8448 Y43.8992
G01 X11.9503 Y43.8941
G01 X11.9615 Y43.8942
G01 X12.0019 Y43.8962
G01 X12.0019 Y33.9856
G01 X11.7610 Y33.7446
G01 X11.7272 Y33.7072
G01 X11.6992 Y33.6697
G01 X11.6929 Y33.6605
G01 X11.6671 Y33.6172
G01 X11.6469 Y33.5750
G01 X11.6412 Y33.5612
G01 X11.6257 Y33.5172
G01 X11.6141 Y33.4719
G01 X11.6112 Y33.4573
G01 X11.6045 Y33.4110
G01 X11.6019 Y33.3606
G01 X11.6019 Y20.1717
G00 Z1.0000
G00 X14.4785 Y25.7138
G01 F60.00
G01 Z-0.0900
G01 F500.00
G01 X15.4019 Y25.7138
G01 X15.4019 Y20.2016
G01 X15.3140 Y20.1488
G01 X15.2291 Y20.0860
G01 X15.2176 Y20.0766
G01 X15.1395 Y20.0055
G01 X15.0636 Y19.9218
G01 X15.0005 Y19.8371
G01 X14.9922 Y19.8247
G01 X14.9381 Y19.7340
G01 X14.8928 Y19.6386
G01 X14.8871 Y19.6248
G01 X14.8517 Y19.5254
G01 X14.8242 Y19.4157
G01 X14.8085 Y19.3113
G01 X14.8071 Y19.2964
G01 X14.8021 Y19.1910
G01 X14.8071 Y19.0855
G01 X14.8085 Y19.0707
G01 X14.8242 Y18.9662
G01 X14.8497 Y18.8638
G01 X14.8540 Y18.8495
G01 X14.8871 Y18.7571
G01 X14.8928 Y18.7433
G01 X14.9381 Y18.6479
G01 X14.9962 Y18.5510
G01 X15.0636 Y18.4602
G01 X15.1395 Y18.3764
G01 X15.2232 Y18.3005
G01 X15.3079 Y18.2375
G01 X15.3203 Y18.2292
G01 X15.4045 Y18.1787
G01 X15.4177 Y18.1717
G01 X15.5132 Y18.1267
G01 X15.6196 Y18.0886
G01 X15.7293 Y18.0612
G01 X15.8374 Y18.0450
G01 X15.8486 Y18.0440
G01 X15.9540 Y18.0390
G01 X16.0669 Y18.0446
G01 X16.1788 Y18.0612
G01 X16.2884 Y18.0886
G01 X16.3949 Y18.1267
G01 X16.4971 Y18.1750
G01 X16.5940 Y18.2332
G01 X16.6848 Y18.3005
G01 X16.7686 Y18.3764
G01 X16.8445 Y18.4602
G01 X16.9118 Y18.5510
G01 X16.9700 Y18.6479
G01 X17.0183 Y18.7501
G01 X17.0564 Y18.8566
G01 X17.0838 Y18.9662
G01 X17.1004 Y19.0781
G01 X17.1060 Y19.1910
G01 X17.1010 Y19.2964
G01 X17.0995 Y19.3113
G01 X17.0838 Y19.4157
G01 X17.0564 Y19.5254
G01 X17.0210 Y19.6248
G01 X17.0153 Y19.6386
G01 X16.9700 Y19.7340
G01 X16.9118 Y19.8310
G01 X16.8491 Y19.9159
G01 X16.8396 Y19.9274
G01 X16.7686 Y20.0055
G01 X16.6905 Y20.0766
G01 X16.6789 Y20.0860
G01 X16.5940 Y20.1488
G01 X16.5062 Y20.2016
G01 X16.5062 Y25.0373
G01 X22.7327 Y31.2638
G01 X30.1174 Y31.2638
G01 X36.8736 Y24.5076
G01 X36.8750 Y24.4881
G01 X36.8825 Y24.4382
G01 X36.8937 Y24.3929
G01 X36.8980 Y24.3786
G01 X36.9139 Y24.3347
G01 X36.9337 Y24.2923
G01 X36.9408 Y24.2792
G01 X36.9609 Y24.2455
G01 X36.9670 Y24.2361
G01 X36.9972 Y24.1957
G01 X37.0285 Y24.1609
G01 X37.0390 Y24.1504
G01 X37.0738 Y24.1192
G01 X37.1112 Y24.0912
G01 X37.1236 Y24.0829
G01 X37.1637 Y24.0590
G01 X37.2093 Y24.0373
G01 X37.2197 Y24.0332
G01 X37.2638 Y24.0176
G01 X37.3163 Y24.0044
G01 X37.3699 Y23.9965
G01 X37.4240 Y23.9938
G01 X44.5521 Y23.9938
G01 X44.5523 Y23.7885
G01 X44.5537 Y23.7737
G01 X44.5558 Y23.7627
G01 X44.5598 Y23.7483
G01 X44.5651 Y23.7344
G01 X44.5700 Y23.7243
G01 X44.5757 Y23.7147
G01 X44.5820 Y23.7055
G01 X44.5890 Y23.6967
G01 X44.5966 Y23.6885
G01 X44.6048 Y23.6809
G01 X44.6135 Y23.6739
G01 X44.6227 Y23.6676
G01 X44.6324 Y23.6620
G01 X44.6425 Y23.6571
G01 X44.6528 Y23.6529
G01 X44.6635 Y23.6495
G01 X44.6744 Y23.6469
G01 X44.6854 Y23.6452
G01 X44.6929 Y23.6444
G01 X44.7040 Y23.6440
G01 X46.2040 Y23.6440
G01 X46.2152 Y23.6444
G01 X46.2226 Y23.6452
G01 X46.2373 Y23.6477
G01 X46.2446 Y23.6495
G01 X46.2552 Y23.6529
G01 X46.2656 Y23.6571
G01 X46.2723 Y23.6602
G01 X46.2821 Y23.6656
G01 X46.2915 Y23.6717
G01 X46.2975 Y23.6762
G01 X46.3061 Y23.6834
G01 X46.3141 Y23.6912
G01 X46.3215 Y23.6996
G01 X46.3283 Y23.7085
G01 X46.3324 Y23.7147
G01 X46.3380 Y23.7243
G01 X46.3414 Y23.7310
G01 X46.3458 Y23.7413
G01 X46.3483 Y23.7483
G01 X46.3514 Y23.7590
G01 X46.3537 Y23.7700
G01 X46.3552 Y23.7811
G01 X46.3559 Y23.7922
G01 X46.3560 Y23.9938
G01 X48.7253 Y23.9938
G01 X50.4521 Y22.2671
G01 X50.4523 Y21.1885
G01 X50.4532 Y21.1774
G01 X50.4543 Y21.1700
G01 X50.4576 Y21.1554
G01 X50.4623 Y21.1413
G01 X50.4667 Y21.1310
G01 X50.4700 Y21.1243
G01 X50.4757 Y21.1147
G01 X50.4798 Y21.1085
G01 X50.4890 Y21.0967
G01 X50.4966 Y21.0885
G01 X50.5020 Y21.0834
G01 X50.5135 Y21.0739
G01 X50.5227 Y21.0676
G01 X50.5324 Y21.0620
G01 X50.5459 Y21.0556
G01 X50.5564 Y21.0517
G01 X50.5671 Y21.0486
G01 X50.5781 Y21.0463
G01 X50.5891 Y21.0448
G01 X50.6003 Y21.0441
G01 X52.3115 Y21.0442
G01 X52.3263 Y21.0457
G01 X52.3410 Y21.0486
G01 X52.3517 Y21.0517
G01 X52.3656 Y21.0571
G01 X52.3789 Y21.0638
G01 X52.3885 Y21.0696
G01 X52.3975 Y21.0762
G01 X52.4088 Y21.0859
G01 X52.4191 Y21.0967
G01 X52.4261 Y21.1055
G01 X52.4324 Y21.1147
G01 X52.4398 Y21.1277
G01 X52.4444 Y21.1378
G01 X52.4494 Y21.1519
G01 X52.4531 Y21.1663
G01 X52.4548 Y21.1774
G01 X52.4556 Y21.1848
G01 X52.4560 Y21.1960
G01 X52.4559 Y22.8997
G01 X52.4552 Y22.9109
G01 X52.4531 Y22.9256
G01 X52.4494 Y22.9401
G01 X52.4458 Y22.9507
G01 X52.4414 Y22.9609
G01 X52.4344 Y22.9741
G01 X52.4261 Y22.9865
G01 X52.4191 Y22.9952
G01 X52.4088 Y23.0060
G01 X52.3975 Y23.0158
G01 X52.3885 Y23.0223
G01 X52.3821 Y23.0263
G01 X52.3690 Y23.0333
G01 X52.3552 Y23.0390
G01 X52.3410 Y23.0434
G01 X52.3263 Y23.0463
G01 X52.3115 Y23.0477
G01 X51.2329 Y23.0479
G01 X49.3418 Y24.9390
G01 X49.3100 Y24.9679
G01 X49.2984 Y24.9774
G01 X49.2608 Y25.0051
G01 X49.2208 Y25.0292
G01 X49.2077 Y25.0363
G01 X49.1653 Y25.0561
G01 X49.1214 Y25.0720
G01 X49.1107 Y25.0754
G01 X49.0618 Y25.0875
G01 X49.0156 Y25.0945
G01 X49.0007 Y25.0960
G01 X48.9540 Y25.0981
G01 X46.3560 Y25.0981
G01 X46.3558 Y25.3034
G01 X46.3543 Y25.3183
G01 X46.3523 Y25.3293
G01 X46.3483 Y25.3436
G01 X46.3429 Y25.3575
G01 X46.3380 Y25.3676
G01 X46.3324 Y25.3773
G01 X46.3261 Y25.3865
G01 X46.3191 Y25.3952
G01 X46.3115 Y25.4034
G01 X46.3033 Y25.4110
G01 X46.2945 Y25.4180
G01 X46.2853 Y25.4243
G01 X46.2757 Y25.4300
G01 X46.2656 Y25.4349
G01 X46.2552 Y25.4390
G01 X46.2446 Y25.4424
G01 X46.2337 Y25.4450
G01 X46.2226 Y25.4468
G01 X46.2152 Y25.4475
G01 X46.2040 Y25.4479
G01 X44.7040 Y25.4479
G01 X44.6929 Y25.4475
G01 X44.6854 Y25.4468
G01 X44.6707 Y25.4442
G01 X44.6635 Y25.4424
G01 X44.6528 Y25.4390
G01 X44.6425 Y25.4349
G01 X44.6324 Y25.4300
G01 X44.6259 Y25.4263
G01 X44.6165 Y25.4202
G01 X44.6076 Y25.4134
G01 X44.6020 Y25.4086
G01 X44.5940 Y25.4007
G01 X44.5890 Y25.3952
G01 X44.5820 Y25.3865
G01 X44.5757 Y25.3773
G01 X44.5718 Y25.3709
G01 X44.5667 Y25.3609
G01 X44.5636 Y25.3541
G01 X44.5598 Y25.3436
G01 X44.5566 Y25.3329
G01 X44.5543 Y25.3219
G01 X44.5528 Y25.3109
G01 X44.5521 Y25.2997
G01 X44.5521 Y25.0981
G01 X37.8422 Y25.0981
G01 X37.8145 Y25.1284
G01 X30.7365 Y32.2064
G01 X30.6963 Y32.2428
G01 X30.6589 Y32.2708
G01 X30.6465 Y32.2791
G01 X30.6096 Y32.3011
G01 X30.5997 Y32.3063
G01 X30.5574 Y32.3261
G01 X30.5063 Y32.3443
G01 X30.4538 Y32.3575
G01 X30.4039 Y32.3650
G01 X30.3927 Y32.3660
G01 X30.3461 Y32.3681
G01 X22.5040 Y32.3681
G01 X22.4499 Y32.3655
G01 X22.3963 Y32.3575
G01 X22.3438 Y32.3443
G01 X22.2927 Y32.3261
G01 X22.2437 Y32.3029
G01 X22.1973 Y32.2751
G01 X22.1538 Y32.2428
G01 X22.1136 Y32.2064
G01 X16.8611 Y26.9539
G01 X16.8079 Y27.0018
G01 X16.7390 Y27.0532
G01 X16.7266 Y27.0615
G01 X16.6593 Y27.1018
G01 X16.6461 Y27.1089
G01 X16.5683 Y27.1455
G01 X16.4874 Y27.1746
G01 X16.4732 Y27.1789
G01 X16.3897 Y27.1996
G01 X16.2973 Y27.2133
G01 X16.2040 Y27.2179
G01 X16.1182 Y27.2139
G01 X16.1033 Y27.2124
G01 X16.0183 Y27.1996
G01 X15.9277 Y27.1769
G01 X15.8397 Y27.1455
G01 X15.7619 Y27.1089
G01 X15.7520 Y27.1037
G01 X15.6752 Y27.0575
G01 X15.6060 Y27.0064
G01 X15.5945 Y26.9970
G01 X15.5363 Y26.9442
G01 X15.5258 Y26.9337
G01 X15.4682 Y26.8699
G01 X15.4295 Y26.8181
G01 X14.4785 Y26.8181
G01 X14.4399 Y26.8699
G01 X14.3823 Y26.9337
G01 X14.3718 Y26.9442
G01 X14.3108 Y26.9994
G01 X14.3021 Y27.0064
G01 X14.2329 Y27.0575
G01 X14.1593 Y27.1018
G01 X14.1495 Y27.1072
G01 X14.0751 Y27.1424
G01 X14.0614 Y27.1481
G01 X13.9804 Y27.1769
G01 X13.8970 Y27.1980
G01 X13.8824 Y27.2009
G01 X13.7973 Y27.2133
G01 X13.7115 Y27.2177
G01 X13.6966 Y27.2177
G01 X13.6182 Y27.2139
G01 X13.6033 Y27.2124
G01 X13.5183 Y27.1996
G01 X13.4349 Y27.1789
G01 X13.4206 Y27.1746
G01 X13.3397 Y27.1455
G01 X13.2553 Y27.1055
G01 X13.1752 Y27.0575
G01 X13.1060 Y27.0064
G01 X13.0945 Y26.9970
G01 X13.0309 Y26.9391
G01 X12.9730 Y26.8755
G01 X12.9636 Y26.8640
G01 X12.9146 Y26.7979
G01 X12.9085 Y26.7885
G01 X12.8645 Y26.7147
G01 X12.8245 Y26.6303
G01 X12.7931 Y26.5423
G01 X12.7704 Y26.4517
G01 X12.7567 Y26.3593
G01 X12.7521 Y26.2660
G01 X12.7567 Y26.1727
G01 X12.7704 Y26.0803
G01 X12.7931 Y25.9896
G01 X12.8245 Y25.9017
G01 X12.8645 Y25.8172
G01 X12.9125 Y25.7371
G01 X12.9682 Y25.6621
G01 X13.0309 Y25.5928
G01 X13.1001 Y25.5301
G01 X13.1721 Y25.4766
G01 X13.1815 Y25.4705
G01 X13.2553 Y25.4264
G01 X13.3397 Y25.3865
G01 X13.4277 Y25.3550
G01 X13.5183 Y25.3323
G01 X13.6107 Y25.3186
G01 X13.7040 Y25.3140
G01 X13.7973 Y25.3186
G01 X13.8861 Y25.3316
G01 X13.8970 Y25.3339
G01 X13.9804 Y25.3550
G01 X14.0683 Y25.3865
G01 X14.1528 Y25.4264
G01 X14.2298 Y25.4724
G01 X14.2390 Y25.4787
G01 X14.3079 Y25.5301
G01 X14.3745 Y25.5902
G01 X14.3823 Y25.5982
G01 X14.4375 Y25.6592
G01 X14.4445 Y25.6679
G01 X14.4785 Y25.7138
G00 Z1.0000
G00 X20.7770 Y27.1160
G01 F60.00
G01 Z-0.0900
G01 F500.00
G01 X20.7586 Y27.1072
G01 X20.7520 Y27.1037
G01 X20.6783 Y27.0595
G01 X20.6691 Y27.0532
G01 X20.6030 Y27.0042
G01 X20.5945 Y26.9970
G01 X20.5309 Y26.9391
G01 X20.4706 Y26.8727
G01 X20.4636 Y26.8640
G01 X20.4125 Y26.7948
G01 X20.3645 Y26.7147
G01 X20.3245 Y26.6303
G01 X20.2942 Y26.5459
G01 X20.2911 Y26.5351
G01 X20.2704 Y26.4517
G01 X20.2567 Y26.3593
G01 X20.2521 Y26.2660
G01 X20.2567 Y26.1727
G01 X20.2704 Y26.0803
G01 X20.2931 Y25.9896
G01 X20.3245 Y25.9017
G01 X20.3628 Y25.8205
G01 X20.3682 Y25.8107
G01 X20.4125 Y25.7371
G01 X20.4682 Y25.6621
G01 X20.5309 Y25.5928
G01 X20.6001 Y25.5301
G01 X20.6752 Y25.4745
G01 X20.7553 Y25.4264
G01 X20.8397 Y25.3865
G01 X20.9277 Y25.3550
G01 X21.0183 Y25.3323
G01 X21.1107 Y25.3186
G01 X21.2040 Y25.3140
G01 X21.2973 Y25.3186
G01 X21.3897 Y25.3323
G01 X21.4804 Y25.3550
G01 X21.5683 Y25.3865
G01 X21.6495 Y25.4247
G01 X21.6593 Y25.4301
G01 X21.7329 Y25.4745
G01 X21.8079 Y25.5301
G01 X21.8772 Y25.5928
G01 X21.9399 Y25.6621
G01 X21.9955 Y25.7371
G01 X22.0436 Y25.8172
G01 X22.0835 Y25.9017
G01 X22.1127 Y25.9826
G01 X22.1170 Y25.9968
G01 X22.1377 Y26.0803
G01 X22.1514 Y26.1727
G01 X22.1560 Y26.2660
G01 X22.1519 Y26.3518
G01 X22.1505 Y26.3667
G01 X22.1377 Y26.4517
G01 X22.1170 Y26.5351
G01 X22.1127 Y26.5494
G01 X22.0862 Y26.6233
G01 X22.0805 Y26.6371
G01 X22.0436 Y26.7147
G01 X22.0025 Y26.7836
G01 X24.5468 Y29.3279
G01 X24.6107 Y29.3186
G01 X24.7040 Y29.3140
G01 X24.7973 Y29.3186
G01 X24.8612 Y29.3279
G01 X28.3136 Y25.8755
G01 X28.3481 Y25.8440
G01 X28.3596 Y25.8346
G01 X28.3973 Y25.8069
G01 X28.4437 Y25.7790
G01 X28.4927 Y25.7558
G01 X28.5438 Y25.7376
G01 X28.5963 Y25.7244
G01 X28.6462 Y25.7169
G01 X28.6573 Y25.7159
G01 X28.7040 Y25.7138
G01 X28.9295 Y25.7138
G01 X28.9682 Y25.6621
G01 X29.0309 Y25.5928
G01 X29.1001 Y25.5301
G01 X29.1721 Y25.4766
G01 X29.1815 Y25.4705
G01 X29.2488 Y25.4301
G01 X29.2619 Y25.4231
G01 X29.3397 Y25.3865
G01 X29.4277 Y25.3550
G01 X29.5183 Y25.3323
G01 X29.6033 Y25.3195
G01 X29.6182 Y25.3181
G01 X29.7040 Y25.3140
G01 X29.7899 Y25.3181
G01 X29.8047 Y25.3195
G01 X29.8861 Y25.3316
G01 X29.8970 Y25.3339
G01 X29.9732 Y25.3530
G01 X29.9874 Y25.3573
G01 X30.0683 Y25.3865
G01 X30.1528 Y25.4264
G01 X30.2329 Y25.4745
G01 X30.3021 Y25.5255
G01 X30.3136 Y25.5350
G01 X30.3718 Y25.5877
G01 X30.3823 Y25.5982
G01 X30.4399 Y25.6621
G01 X30.4955 Y25.7371
G01 X30.5436 Y25.8172
G01 X30.5805 Y25.8949
G01 X30.5862 Y25.9086
G01 X30.6127 Y25.9826
G01 X30.6170 Y25.9968
G01 X30.6377 Y26.0803
G01 X30.6514 Y26.1727
G01 X30.6560 Y26.2660
G01 X30.6519 Y26.3518
G01 X30.6505 Y26.3667
G01 X30.6390 Y26.4443
G01 X30.6361 Y26.4590
G01 X30.6150 Y26.5423
G01 X30.5835 Y26.6303
G01 X30.5436 Y26.7147
G01 X30.4995 Y26.7885
G01 X30.4913 Y26.8009
G01 X30.4445 Y26.8640
G01 X30.4350 Y26.8755
G01 X30.3772 Y26.9391
G01 X30.3079 Y27.0018
G01 X30.2329 Y27.0575
G01 X30.1593 Y27.1018
G01 X30.1461 Y27.1089
G01 X30.0751 Y27.1424
G01 X30.0649 Y27.1468
G01 X29.9804 Y27.1769
G01 X29.8970 Y27.1980
G01 X29.8824 Y27.2009
G01 X29.8047 Y27.2124
G01 X29.7899 Y27.2139
G01 X29.7040 Y27.2179
G01 X29.6107 Y27.2133
G01 X29.5183 Y27.1996
G01 X29.4313 Y27.1780
G01 X29.4206 Y27.1746
G01 X29.3467 Y27.1481
G01 X29.3329 Y27.1424
G01 X29.2553 Y27.1055
G01 X29.1815 Y27.0615
G01 X29.1721 Y27.0554
G01 X29.1001 Y27.0018
G01 X29.0309 Y26.9391
G01 X28.9682 Y26.8699
G01 X28.9309 Y26.8200
G01 X25.6421 Y30.1088
G01 X25.6514 Y30.1727
G01 X25.6558 Y30.2585
G01 X25.6558 Y30.2734
G01 X25.6517 Y30.3556
G01 X25.6505 Y30.3667
G01 X25.6377 Y30.4517
G01 X25.6170 Y30.5351
G01 X25.6139 Y30.5459
G01 X25.5862 Y30.6233
G01 X25.5805 Y30.6371
G01 X25.5436 Y30.7147
G01 X25.4995 Y30.7885
G01 X25.4913 Y30.8009
G01 X25.4399 Y30.8699
G01 X25.3798 Y30.9364
G01 X25.3718 Y30.9442
G01 X25.3079 Y31.0018
G01 X25.2390 Y31.0532
G01 X25.2266 Y31.0615
G01 X25.1593 Y31.1018
G01 X25.1461 Y31.1089
G01 X25.0683 Y31.1455
G01 X24.9804 Y31.1769
G01 X24.8897 Y31.1996
G01 X24.7973 Y31.2133
G01 X24.7040 Y31.2179
G01 X24.6107 Y31.2133
G01 X24.5183 Y31.1996
G01 X24.4349 Y31.1789
G01 X24.4206 Y31.1746
G01 X24.3467 Y31.1481
G01 X24.3329 Y31.1424
G01 X24.2553 Y31.1055
G01 X24.1815 Y31.0615
G01 X24.1691 Y31.0532
G01 X24.1001 Y31.0018
G01 X24.0309 Y30.9391
G01 X23.9682 Y30.8699
G01 X23.9168 Y30.8009
G01 X23.9085 Y30.7885
G01 X23.8645 Y30.7147
G01 X23.8276 Y30.6371
G01 X23.8219 Y30.6233
G01 X23.7942 Y30.5459
G01 X23.7911 Y30.5351
G01 X23.7704 Y30.4517
G01 X23.7576 Y30.3667
G01 X23.7563 Y30.3556
G01 X23.7523 Y30.2734
G01 X23.7523 Y30.2585
G01 X23.7567 Y30.1727
G01 X23.7660 Y30.1088
G01 X20.8136 Y27.1564
G01 X20.7770 Y27.1160
G00 Z1.0000
G00 X19.1519 Y20.8164
G01 F60.00
G01 Z-0.0900
G01 F500.00
G01 X19.1519 Y20.2016
G01 X19.0640 Y20.1488
G01 X18.9732 Y20.0814
G01 X18.8895 Y20.0055
G01 X18.8136 Y19.9218
G01 X18.7462 Y19.8310
G01 X18.6881 Y19.7340
G01 X18.6398 Y19.6318
G01 X18.6040 Y19.5324
G01 X18.6006 Y19.5218
G01 X18.5742 Y19.4157
G01 X18.5585 Y19.3113
G01 X18.5571 Y19.2964
G01 X18.5521 Y19.1910
G01 X18.5576 Y19.0781
G01 X18.5729 Y18.9736
G01 X18.5759 Y18.9590
G01 X18.5997 Y18.8638
G01 X18.6028 Y18.8530
G01 X18.6398 Y18.7501
G01 X18.6881 Y18.6479
G01 X18.7462 Y18.5510
G01 X18.8136 Y18.4602
G01 X18.8895 Y18.3764
G01 X18.9732 Y18.3005
G01 X19.0640 Y18.2332
G01 X19.1610 Y18.1750
G01 X19.2632 Y18.1267
G01 X19.3696 Y18.0886
G01 X19.4793 Y18.0612
G01 X19.5911 Y18.0446
G01 X19.7040 Y18.0390
G01 X19.8169 Y18.0446
G01 X19.9288 Y18.0612
G01 X20.0312 Y18.0866
G01 X20.0420 Y18.0897
G01 X20.1449 Y18.1267
G01 X20.2471 Y18.1750
G01 X20.3440 Y18.2332
G01 X20.4348 Y18.3005
G01 X20.5186 Y18.3764
G01 X20.5945 Y18.4602
G01 X20.6618 Y18.5510
G01 X20.7163 Y18.6415
G01 X20.7233 Y18.6546
G01 X20.7653 Y18.7433
G01 X20.7710 Y18.7571
G01 X20.8064 Y18.8566
G01 X20.8322 Y18.9590
G01 X20.8351 Y18.9736
G01 X20.8504 Y19.0781
G01 X20.8560 Y19.1910
G01 X20.8504 Y19.3039
G01 X20.8345 Y19.4120
G01 X20.8322 Y19.4230
G01 X20.8064 Y19.5254
G01 X20.7683 Y19.6318
G01 X20.7200 Y19.7340
G01 X20.6658 Y19.8247
G01 X20.6575 Y19.8371
G01 X20.5945 Y19.9218
G01 X20.5237 Y20.0001
G01 X20.5132 Y20.0107
G01 X20.4405 Y20.0766
G01 X20.4289 Y20.0860
G01 X20.3440 Y20.1488
G01 X20.2562 Y20.2016
G01 X20.2562 Y21.2660
G01 X20.2535 Y21.3201
G01 X20.2468 Y21.3663
G01 X20.2439 Y21.3810
G01 X20.2324 Y21.4262
G01 X20.2155 Y21.4738
G01 X20.2111 Y21.4841
G01 X20.1943 Y21.5196
G01 X20.1892 Y21.5295
G01 X20.1631 Y21.5727
G01 X20.1412 Y21.6026
G01 X20.1514 Y21.6727
G01 X20.1558 Y21.7585
G01 X20.1558 Y21.7734
G01 X20.1519 Y21.8518
G01 X20.1510 Y21.8630
G01 X20.1377 Y21.9517
G01 X20.1170 Y22.0351
G01 X20.1127 Y22.0494
G01 X20.0862 Y22.1233
G01 X20.0805 Y22.1371
G01 X20.0436 Y22.2147
G01 X19.9995 Y22.2885
G01 X19.9913 Y22.3009
G01 X19.9399 Y22.3699
G01 X19.8823 Y22.4337
G01 X19.8718 Y22.4442
G01 X19.8079 Y22.5018
G01 X19.7390 Y22.5532
G01 X19.7266 Y22.5615
G01 X19.6528 Y22.6055
G01 X19.5751 Y22.6424
G01 X19.5614 Y22.6481
G01 X19.4804 Y22.6769
G01 X19.3970 Y22.6980
G01 X19.3824 Y22.7009
G01 X19.3047 Y22.7124
G01 X19.2936 Y22.7137
G01 X19.2040 Y22.7179
G01 X19.1107 Y22.7133
G01 X19.0183 Y22.6996
G01 X18.9277 Y22.6769
G01 X18.8397 Y22.6455
G01 X18.7553 Y22.6055
G01 X18.6752 Y22.5575
G01 X18.6001 Y22.5018
G01 X18.5309 Y22.4391
G01 X18.4682 Y22.3699
G01 X18.4125 Y22.2948
G01 X18.3645 Y22.2147
G01 X18.3245 Y22.1303
G01 X18.2931 Y22.0423
G01 X18.2704 Y21.9517
G01 X18.2576 Y21.8667
G01 X18.2563 Y21.8556
G01 X18.2521 Y21.7660
G01 X18.2567 Y21.6727
G01 X18.2704 Y21.5803
G01 X18.2931 Y21.4896
G01 X18.3245 Y21.4017
G01 X18.3645 Y21.3172
G01 X18.4125 Y21.2371
G01 X18.4636 Y21.1679
G01 X18.4706 Y21.1592
G01 X18.5309 Y21.0928
G01 X18.6001 Y21.0301
G01 X18.6752 Y20.9745
G01 X18.7488 Y20.9301
G01 X18.7586 Y20.9247
G01 X18.8397 Y20.8865
G01 X18.9206 Y20.8573
G01 X18.9313 Y20.8540
G01 X19.0110 Y20.8339
G01 X19.0220 Y20.8316
G01 X19.1070 Y20.8190
G01 X19.1182 Y20.8181
G01 X19.1519 Y20.8164
G00 Z1.0000
G00 X18.8784 Y20.5852
G01 F60.00
G01 Z-0.0900
G01 F500.00
G01 X18.8784 Y20.3518
G01 X18.8162 Y20.3057
G01 X18.8079 Y20.2994
G01 X18.7917 Y20.2861
G01 X18.7112 Y20.2133
G01 X18.6961 Y20.1989
G01 X18.6888 Y20.1914
G01 X18.6158 Y20.1111
G01 X18.6021 Y20.0953
G01 X18.5893 Y20.0788
G01 X18.5308 Y20.0000
G01 X18.5247 Y19.9915
G01 X18.5131 Y19.9742
G01 X18.4572 Y19.8811
G01 X18.4469 Y19.8629
G01 X18.4375 Y19.8443
G01 X18.3955 Y19.7556
G01 X18.3871 Y19.7365
G01 X18.3796 Y19.7170
G01 X18.3465 Y19.6246
G01 X18.3400 Y19.6048
G01 X18.3344 Y19.5846
G01 X18.3105 Y19.4894
G01 X18.3060 Y19.4691
G01 X18.3024 Y19.4485
G01 X18.2880 Y19.3514
G01 X18.2854 Y19.3307
G01 X18.2839 Y19.3099
G01 X18.2791 Y19.2118
G01 X18.2786 Y19.1910
G01 X18.2791 Y19.1701
G01 X18.2839 Y19.0721
G01 X18.2854 Y19.0512
G01 X18.2880 Y19.0305
G01 X18.3024 Y18.9335
G01 X18.3060 Y18.9129
G01 X18.3081 Y18.9027
G01 X18.3344 Y18.7973
G01 X18.3400 Y18.7772
G01 X18.3465 Y18.7574
G01 X18.3796 Y18.6650
G01 X18.3871 Y18.6455
G01 X18.3955 Y18.6264
G01 X18.4375 Y18.5377
G01 X18.4469 Y18.5190
G01 X18.4519 Y18.5099
G01 X18.5076 Y18.4167
G01 X18.5188 Y18.3990
G01 X18.5308 Y18.3820
G01 X18.5893 Y18.3031
G01 X18.6021 Y18.2867
G01 X18.6158 Y18.2709
G01 X18.6817 Y18.1981
G01 X18.6961 Y18.1830
G01 X18.7112 Y18.1686
G01 X18.7839 Y18.1027
G01 X18.7997 Y18.0891
G01 X18.8162 Y18.0762
G01 X18.8950 Y18.0178
G01 X18.9121 Y18.0057
G01 X18.9297 Y17.9946
G01 X19.0139 Y17.9441
G01 X19.0321 Y17.9338
G01 X19.0507 Y17.9244
G01 X19.1394 Y17.8825
G01 X19.1585 Y17.8740
G01 X19.1780 Y17.8665
G01 X19.2704 Y17.8334
G01 X19.2902 Y17.8269
G01 X19.3104 Y17.8213
G01 X19.4056 Y17.7975
G01 X19.4259 Y17.7929
G01 X19.4465 Y17.7893
G01 X19.5436 Y17.7749
G01 X19.5643 Y17.7724
G01 X19.5851 Y17.7708
G01 X19.6832 Y17.7660
G01 X19.7040 Y17.7655
G01 X19.7249 Y17.7660
G01 X19.8229 Y17.7708
G01 X19.8438 Y17.7724
G01 X19.8645 Y17.7749
G01 X19.9615 Y17.7893
G01 X19.9821 Y17.7929
G01 X20.0025 Y17.7975
G01 X20.0977 Y17.8213
G01 X20.1178 Y17.8269
G01 X20.1376 Y17.8334
G01 X20.2300 Y17.8665
G01 X20.2495 Y17.8740
G01 X20.2686 Y17.8825
G01 X20.3573 Y17.9244
G01 X20.3760 Y17.9338
G01 X20.3851 Y17.9389
G01 X20.4783 Y17.9946
G01 X20.4960 Y18.0057
G01 X20.5130 Y18.0178
G01 X20.5919 Y18.0762
G01 X20.6083 Y18.0891
G01 X20.6163 Y18.0958
G01 X20.6969 Y18.1686
G01 X20.7120 Y18.1830
G01 X20.7264 Y18.1981
G01 X20.7923 Y18.2709
G01 X20.8059 Y18.2867
G01 X20.8188 Y18.3031
G01 X20.8772 Y18.3820
G01 X20.8893 Y18.3990
G01 X20.9004 Y18.4167
G01 X20.9509 Y18.5008
G01 X20.9612 Y18.5190
G01 X20.9706 Y18.5377
G01 X21.0125 Y18.6264
G01 X21.0210 Y18.6455
G01 X21.0285 Y18.6650
G01 X21.0650 Y18.7672
G01 X21.0681 Y18.7772
G01 X21.0737 Y18.7973
G01 X21.0975 Y18.8925
G01 X21.1021 Y18.9129
G01 X21.1057 Y18.9335
G01 X21.1201 Y19.0305
G01 X21.1226 Y19.0512
G01 X21.1242 Y19.0721
G01 X21.1290 Y19.1701
G01 X21.1295 Y19.1910
G01 X21.1290 Y19.2118
G01 X21.1242 Y19.3099
G01 X21.1226 Y19.3307
G01 X21.1201 Y19.3514
G01 X21.1040 Y19.4588
G01 X21.0999 Y19.4793
G01 X21.0975 Y19.4894
G01 X21.0737 Y19.5846
G01 X21.0681 Y19.6048
G01 X21.0616 Y19.6246
G01 X21.0285 Y19.7170
G01 X21.0210 Y19.7365
G01 X21.0125 Y19.7556
G01 X20.9706 Y19.8443
G01 X20.9612 Y19.8629
G01 X20.9509 Y19.8811
G01 X20.8950 Y19.9742
G01 X20.8893 Y19.9829
G01 X20.8772 Y20.0000
G01 X20.8188 Y20.0788
G01 X20.8059 Y20.0953
G01 X20.7923 Y20.1111
G01 X20.7193 Y20.1914
G01 X20.7045 Y20.2062
G01 X20.6969 Y20.2133
G01 X20.6163 Y20.2861
G01 X20.6083 Y20.2929
G01 X20.5919 Y20.3057
G01 X20.5297 Y20.3518
G01 X20.5297 Y21.2660
G01 X20.5292 Y21.2868
G01 X20.5273 Y21.3261
G01 X20.5257 Y21.3469
G01 X20.5232 Y21.3676
G01 X20.5174 Y21.4065
G01 X20.5138 Y21.4270
G01 X20.5093 Y21.4474
G01 X20.4997 Y21.4855
G01 X20.4941 Y21.5056
G01 X20.4876 Y21.5255
G01 X20.4744 Y21.5625
G01 X20.4668 Y21.5819
G01 X20.4584 Y21.6010
G01 X20.4416 Y21.6365
G01 X20.4322 Y21.6552
G01 X20.4252 Y21.6677
G01 X20.4290 Y21.7451
G01 X20.4295 Y21.7660
G01 X20.4290 Y21.7868
G01 X20.4251 Y21.8653
G01 X20.4245 Y21.8757
G01 X20.4224 Y21.8965
G01 X20.4079 Y21.9948
G01 X20.4038 Y22.0153
G01 X20.4014 Y22.0254
G01 X20.3823 Y22.1016
G01 X20.3767 Y22.1217
G01 X20.3702 Y22.1415
G01 X20.3437 Y22.2154
G01 X20.3401 Y22.2252
G01 X20.3321 Y22.2445
G01 X20.2942 Y22.3250
G01 X20.2896 Y22.3344
G01 X20.2798 Y22.3528
G01 X20.2287 Y22.4380
G01 X20.2230 Y22.4468
G01 X20.2109 Y22.4639
G01 X20.1578 Y22.5352
G01 X20.1513 Y22.5434
G01 X20.1377 Y22.5592
G01 X20.0850 Y22.6174
G01 X20.0706 Y22.6325
G01 X20.0554 Y22.6469
G01 X19.9973 Y22.6996
G01 X19.9815 Y22.7133
G01 X19.9650 Y22.7261
G01 X19.9019 Y22.7729
G01 X19.8849 Y22.7849
G01 X19.8672 Y22.7961
G01 X19.7999 Y22.8364
G01 X19.7817 Y22.8467
G01 X19.7631 Y22.8561
G01 X19.6921 Y22.8897
G01 X19.6730 Y22.8981
G01 X19.6535 Y22.9057
G01 X19.5796 Y22.9321
G01 X19.5697 Y22.9355
G01 X19.5497 Y22.9416
G01 X19.4635 Y22.9633
G01 X19.4431 Y22.9679
G01 X19.4225 Y22.9715
G01 X19.3449 Y22.9830
G01 X19.3241 Y22.9855
G01 X19.3033 Y22.9871
G01 X19.2249 Y22.9909
G01 X19.2040 Y22.9914
G01 X19.1832 Y22.9909
G01 X19.1047 Y22.9871
G01 X19.0839 Y22.9855
G01 X19.0632 Y22.9830
G01 X18.9855 Y22.9715
G01 X18.9650 Y22.9679
G01 X18.9446 Y22.9633
G01 X18.8684 Y22.9442
G01 X18.8483 Y22.9387
G01 X18.8285 Y22.9321
G01 X18.7546 Y22.9057
G01 X18.7351 Y22.8981
G01 X18.7160 Y22.8897
G01 X18.6450 Y22.8561
G01 X18.6264 Y22.8467
G01 X18.6082 Y22.8364
G01 X18.5408 Y22.7961
G01 X18.5232 Y22.7849
G01 X18.5061 Y22.7729
G01 X18.4431 Y22.7261
G01 X18.4266 Y22.7133
G01 X18.4108 Y22.6996
G01 X18.3526 Y22.6469
G01 X18.3375 Y22.6325
G01 X18.3231 Y22.6174
G01 X18.2704 Y22.5592
G01 X18.2567 Y22.5434
G01 X18.2439 Y22.5269
G01 X18.1971 Y22.4639
G01 X18.1851 Y22.4468
G01 X18.1739 Y22.4292
G01 X18.1336 Y22.3618
G01 X18.1233 Y22.3436
G01 X18.1139 Y22.3250
G01 X18.0803 Y22.2540
G01 X18.0719 Y22.2349
G01 X18.0643 Y22.2154
G01 X18.0379 Y22.1415
G01 X18.0345 Y22.1317
G01 X18.0284 Y22.1117
G01 X18.0067 Y22.0254
G01 X18.0021 Y22.0050
G01 X17.9985 Y21.9845
G01 X17.9870 Y21.9068
G01 X17.9845 Y21.8861
G01 X17.9829 Y21.8653
G01 X17.9791 Y21.7868
G01 X17.9786 Y21.7660
G01 X17.9791 Y21.7451
G01 X17.9829 Y21.6667
G01 X17.9845 Y21.6459
G01 X17.9870 Y21.6251
G01 X17.9985 Y21.5475
G01 X18.0021 Y21.5269
G01 X18.0067 Y21.5065
G01 X18.0258 Y21.4304
G01 X18.0313 Y21.4102
G01 X18.0379 Y21.3904
G01 X18.0643 Y21.3165
G01 X18.0719 Y21.2970
G01 X18.0803 Y21.2779
G01 X18.1139 Y21.2069
G01 X18.1185 Y21.1976
G01 X18.1283 Y21.1791
G01 X18.1739 Y21.1028
G01 X18.1851 Y21.0851
G01 X18.1971 Y21.0681
G01 X18.2439 Y21.0050
G01 X18.2567 Y20.9885
G01 X18.2704 Y20.9727
G01 X18.3231 Y20.9146
G01 X18.3375 Y20.8994
G01 X18.3526 Y20.8850
G01 X18.4108 Y20.8323
G01 X18.4266 Y20.8187
G01 X18.4348 Y20.8122
G01 X18.5061 Y20.7591
G01 X18.5232 Y20.7470
G01 X18.5408 Y20.7359
G01 X18.6082 Y20.6955
G01 X18.6264 Y20.6852
G01 X18.6356 Y20.6804
G01 X18.7160 Y20.6423
G01 X18.7255 Y20.6379
G01 X18.7448 Y20.6299
G01 X18.8383 Y20.5964
G01 X18.8583 Y20.5904
G01 X18.8784 Y20.5852
G00 Z1.0000
G00 X18.5368 Y20.4244
G01 F60.00
G01 Z-0.0900
G01 F500.00
G01 X18.5150 Y20.4043
G01 X18.4907 Y20.3800
G01 X18.4018 Y20.2819
G01 X18.3907 Y20.2688
G01 X18.3696 Y20.2417
G01 X18.3011 Y20.1490
G01 X18.2820 Y20.1205
G01 X18.2730 Y20.1059
G01 X18.2226 Y20.0217
G01 X18.2057 Y19.9919
G01 X18.1902 Y19.9612
G01 X18.1411 Y19.8569
G01 X18.1344 Y19.8411
G01 X18.1220 Y19.8091
G01 X18.0890 Y19.7167
G01 X18.0782 Y19.6842
G01 X18.0691 Y19.6511
G01 X18.0452 Y19.5559
G01 X18.0377 Y19.5224
G01 X18.0318 Y19.4886
G01 X18.0174 Y19.3915
G01 X18.0132 Y19.3575
G01 X18.0107 Y19.3233
G01 X18.0053 Y19.2081
G01 X18.0051 Y19.1910
G01 X18.0059 Y19.1567
G01 X18.0107 Y19.0587
G01 X18.0132 Y19.0244
G01 X18.0174 Y18.9904
G01 X18.0318 Y18.8933
G01 X18.0377 Y18.8595
G01 X18.0452 Y18.8260
G01 X18.0691 Y18.7308
G01 X18.0782 Y18.6978
G01 X18.0890 Y18.6652
G01 X18.1220 Y18.5728
G01 X18.1344 Y18.5408
G01 X18.1483 Y18.5094
G01 X18.1902 Y18.4207
G01 X18.2057 Y18.3901
G01 X18.2226 Y18.3602
G01 X18.2730 Y18.2761
G01 X18.2914 Y18.2471
G01 X18.3111 Y18.2190
G01 X18.3696 Y18.1402
G01 X18.3907 Y18.1132
G01 X18.4131 Y18.0872
G01 X18.4907 Y18.0019
G01 X18.5027 Y17.9896
G01 X18.5275 Y17.9660
G01 X18.6002 Y17.9001
G01 X18.6262 Y17.8776
G01 X18.6533 Y17.8565
G01 X18.7321 Y17.7981
G01 X18.7601 Y17.7783
G01 X18.7891 Y17.7600
G01 X18.8733 Y17.7095
G01 X18.9031 Y17.6926
G01 X18.9338 Y17.6772
G01 X19.0225 Y17.6352
G01 X19.0539 Y17.6213
G01 X19.0859 Y17.6090
G01 X19.1783 Y17.5759
G01 X19.2108 Y17.5652
G01 X19.2439 Y17.5560
G01 X19.3391 Y17.5322
G01 X19.3726 Y17.5246
G01 X19.4064 Y17.5188
G01 X19.5035 Y17.5044
G01 X19.5375 Y17.5002
G01 X19.5717 Y17.4977
G01 X19.6697 Y17.4928
G01 X19.7040 Y17.4920
G01 X19.7383 Y17.4928
G01 X19.8363 Y17.4977
G01 X19.8706 Y17.5002
G01 X19.9046 Y17.5044
G01 X20.0017 Y17.5188
G01 X20.0355 Y17.5246
G01 X20.0690 Y17.5322
G01 X20.1642 Y17.5560
G01 X20.1972 Y17.5652
G01 X20.2298 Y17.5759
G01 X20.3222 Y17.6090
G01 X20.3542 Y17.6213
G01 X20.3856 Y17.6352
G01 X20.4743 Y17.6772
G01 X20.5049 Y17.6926
G01 X20.5348 Y17.7095
G01 X20.6189 Y17.7600
G01 X20.6479 Y17.7783
G01 X20.6760 Y17.7981
G01 X20.7548 Y17.8565
G01 X20.7818 Y17.8776
G01 X20.8078 Y17.9001
G01 X20.8931 Y17.9776
G01 X20.9054 Y17.9896
G01 X20.9290 Y18.0145
G01 X20.9949 Y18.0872
G01 X21.0174 Y18.1132
G01 X21.0385 Y18.1402
G01 X21.1070 Y18.2329
G01 X21.1260 Y18.2615
G01 X21.1350 Y18.2761
G01 X21.1855 Y18.3602
G01 X21.2024 Y18.3901
G01 X21.2178 Y18.4207
G01 X21.2598 Y18.5094
G01 X21.2669 Y18.5250
G01 X21.2800 Y18.5567
G01 X21.3191 Y18.6652
G01 X21.3298 Y18.6978
G01 X21.3390 Y18.7308
G01 X21.3628 Y18.8260
G01 X21.3704 Y18.8595
G01 X21.3762 Y18.8933
G01 X21.3929 Y19.0074
G01 X21.3963 Y19.0415
G01 X21.3973 Y19.0587
G01 X21.4022 Y19.1567
G01 X21.4030 Y19.1910
G01 X21.4022 Y19.2253
G01 X21.3973 Y19.3233
G01 X21.3948 Y19.3575
G01 X21.3929 Y19.3745
G01 X21.3762 Y19.4886
G01 X21.3704 Y19.5224
G01 X21.3628 Y19.5559
G01 X21.3390 Y19.6511
G01 X21.3298 Y19.6842
G01 X21.3191 Y19.7167
G01 X21.2860 Y19.8091
G01 X21.2737 Y19.8411
G01 X21.2598 Y19.8725
G01 X21.2103 Y19.9766
G01 X21.1941 Y20.0069
G01 X21.1855 Y20.0217
G01 X21.1350 Y20.1059
G01 X21.1167 Y20.1349
G01 X21.0969 Y20.1629
G01 X21.0385 Y20.2417
G01 X21.0174 Y20.2688
G01 X20.9949 Y20.2948
G01 X20.9290 Y20.3675
G01 X20.9054 Y20.3923
G01 X20.8805 Y20.4160
G01 X20.8032 Y20.4860
G01 X20.8032 Y21.2660
G01 X20.8024 Y21.3003
G01 X20.8004 Y21.3395
G01 X20.7979 Y21.3737
G01 X20.7960 Y21.3908
G01 X20.7879 Y21.4466
G01 X20.7821 Y21.4804
G01 X20.7746 Y21.5139
G01 X20.7606 Y21.5686
G01 X20.7507 Y21.6014
G01 X20.7259 Y21.6707
G01 X20.7128 Y21.7024
G01 X20.7019 Y21.7259
G01 X20.7028 Y21.7488
G01 X20.7028 Y21.7831
G01 X20.6983 Y21.8787
G01 X20.6958 Y21.9129
G01 X20.6916 Y21.9469
G01 X20.6801 Y22.0246
G01 X20.6773 Y22.0415
G01 X20.6706 Y22.0752
G01 X20.6476 Y22.1680
G01 X20.6385 Y22.2011
G01 X20.6277 Y22.2337
G01 X20.6012 Y22.3076
G01 X20.5889 Y22.3396
G01 X20.5750 Y22.3710
G01 X20.5414 Y22.4419
G01 X20.5260 Y22.4726
G01 X20.5091 Y22.5024
G01 X20.4687 Y22.5698
G01 X20.4504 Y22.5988
G01 X20.4306 Y22.6268
G01 X20.3839 Y22.6899
G01 X20.3628 Y22.7169
G01 X20.3403 Y22.7429
G01 X20.2876 Y22.8011
G01 X20.2640 Y22.8259
G01 X20.2391 Y22.8496
G01 X20.1681 Y22.9136
G01 X20.1550 Y22.9247
G01 X20.1279 Y22.9458
G01 X20.0510 Y23.0026
G01 X20.0224 Y23.0217
G01 X19.9405 Y23.0710
G01 X19.9257 Y23.0797
G01 X19.8954 Y23.0958
G01 X19.8090 Y23.1369
G01 X19.7777 Y23.1508
G01 X19.7457 Y23.1632
G01 X19.6717 Y23.1896
G01 X19.6392 Y23.2004
G01 X19.6061 Y23.2095
G01 X19.5299 Y23.2286
G01 X19.4965 Y23.2361
G01 X19.4627 Y23.2420
G01 X19.3850 Y23.2535
G01 X19.3510 Y23.2577
G01 X19.3167 Y23.2602
G01 X19.2383 Y23.2641
G01 X19.2040 Y23.2649
G01 X19.1697 Y23.2641
G01 X19.0913 Y23.2602
G01 X19.0571 Y23.2577
G01 X19.0231 Y23.2535
G01 X18.9454 Y23.2420
G01 X18.9116 Y23.2361
G01 X18.8781 Y23.2286
G01 X18.8020 Y23.2095
G01 X18.7689 Y23.2004
G01 X18.7363 Y23.1896
G01 X18.6624 Y23.1632
G01 X18.6304 Y23.1508
G01 X18.5990 Y23.1369
G01 X18.5281 Y23.1034
G01 X18.4974 Y23.0879
G01 X18.4676 Y23.0710
G01 X18.4002 Y23.0307
G01 X18.3712 Y23.0123
G01 X18.3432 Y22.9926
G01 X18.2801 Y22.9458
G01 X18.2531 Y22.9247
G01 X18.2271 Y22.9023
G01 X18.1689 Y22.8496
G01 X18.1441 Y22.8259
G01 X18.1204 Y22.8011
G01 X18.0677 Y22.7429
G01 X18.0453 Y22.7169
G01 X18.0242 Y22.6899
G01 X17.9774 Y22.6268
G01 X17.9577 Y22.5988
G01 X17.9393 Y22.5698
G01 X17.8990 Y22.5024
G01 X17.8821 Y22.4726
G01 X17.8742 Y22.4574
G01 X17.8331 Y22.3710
G01 X17.8192 Y22.3396
G01 X17.8068 Y22.3076
G01 X17.7804 Y22.2337
G01 X17.7696 Y22.2011
G01 X17.7605 Y22.1680
G01 X17.7414 Y22.0919
G01 X17.7339 Y22.0584
G01 X17.7280 Y22.0246
G01 X17.7165 Y21.9469
G01 X17.7123 Y21.9129
G01 X17.7098 Y21.8787
G01 X17.7059 Y21.8003
G01 X17.7051 Y21.7660
G01 X17.7059 Y21.7317
G01 X17.7098 Y21.6533
G01 X17.7123 Y21.6190
G01 X17.7165 Y21.5850
G01 X17.7280 Y21.5073
G01 X17.7339 Y21.4735
G01 X17.7414 Y21.4401
G01 X17.7605 Y21.3639
G01 X17.7648 Y21.3473
G01 X17.7748 Y21.3145
G01 X17.8068 Y21.2243
G01 X17.8192 Y21.1923
G01 X17.8331 Y21.1610
G01 X17.8666 Y21.0900
G01 X17.8821 Y21.0594
G01 X17.8990 Y21.0295
G01 X17.9393 Y20.9622
G01 X17.9577 Y20.9332
G01 X17.9774 Y20.9051
G01 X18.0242 Y20.8421
G01 X18.0346 Y20.8284
G01 X18.0564 Y20.8019
G01 X18.1204 Y20.7309
G01 X18.1441 Y20.7060
G01 X18.1689 Y20.6824
G01 X18.2271 Y20.6297
G01 X18.2531 Y20.6072
G01 X18.2665 Y20.5965
G01 X18.3432 Y20.5394
G01 X18.3712 Y20.5196
G01 X18.3856 Y20.5103
G01 X18.4824 Y20.4523
G01 X18.5126 Y20.4361
G01 X18.5368 Y20.4244
G00 Z1.0000
G00 X28.0532 Y22.4925
G01 F60.00
G01 Z-0.0900
G01 F500.00
G01 X28.1083 Y22.5844
G01 X28.1274 Y22.6129
G01 X28.1842 Y22.6899
G01 X28.2053 Y22.7169
G01 X28.2164 Y22.7300
G01 X28.2804 Y22.8011
G01 X28.3041 Y22.8259
G01 X28.3164 Y22.8379
G01 X28.4000 Y22.9136
G01 X28.4265 Y22.9354
G01 X28.4415 Y22.9468
G01 X28.4093 Y22.9468
G01 X28.0532 Y22.5907
G01 X28.0532 Y22.4925
G00 Z1.0000
G00 X30.2363 Y22.9841
G01 F60.00
G01 Z-0.0900
G01 F500.00
G01 X30.2879 Y22.9458
G01 X30.3150 Y22.9247
G01 X30.3409 Y22.9023
G01 X30.3819 Y22.8651
G01 X30.9898 Y22.8651
G01 X31.0105 Y22.9480
G01 X31.0148 Y22.9646
G01 X31.0238 Y22.9945
G01 X30.2731 Y22.9941
G01 X30.2566 Y22.9894
G01 X30.2363 Y22.9841
G00 Z1.0000
G00 X29.7755 Y24.5981
G01 F60.00
G01 Z-0.0900
G01 F500.00
G01 X27.9503 Y24.5981
G01 X27.8999 Y24.5955
G01 X27.8463 Y24.5875
G01 X27.7938 Y24.5743
G01 X27.7427 Y24.5561
G01 X27.6937 Y24.5329
G01 X27.6473 Y24.5051
G01 X27.6038 Y24.4728
G01 X27.5636 Y24.4364
G01 X26.5610 Y23.4337
G01 X26.5272 Y23.3962
G01 X26.4949 Y23.3527
G01 X26.4671 Y23.3063
G01 X26.4439 Y23.2573
G01 X26.4257 Y23.2062
G01 X26.4125 Y23.1537
G01 X26.4045 Y23.1001
G01 X26.4019 Y23.0460
G01 X26.4019 Y20.0460
G01 X26.4045 Y19.9918
G01 X26.4125 Y19.9382
G01 X26.4237 Y19.8929
G01 X26.4280 Y19.8786
G01 X26.4439 Y19.8347
G01 X26.4637 Y19.7923
G01 X26.4708 Y19.7792
G01 X26.4949 Y19.7392
G01 X26.5226 Y19.7016
G01 X26.5296 Y19.6928
G01 X26.5636 Y19.6555
G01 X27.3436 Y18.8755
G01 X27.3781 Y18.8440
G01 X27.3867 Y18.8368
G01 X27.4212 Y18.8112
G01 X27.4336 Y18.8029
G01 X27.4673 Y18.7827
G01 X27.4771 Y18.7773
G01 X27.5159 Y18.7589
G01 X27.5297 Y18.7532
G01 X27.5738 Y18.7376
G01 X27.6263 Y18.7244
G01 X27.6799 Y18.7165
G01 X27.7303 Y18.7139
G01 X34.6934 Y18.7138
G01 X34.7462 Y18.6260
G01 X34.8090 Y18.5411
G01 X34.8184 Y18.5295
G01 X34.8895 Y18.4514
G01 X34.9676 Y18.3804
G01 X34.9791 Y18.3709
G01 X35.0640 Y18.3082
G01 X35.1545 Y18.2537
G01 X35.1677 Y18.2467
G01 X35.2632 Y18.2017
G01 X35.3626 Y18.1660
G01 X35.3768 Y18.1616
G01 X35.4793 Y18.1362
G01 X35.5837 Y18.1205
G01 X35.5986 Y18.1190
G01 X35.7003 Y18.1141
G01 X35.7115 Y18.1142
G01 X35.8169 Y18.1196
G01 X35.9288 Y18.1362
G01 X36.0384 Y18.1636
G01 X36.1379 Y18.1990
G01 X36.1517 Y18.2047
G01 X36.2471 Y18.2500
G01 X36.3377 Y18.3042
G01 X36.3501 Y18.3125
G01 X36.4348 Y18.3755
G01 X36.5132 Y18.4463
G01 X36.5237 Y18.4568
G01 X36.5896 Y18.5295
G01 X36.5991 Y18.5411
G01 X36.6618 Y18.6260
G01 X36.7163 Y18.7165
G01 X36.7233 Y18.7296
G01 X36.7683 Y18.8251
G01 X36.8040 Y18.9245
G01 X36.8084 Y18.9388
G01 X36.8338 Y19.0412
G01 X36.8495 Y19.1457
G01 X36.8510 Y19.1605
G01 X36.8560 Y19.2660
G01 X36.8510 Y19.3714
G01 X36.8495 Y19.3863
G01 X36.8338 Y19.4907
G01 X36.8084 Y19.5932
G01 X36.8040 Y19.6074
G01 X36.7683 Y19.7068
G01 X36.7233 Y19.8023
G01 X36.7163 Y19.8155
G01 X36.6618 Y19.9060
G01 X36.5991 Y19.9909
G01 X36.5896 Y20.0024
G01 X36.5186 Y20.0805
G01 X36.4405 Y20.1516
G01 X36.4289 Y20.1610
G01 X36.3440 Y20.2238
G01 X36.2535 Y20.2782
G01 X36.2404 Y20.2853
G01 X36.1449 Y20.3302
G01 X36.0455 Y20.3660
G01 X36.0312 Y20.3703
G01 X35.9288 Y20.3958
G01 X35.8243 Y20.4115
G01 X35.8095 Y20.4129
G01 X35.7040 Y20.4179
G01 X35.5911 Y20.4124
G01 X35.4793 Y20.3958
G01 X35.3768 Y20.3703
G01 X35.3626 Y20.3660
G01 X35.2702 Y20.3329
G01 X35.2564 Y20.3272
G01 X35.1610 Y20.2819
G01 X35.0703 Y20.2278
G01 X35.0579 Y20.2195
G01 X34.9791 Y20.1610
G01 X34.9676 Y20.1516
G01 X34.8895 Y20.0805
G01 X34.8136 Y19.9968
G01 X34.7462 Y19.9060
G01 X34.6934 Y19.8181
G01 X27.9627 Y19.8181
G01 X27.5062 Y20.2747
G01 X27.5062 Y22.8173
G01 X28.1827 Y23.4938
G01 X29.9578 Y23.4939
G01 X30.0082 Y23.4965
G01 X30.0544 Y23.5032
G01 X30.0654 Y23.5052
G01 X30.1071 Y23.5156
G01 X30.1179 Y23.5187
G01 X30.1619 Y23.5345
G01 X30.1826 Y23.5438
G01 X35.6753 Y23.5438
G01 X36.5160 Y22.7032
G01 X36.5067 Y22.6393
G01 X36.5021 Y22.5460
G01 X36.5067 Y22.4527
G01 X36.5197 Y22.3639
G01 X36.5220 Y22.3530
G01 X36.5411 Y22.2768
G01 X36.5454 Y22.2626
G01 X36.5745 Y22.1817
G01 X36.6111 Y22.1039
G01 X36.6163 Y22.0940
G01 X36.6625 Y22.0171
G01 X36.7136 Y21.9479
G01 X36.7230 Y21.9364
G01 X36.7758 Y21.8782
G01 X36.7863 Y21.8677
G01 X36.8501 Y21.8101
G01 X36.9252 Y21.7545
G01 X37.0053 Y21.7064
G01 X37.0863 Y21.6680
G01 X37.0967 Y21.6638
G01 X37.1777 Y21.6350
G01 X37.2683 Y21.6123
G01 X37.3607 Y21.5986
G01 X37.4466 Y21.5942
G01 X37.4615 Y21.5942
G01 X37.5399 Y21.5981
G01 X37.5547 Y21.5995
G01 X37.6397 Y21.6123
G01 X37.7232 Y21.6330
G01 X37.7374 Y21.6373
G01 X37.8183 Y21.6665
G01 X37.9028 Y21.7064
G01 X37.9829 Y21.7545
G01 X38.0579 Y21.8101
G01 X38.1272 Y21.8728
G01 X38.1850 Y21.9364
G01 X38.1945 Y21.9479
G01 X38.2413 Y22.0110
G01 X38.2495 Y22.0234
G01 X38.2936 Y22.0972
G01 X38.3305 Y22.1749
G01 X38.3362 Y22.1886
G01 X38.3650 Y22.2696
G01 X38.3877 Y22.3603
G01 X38.4014 Y22.4527
G01 X38.4058 Y22.5385
G01 X38.4058 Y22.5534
G01 X38.4014 Y22.6393
G01 X38.3890 Y22.7243
G01 X38.3861 Y22.7390
G01 X38.3650 Y22.8223
G01 X38.3362 Y22.9033
G01 X38.3305 Y22.9171
G01 X38.2936 Y22.9947
G01 X38.2495 Y23.0685
G01 X38.2413 Y23.0809
G01 X38.1899 Y23.1499
G01 X38.1272 Y23.2191
G01 X38.0579 Y23.2818
G01 X37.9890 Y23.3332
G01 X37.9766 Y23.3415
G01 X37.9028 Y23.3855
G01 X37.8251 Y23.4224
G01 X37.8114 Y23.4281
G01 X37.7339 Y23.4558
G01 X37.7232 Y23.4589
G01 X37.6397 Y23.4796
G01 X37.5547 Y23.4924
G01 X37.5436 Y23.4937
G01 X37.4615 Y23.4977
G01 X37.4466 Y23.4977
G01 X37.3607 Y23.4933
G01 X37.2968 Y23.4840
G01 X36.2918 Y24.4890
G01 X36.2543 Y24.5228
G01 X36.2108 Y24.5551
G01 X36.1643 Y24.5829
G01 X36.1153 Y24.6061
G01 X36.0643 Y24.6243
G01 X36.0118 Y24.6375
G01 X35.9582 Y24.6455
G01 X35.9078 Y24.6481
G01 X33.0062 Y24.6481
G01 X33.0061 Y27.5197
G01 X33.0041 Y27.5627
G01 X33.0026 Y27.5775
G01 X32.9956 Y27.6237
G01 X32.9844 Y27.6691
G01 X32.9801 Y27.6833
G01 X32.9642 Y27.7273
G01 X32.9427 Y27.7729
G01 X32.9373 Y27.7827
G01 X32.9171 Y27.8164
G01 X32.9088 Y27.8288
G01 X32.8808 Y27.8662
G01 X32.8445 Y27.9064
G01 X30.6421 Y30.1088
G01 X30.6514 Y30.1727
G01 X30.6558 Y30.2585
G01 X30.6558 Y30.2734
G01 X30.6517 Y30.3556
G01 X30.6505 Y30.3667
G01 X30.6377 Y30.4517
G01 X30.6170 Y30.5351
G01 X30.6139 Y30.5459
G01 X30.5862 Y30.6233
G01 X30.5805 Y30.6371
G01 X30.5436 Y30.7147
G01 X30.4995 Y30.7885
G01 X30.4913 Y30.8009
G01 X30.4399 Y30.8699
G01 X30.3798 Y30.9364
G01 X30.3718 Y30.9442
G01 X30.3079 Y31.0018
G01 X30.2329 Y31.0575
G01 X30.1528 Y31.1055
G01 X30.0683 Y31.1455
G01 X29.9804 Y31.1769
G01 X29.8897 Y31.1996
G01 X29.7973 Y31.2133
G01 X29.7040 Y31.2179
G01 X29.6182 Y31.2139
G01 X29.6033 Y31.2124
G01 X29.5183 Y31.1996
G01 X29.4349 Y31.1789
G01 X29.4206 Y31.1746
G01 X29.3397 Y31.1455
G01 X29.2619 Y31.1089
G01 X29.2488 Y31.1018
G01 X29.1752 Y31.0575
G01 X29.1060 Y31.0064
G01 X29.0945 Y30.9970
G01 X29.0309 Y30.9391
G01 X28.9730 Y30.8755
G01 X28.9636 Y30.8640
G01 X28.9125 Y30.7948
G01 X28.8682 Y30.7212
G01 X28.8611 Y30.7081
G01 X28.8245 Y30.6303
G01 X28.7954 Y30.5494
G01 X28.7911 Y30.5351
G01 X28.7704 Y30.4517
G01 X28.7576 Y30.3667
G01 X28.7561 Y30.3518
G01 X28.7521 Y30.2660
G01 X28.7561 Y30.1801
G01 X28.7576 Y30.1653
G01 X28.7704 Y30.0803
G01 X28.7911 Y29.9968
G01 X28.7954 Y29.9826
G01 X28.8245 Y29.9017
G01 X28.8611 Y29.8239
G01 X28.8663 Y29.8140
G01 X28.9125 Y29.7371
G01 X28.9636 Y29.6679
G01 X28.9730 Y29.6564
G01 X29.0309 Y29.5928
G01 X29.1001 Y29.5301
G01 X29.1691 Y29.4787
G01 X29.1815 Y29.4705
G01 X29.2488 Y29.4301
G01 X29.2586 Y29.4247
G01 X29.3397 Y29.3865
G01 X29.4206 Y29.3573
G01 X29.4349 Y29.3530
G01 X29.5110 Y29.3339
G01 X29.5257 Y29.3310
G01 X29.6107 Y29.3186
G01 X29.7040 Y29.3140
G01 X29.7973 Y29.3186
G01 X29.8612 Y29.3279
G01 X31.9019 Y27.2873
G01 X31.9019 Y24.6481
G01 X30.0003 Y24.6481
G01 X29.9499 Y24.6455
G01 X29.9037 Y24.6388
G01 X29.8927 Y24.6367
G01 X29.8509 Y24.6263
G01 X29.8402 Y24.6232
G01 X29.7962 Y24.6075
G01 X29.7755 Y24.5981
G00 Z1.0000
G00 X30.1385 Y21.2138
G01 F60.00
G01 Z-0.0900
G01 F500.00
G01 X31.6740 Y21.2138
G01 X31.7282 Y21.2165
G01 X31.7744 Y21.2232
G01 X31.7890 Y21.2261
G01 X31.8343 Y21.2376
G01 X31.8853 Y21.2558
G01 X31.9343 Y21.2790
G01 X31.9745 Y21.3029
G01 X31.9869 Y21.3112
G01 X32.0243 Y21.3392
G01 X32.0618 Y21.3729
G01 X32.2968 Y21.6079
G01 X32.3607 Y21.5986
G01 X32.4540 Y21.5940
G01 X32.5473 Y21.5986
G01 X32.6112 Y21.6079
G01 X33.4636 Y20.7555
G01 X33.5009 Y20.7216
G01 X33.5096 Y20.7146
G01 X33.5412 Y20.6912
G01 X33.5536 Y20.6829
G01 X33.5937 Y20.6590
G01 X33.6427 Y20.6358
G01 X33.6867 Y20.6199
G01 X33.7009 Y20.6156
G01 X33.7463 Y20.6044
G01 X33.7962 Y20.5969
G01 X33.8073 Y20.5959
G01 X33.8540 Y20.5938
G01 X36.4342 Y20.5938
G01 X36.4561 Y20.5740
G01 X36.4646 Y20.5668
G01 X36.4991 Y20.5412
G01 X36.5084 Y20.5348
G01 X36.5517 Y20.5090
G01 X36.5939 Y20.4889
G01 X36.6042 Y20.4845
G01 X36.6517 Y20.4676
G01 X36.7043 Y20.4544
G01 X36.7579 Y20.4465
G01 X36.8120 Y20.4438
G01 X38.0961 Y20.4438
G01 X38.1502 Y20.4465
G01 X38.2038 Y20.4544
G01 X38.2492 Y20.4656
G01 X38.2634 Y20.4699
G01 X38.3004 Y20.4832
G01 X38.3108 Y20.4873
G01 X38.3563 Y20.5090
G01 X38.4028 Y20.5369
G01 X38.4463 Y20.5692
G01 X38.4738 Y20.5938
G01 X41.2880 Y20.5938
G01 X41.3347 Y20.5959
G01 X41.3496 Y20.5974
G01 X41.3921 Y20.6037
G01 X41.4030 Y20.6061
G01 X41.4483 Y20.6176
G01 X41.4993 Y20.6358
G01 X41.5483 Y20.6590
G01 X41.5885 Y20.6829
G01 X41.6009 Y20.6912
G01 X41.6383 Y20.7192
G01 X41.6785 Y20.7555
G01 X42.3767 Y21.4538
G01 X44.7417 Y21.4538
G01 X44.7545 Y21.4367
G01 X44.7592 Y21.4309
G01 X44.8111 Y21.3736
G01 X44.8189 Y21.3656
G01 X44.8818 Y21.3088
G01 X44.9499 Y21.2581
G01 X44.9592 Y21.2520
G01 X45.0224 Y21.2142
G01 X45.0355 Y21.2072
G01 X45.1089 Y21.1727
G01 X45.1887 Y21.1440
G01 X45.1994 Y21.1409
G01 X45.2708 Y21.1230
G01 X45.2854 Y21.1201
G01 X45.3656 Y21.1084
G01 X45.4540 Y21.1040
G01 X45.5350 Y21.1078
G01 X45.5498 Y21.1093
G01 X45.6300 Y21.1213
G01 X45.7159 Y21.1429
G01 X45.7992 Y21.1727
G01 X45.8725 Y21.2072
G01 X45.8857 Y21.2142
G01 X45.9488 Y21.2520
G01 X45.9612 Y21.2603
G01 X46.0262 Y21.3088
G01 X46.0918 Y21.3682
G01 X46.1512 Y21.4338
G01 X46.2040 Y21.5049
G01 X46.2495 Y21.5808
G01 X46.2843 Y21.6540
G01 X46.2900 Y21.6678
G01 X46.3148 Y21.7371
G01 X46.3191 Y21.7513
G01 X46.3387 Y21.8300
G01 X46.3516 Y21.9176
G01 X46.3560 Y22.0060
G01 X46.3522 Y22.0869
G01 X46.3507 Y22.1018
G01 X46.3387 Y22.1819
G01 X46.3171 Y22.2678
G01 X46.2873 Y22.3511
G01 X46.2528 Y22.4245
G01 X46.2458 Y22.4376
G01 X46.2040 Y22.5071
G01 X46.1558 Y22.5723
G01 X46.1464 Y22.5838
G01 X46.0969 Y22.6383
G01 X46.0864 Y22.6489
G01 X46.0262 Y22.7032
G01 X45.9551 Y22.7559
G01 X45.8792 Y22.8014
G01 X45.7992 Y22.8393
G01 X45.7159 Y22.8691
G01 X45.6300 Y22.8906
G01 X45.5424 Y22.9036
G01 X45.4615 Y22.9077
G01 X45.4503 Y22.9079
G01 X45.3731 Y22.9041
G01 X45.3582 Y22.9027
G01 X45.2781 Y22.8906
G01 X45.1994 Y22.8711
G01 X45.1851 Y22.8667
G01 X45.1089 Y22.8393
G01 X45.0322 Y22.8031
G01 X45.0224 Y22.7977
G01 X44.9529 Y22.7559
G01 X44.8877 Y22.7078
G01 X44.8790 Y22.7008
G01 X44.8217 Y22.6489
G01 X44.8137 Y22.6411
G01 X44.7592 Y22.5810
G01 X44.7545 Y22.5752
G01 X44.7417 Y22.5581
G01 X42.1480 Y22.5581
G01 X42.1014 Y22.5560
G01 X42.0865 Y22.5545
G01 X42.0403 Y22.5475
G01 X41.9913 Y22.5354
G01 X41.9807 Y22.5320
G01 X41.9367 Y22.5161
G01 X41.8878 Y22.4929
G01 X41.8413 Y22.4651
G01 X41.8036 Y22.4374
G01 X41.7921 Y22.4279
G01 X41.7576 Y22.3964
G01 X41.0593 Y21.6981
G01 X38.2386 Y21.6979
G01 X38.1919 Y21.6955
G01 X38.1383 Y21.6875
G01 X38.0858 Y21.6743
G01 X38.0348 Y21.6561
G01 X37.9858 Y21.6329
G01 X37.9424 Y21.6071
G01 X37.9332 Y21.6008
G01 X37.8987 Y21.5751
G01 X37.8901 Y21.5679
G01 X37.8683 Y21.5481
G01 X37.0398 Y21.5481
G01 X37.0123 Y21.5728
G01 X36.9688 Y21.6051
G01 X36.9223 Y21.6329
G01 X36.8767 Y21.6546
G01 X36.8663 Y21.6588
G01 X36.8223 Y21.6743
G01 X36.7770 Y21.6859
G01 X36.7624 Y21.6888
G01 X36.7198 Y21.6950
G01 X36.7087 Y21.6960
G01 X36.6620 Y21.6981
G01 X34.0827 Y21.6981
G01 X33.3921 Y22.3888
G01 X33.4014 Y22.4527
G01 X33.4058 Y22.5385
G01 X33.4058 Y22.5534
G01 X33.4017 Y22.6356
G01 X33.4005 Y22.6467
G01 X33.3877 Y22.7317
G01 X33.3670 Y22.8151
G01 X33.3639 Y22.8259
G01 X33.3362 Y22.9033
G01 X33.3305 Y22.9171
G01 X33.2936 Y22.9947
G01 X33.2495 Y23.0685
G01 X33.2413 Y23.0809
G01 X33.1899 Y23.1499
G01 X33.1298 Y23.2164
G01 X33.1218 Y23.2242
G01 X33.0579 Y23.2818
G01 X32.9829 Y23.3375
G01 X32.9028 Y23.3855
G01 X32.8251 Y23.4224
G01 X32.8114 Y23.4281
G01 X32.7304 Y23.4569
G01 X32.6470 Y23.4780
G01 X32.6324 Y23.4809
G01 X32.5473 Y23.4933
G01 X32.4615 Y23.4977
G01 X32.4466 Y23.4977
G01 X32.3682 Y23.4939
G01 X32.3533 Y23.4924
G01 X32.2683 Y23.4796
G01 X32.1777 Y23.4569
G01 X32.0897 Y23.4255
G01 X32.0053 Y23.3855
G01 X31.9252 Y23.3375
G01 X31.8501 Y23.2818
G01 X31.7809 Y23.2191
G01 X31.7230 Y23.1555
G01 X31.7158 Y23.1470
G01 X31.6625 Y23.0748
G01 X31.6145 Y22.9947
G01 X31.5745 Y22.9103
G01 X31.5442 Y22.8259
G01 X31.5411 Y22.8151
G01 X31.5204 Y22.7317
G01 X31.5076 Y22.6467
G01 X31.5063 Y22.6356
G01 X31.5023 Y22.5534
G01 X31.5023 Y22.5385
G01 X31.5067 Y22.4527
G01 X31.5160 Y22.3888
G01 X31.4453 Y22.3181
G01 X30.1385 Y22.3181
G01 X30.0999 Y22.3699
G01 X30.0423 Y22.4337
G01 X30.0318 Y22.4442
G01 X29.9708 Y22.4994
G01 X29.9621 Y22.5064
G01 X29.8929 Y22.5575
G01 X29.8193 Y22.6018
G01 X29.8095 Y22.6072
G01 X29.7351 Y22.6424
G01 X29.7214 Y22.6481
G01 X29.6404 Y22.6769
G01 X29.5570 Y22.6980
G01 X29.5424 Y22.7009
G01 X29.4573 Y22.7133
G01 X29.3640 Y22.7179
G01 X29.2782 Y22.7139
G01 X29.2633 Y22.7124
G01 X29.1783 Y22.6996
G01 X29.0949 Y22.6789
G01 X29.0806 Y22.6746
G01 X28.9997 Y22.6455
G01 X28.9153 Y22.6055
G01 X28.8352 Y22.5575
G01 X28.7660 Y22.5064
G01 X28.7545 Y22.4970
G01 X28.6909 Y22.4391
G01 X28.6330 Y22.3755
G01 X28.6236 Y22.3640
G01 X28.5746 Y22.2979
G01 X28.5685 Y22.2885
G01 X28.5245 Y22.2147
G01 X28.4845 Y22.1303
G01 X28.4531 Y22.0423
G01 X28.4304 Y21.9517
G01 X28.4167 Y21.8593
G01 X28.4121 Y21.7660
G01 X28.4167 Y21.6727
G01 X28.4304 Y21.5803
G01 X28.4531 Y21.4896
G01 X28.4845 Y21.4017
G01 X28.5245 Y21.3172
G01 X28.5725 Y21.2371
G01 X28.6282 Y21.1621
G01 X28.6909 Y21.0928
G01 X28.7601 Y21.0301
G01 X28.8321 Y20.9766
G01 X28.8415 Y20.9705
G01 X28.9153 Y20.9264
G01 X28.9997 Y20.8865
G01 X29.0877 Y20.8550
G01 X29.1783 Y20.8323
G01 X29.2707 Y20.8186
G01 X29.3640 Y20.8140
G01 X29.4573 Y20.8186
G01 X29.5461 Y20.8316
G01 X29.5570 Y20.8339
G01 X29.6404 Y20.8550
G01 X29.7283 Y20.8865
G01 X29.8128 Y20.9264
G01 X29.8898 Y20.9724
G01 X29.8990 Y20.9787
G01 X29.9679 Y21.0301
G01 X30.0345 Y21.0902
G01 X30.0423 Y21.0982
G01 X30.0975 Y21.1592
G01 X30.1045 Y21.1679
G01 X30.1385 Y21.2138
G00 Z1.0000
G00 X30.2683 Y20.9403
G01 F60.00
G01 Z-0.0900
G01 F500.00
G01 X30.2379 Y20.9069
G01 X30.2231 Y20.8921
G01 X30.1573 Y20.8323
G01 X30.1415 Y20.8187
G01 X30.1333 Y20.8122
G01 X30.0619 Y20.7591
G01 X30.0449 Y20.7470
G01 X30.0272 Y20.7359
G01 X29.9599 Y20.6955
G01 X29.9417 Y20.6852
G01 X29.9324 Y20.6804
G01 X29.8521 Y20.6423
G01 X29.8330 Y20.6338
G01 X29.8135 Y20.6263
G01 X29.7396 Y20.5998
G01 X29.7198 Y20.5933
G01 X29.6996 Y20.5877
G01 X29.6235 Y20.5686
G01 X29.6031 Y20.5641
G01 X29.5825 Y20.5605
G01 X29.4945 Y20.5476
G01 X29.4841 Y20.5464
G01 X29.4633 Y20.5449
G01 X29.3849 Y20.5410
G01 X29.3640 Y20.5405
G01 X29.3432 Y20.5410
G01 X29.2647 Y20.5449
G01 X29.2543 Y20.5455
G01 X29.2335 Y20.5476
G01 X29.1455 Y20.5605
G01 X29.1250 Y20.5641
G01 X29.1046 Y20.5686
G01 X29.0284 Y20.5877
G01 X29.0083 Y20.5933
G01 X28.9885 Y20.5998
G01 X28.9146 Y20.6263
G01 X28.8951 Y20.6338
G01 X28.8760 Y20.6423
G01 X28.8050 Y20.6758
G01 X28.7864 Y20.6852
G01 X28.7682 Y20.6955
G01 X28.7008 Y20.7359
G01 X28.6832 Y20.7470
G01 X28.6746 Y20.7529
G01 X28.6031 Y20.8058
G01 X28.5866 Y20.8187
G01 X28.5708 Y20.8323
G01 X28.5126 Y20.8850
G01 X28.4975 Y20.8994
G01 X28.4831 Y20.9146
G01 X28.4304 Y20.9727
G01 X28.4167 Y20.9885
G01 X28.4039 Y21.0050
G01 X28.3510 Y21.0765
G01 X28.3451 Y21.0851
G01 X28.3339 Y21.1028
G01 X28.2936 Y21.1701
G01 X28.2833 Y21.1883
G01 X28.2739 Y21.2069
G01 X28.2403 Y21.2779
G01 X28.2360 Y21.2874
G01 X28.2280 Y21.3067
G01 X28.1979 Y21.3904
G01 X28.1913 Y21.4102
G01 X28.1858 Y21.4304
G01 X28.1667 Y21.5065
G01 X28.1621 Y21.5269
G01 X28.1585 Y21.5475
G01 X28.1470 Y21.6251
G01 X28.1445 Y21.6459
G01 X28.1429 Y21.6667
G01 X28.1391 Y21.7451
G01 X28.1386 Y21.7660
G01 X28.1391 Y21.7868
G01 X28.1429 Y21.8653
G01 X28.1445 Y21.8861
G01 X28.1470 Y21.9068
G01 X28.1585 Y21.9845
G01 X28.1621 Y22.0050
G01 X28.1667 Y22.0254
G01 X28.1858 Y22.1016
G01 X28.1913 Y22.1217
G01 X28.1979 Y22.1415
G01 X28.2243 Y22.2154
G01 X28.2319 Y22.2349
G01 X28.2403 Y22.2540
G01 X28.2785 Y22.3344
G01 X28.2833 Y22.3436
G01 X28.2936 Y22.3618
G01 X28.3339 Y22.4292
G01 X28.3451 Y22.4468
G01 X28.3571 Y22.4639
G01 X28.4039 Y22.5269
G01 X28.4167 Y22.5434
G01 X28.4304 Y22.5592
G01 X28.4831 Y22.6174
G01 X28.4975 Y22.6325
G01 X28.5126 Y22.6469
G01 X28.5708 Y22.6996
G01 X28.5866 Y22.7133
G01 X28.6031 Y22.7261
G01 X28.6661 Y22.7729
G01 X28.6832 Y22.7849
G01 X28.7008 Y22.7961
G01 X28.7682 Y22.8364
G01 X28.7864 Y22.8467
G01 X28.8050 Y22.8561
G01 X28.8760 Y22.8897
G01 X28.8951 Y22.8981
G01 X28.9146 Y22.9057
G01 X28.9885 Y22.9321
G01 X29.0083 Y22.9387
G01 X29.0284 Y22.9442
G01 X29.1046 Y22.9633
G01 X29.1250 Y22.9679
G01 X29.1455 Y22.9715
G01 X29.2232 Y22.9830
G01 X29.2439 Y22.9855
G01 X29.2647 Y22.9871
G01 X29.3432 Y22.9909
G01 X29.3640 Y22.9914
G01 X29.3849 Y22.9909
G01 X29.4633 Y22.9871
G01 X29.4841 Y22.9855
G01 X29.5049 Y22.9830
G01 X29.5825 Y22.9715
G01 X29.6031 Y22.9679
G01 X29.6235 Y22.9633
G01 X29.6996 Y22.9442
G01 X29.7198 Y22.9387
G01 X29.7297 Y22.9355
G01 X29.8233 Y22.9020
G01 X29.8330 Y22.8981
G01 X29.8521 Y22.8897
G01 X29.9231 Y22.8561
G01 X29.9417 Y22.8467
G01 X29.9599 Y22.8364
G01 X30.0272 Y22.7961
G01 X30.0449 Y22.7849
G01 X30.0535 Y22.7790
G01 X30.1250 Y22.7261
G01 X30.1333 Y22.7198
G01 X30.1494 Y22.7065
G01 X30.2231 Y22.6398
G01 X30.2379 Y22.6250
G01 X30.2683 Y22.5916
G01 X31.2303 Y22.5916
G01 X31.2329 Y22.6453
G01 X31.2345 Y22.6661
G01 X31.2370 Y22.6868
G01 X31.2502 Y22.7748
G01 X31.2521 Y22.7850
G01 X31.2567 Y22.8054
G01 X31.2758 Y22.8816
G01 X31.2813 Y22.9017
G01 X31.2879 Y22.9215
G01 X31.3143 Y22.9954
G01 X31.3219 Y23.0149
G01 X31.3303 Y23.0340
G01 X31.3685 Y23.1144
G01 X31.3783 Y23.1328
G01 X31.3836 Y23.1418
G01 X31.4294 Y23.2180
G01 X31.4410 Y23.2354
G01 X31.4667 Y23.2703
G01 X30.2356 Y23.2703
G01 X30.2037 Y23.2590
G01 X30.1837 Y23.2530
G01 X30.1253 Y23.2383
G01 X30.1048 Y23.2343
G01 X30.0557 Y23.2268
G01 X30.0350 Y23.2243
G01 X30.0141 Y23.2227
G01 X29.9645 Y23.2204
G01 X28.2960 Y23.2203
G01 X27.7797 Y22.7040
G01 X27.7797 Y20.3880
G01 X28.0760 Y20.0916
G01 X34.5432 Y20.0916
G01 X34.5956 Y20.1621
G01 X34.6089 Y20.1783
G01 X34.6158 Y20.1861
G01 X34.6888 Y20.2664
G01 X34.7036 Y20.2812
G01 X34.7465 Y20.3203
G01 X33.8540 Y20.3203
G01 X33.8332 Y20.3208
G01 X33.7939 Y20.3227
G01 X33.7731 Y20.3243
G01 X33.7524 Y20.3268
G01 X33.7032 Y20.3343
G01 X33.6930 Y20.3362
G01 X33.6726 Y20.3407
G01 X33.6244 Y20.3530
G01 X33.6044 Y20.3590
G01 X33.5478 Y20.3793
G01 X33.5285 Y20.3873
G01 X33.4835 Y20.4084
G01 X33.4648 Y20.4178
G01 X33.4466 Y20.4281
G01 X33.4130 Y20.4483
G01 X33.3953 Y20.4595
G01 X33.3782 Y20.4715
G01 X33.3467 Y20.4949
G01 X33.3302 Y20.5077
G01 X33.3144 Y20.5214
G01 X33.2853 Y20.5477
G01 X33.2702 Y20.5621
G01 X32.5096 Y21.3227
G01 X32.4749 Y21.3210
G01 X32.4540 Y21.3205
G01 X32.4332 Y21.3210
G01 X32.3984 Y21.3227
G01 X32.2579 Y21.1821
G01 X32.2427 Y21.1677
G01 X32.2058 Y21.1344
G01 X32.1897 Y21.1212
G01 X32.1414 Y21.0854
G01 X32.1240 Y21.0738
G01 X32.0724 Y21.0428
G01 X32.0540 Y21.0330
G01 X31.9996 Y21.0073
G01 X31.9803 Y20.9993
G01 X31.9237 Y20.9790
G01 X31.9037 Y20.9730
G01 X31.8453 Y20.9583
G01 X31.8248 Y20.9543
G01 X31.7757 Y20.9468
G01 X31.7550 Y20.9443
G01 X31.7341 Y20.9427
G01 X31.6949 Y20.9408
G01 X31.6740 Y20.9403
G01 X30.2683 Y20.9403
G00 Z1.0000
G00 X28.8325 Y20.3651
G01 F60.00
G01 Z-0.0900
G01 F500.00
G01 X28.8063 Y20.3747
G01 X28.7904 Y20.3811
G01 X28.7590 Y20.3950
G01 X28.6726 Y20.4361
G01 X28.6424 Y20.4523
G01 X28.6276 Y20.4609
G01 X28.5456 Y20.5103
G01 X28.5171 Y20.5293
G01 X28.4401 Y20.5861
G01 X28.4265 Y20.5965
G01 X28.4000 Y20.6183
G01 X28.3289 Y20.6824
G01 X28.3041 Y20.7060
G01 X28.2804 Y20.7309
G01 X28.2277 Y20.7891
G01 X28.2053 Y20.8150
G01 X28.1842 Y20.8421
G01 X28.1374 Y20.9051
G01 X28.1177 Y20.9332
G01 X28.0993 Y20.9622
G01 X28.0532 Y21.0394
G01 X28.0532 Y20.5013
G01 X28.1893 Y20.3651
G01 X28.8325 Y20.3651
G00 Z1.0000
G00 X33.0805 Y20.3651
G01 F60.00
G01 Z-0.0900
G01 F500.00
G01 X32.4540 Y20.9915
G01 X32.4390 Y20.9768
G01 X32.4264 Y20.9651
G01 X32.3845 Y20.9273
G01 X32.3579 Y20.9056
G01 X32.3127 Y20.8718
G01 X32.2847 Y20.8520
G01 X32.2557 Y20.8337
G01 X32.2072 Y20.8049
G01 X32.1769 Y20.7887
G01 X32.1260 Y20.7644
G01 X32.0947 Y20.7505
G01 X32.0627 Y20.7381
G01 X32.0095 Y20.7193
G01 X31.9766 Y20.7094
G01 X31.9219 Y20.6954
G01 X31.8885 Y20.6879
G01 X31.8547 Y20.6821
G01 X31.7988 Y20.6740
G01 X31.7647 Y20.6706
G01 X31.7083 Y20.6676
G01 X31.6740 Y20.6668
G01 X30.3819 Y20.6668
G01 X30.3281 Y20.6183
G01 X30.3016 Y20.5965
G01 X30.2249 Y20.5394
G01 X30.1968 Y20.5196
G01 X30.1824 Y20.5103
G01 X30.1005 Y20.4609
G01 X30.0857 Y20.4523
G01 X30.0554 Y20.4361
G01 X29.9534 Y20.3879
G01 X29.9217 Y20.3747
G01 X29.8955 Y20.3651
G01 X33.0805 Y20.3651
G00 Z1.0000
G00 X33.8838 Y22.9959
G01 F60.00
G01 Z-0.0900
G01 F500.00
G01 X33.8932 Y22.9646
G01 X33.9167 Y22.8719
G01 X33.9206 Y22.8552
G01 X33.9273 Y22.8215
G01 X33.9416 Y22.7269
G01 X33.9458 Y22.6929
G01 X33.9483 Y22.6587
G01 X33.9510 Y22.6034
G01 X34.3093 Y22.2451
G01 X35.9856 Y22.2451
G01 X35.9807 Y22.2704
G01 X35.9780 Y22.2873
G01 X35.9642 Y22.3820
G01 X35.9608 Y22.4161
G01 X35.9570 Y22.4885
G01 X35.4489 Y22.9967
G01 X33.8838 Y22.9959
G00 Z1.0000
G00 X33.4413 Y23.2703
G01 F60.00
G01 Z-0.0900
G01 F500.00
G01 X33.4671 Y23.2354
G01 X33.4787 Y23.2180
G01 X33.5245 Y23.1418
G01 X33.5348 Y23.1236
G01 X33.5396 Y23.1144
G01 X33.5777 Y23.0340
G01 X33.5862 Y23.0149
G01 X33.5937 Y22.9954
G01 X33.6202 Y22.9215
G01 X33.6267 Y22.9017
G01 X33.6323 Y22.8816
G01 X33.6514 Y22.8054
G01 X33.6559 Y22.7850
G01 X33.6595 Y22.7645
G01 X33.6724 Y22.6765
G01 X33.6736 Y22.6661
G01 X33.6751 Y22.6453
G01 X33.6794 Y22.5564
G01 X33.6794 Y22.5355
G01 X33.6773 Y22.4904
G01 X34.1960 Y21.9716
G01 X36.3715 Y21.9716
G01 X36.3639 Y21.9869
G01 X36.3303 Y22.0579
G01 X36.3219 Y22.0770
G01 X36.3143 Y22.0965
G01 X36.2879 Y22.1704
G01 X36.2813 Y22.1902
G01 X36.2758 Y22.2104
G01 X36.2543 Y22.2967
G01 X36.2521 Y22.3069
G01 X36.2485 Y22.3275
G01 X36.2370 Y22.4051
G01 X36.2345 Y22.4259
G01 X36.2336 Y22.4363
G01 X36.2287 Y22.5355
G01 X36.2287 Y22.5564
G01 X36.2308 Y22.6016
G01 X35.5620 Y23.2703
G01 X33.4413 Y23.2703
G00 Z1.0000
G00 X33.5532 Y27.0544
G01 F60.00
G01 Z-0.0900
G01 F500.00
G01 X33.5532 Y25.1951
G01 X35.4124 Y25.1951
G01 X33.5532 Y27.0544
G00 Z1.0000
G00 X33.2463 Y27.7480
G01 F60.00
G01 Z-0.0900
G01 F500.00
G01 X33.2593 Y27.6974
G01 X33.2638 Y27.6770
G01 X33.2674 Y27.6565
G01 X33.2732 Y27.6176
G01 X33.2757 Y27.5969
G01 X33.2766 Y27.5865
G01 X33.2792 Y27.5368
G01 X33.2797 Y27.5160
G01 X33.2797 Y24.9216
G01 X35.9040 Y24.9216
G01 X35.9249 Y24.9211
G01 X35.9641 Y24.9192
G01 X35.9746 Y24.9185
G01 X35.9953 Y24.9165
G01 X36.0548 Y24.9077
G01 X36.0753 Y24.9036
G01 X36.0958 Y24.8986
G01 X33.2463 Y27.7480
G00 Z1.0000
G00 X29.6466 Y28.7690
G01 F60.00
G01 Z-0.0900
G01 F500.00
G01 X29.5913 Y28.7717
G01 X29.5571 Y28.7742
G01 X29.5231 Y28.7784
G01 X29.4454 Y28.7899
G01 X29.4285 Y28.7927
G01 X29.3948 Y28.7994
G01 X29.2854 Y28.8268
G01 X29.2689 Y28.8315
G01 X29.2363 Y28.8423
G01 X29.1624 Y28.8688
G01 X29.1304 Y28.8811
G01 X29.0990 Y28.8950
G01 X29.0281 Y28.9286
G01 X29.0126 Y28.9361
G01 X28.9824 Y28.9523
G01 X28.8856 Y29.0103
G01 X28.8571 Y29.0293
G01 X28.8432 Y29.0394
G01 X28.7801 Y29.0861
G01 X28.7531 Y29.1072
G01 X28.7271 Y29.1297
G01 X28.6689 Y29.1824
G01 X28.6441 Y29.2060
G01 X28.6321 Y29.2183
G01 X28.5564 Y29.3019
G01 X28.5346 Y29.3284
G01 X28.5242 Y29.3421
G01 X28.4674 Y29.4190
G01 X28.4483 Y29.4476
G01 X28.4393 Y29.4622
G01 X28.3990 Y29.5295
G01 X28.3821 Y29.5594
G01 X28.3666 Y29.5900
G01 X28.3331 Y29.6610
G01 X28.3192 Y29.6923
G01 X28.3068 Y29.7243
G01 X28.2804 Y29.7983
G01 X28.2748 Y29.8145
G01 X28.2648 Y29.8473
G01 X28.2374 Y29.9568
G01 X28.2307 Y29.9904
G01 X28.2280 Y30.0073
G01 X28.2165 Y30.0850
G01 X28.2123 Y30.1190
G01 X28.2098 Y30.1533
G01 X28.2059 Y30.2317
G01 X28.2051 Y30.2660
G01 X28.2053 Y30.2831
G01 X28.2108 Y30.3958
G01 X28.2142 Y30.4299
G01 X28.2165 Y30.4469
G01 X28.2280 Y30.5246
G01 X28.2339 Y30.5584
G01 X28.2414 Y30.5919
G01 X28.2605 Y30.6680
G01 X28.2648 Y30.6846
G01 X28.2746 Y30.7168
G01 X26.1335 Y30.7168
G01 X26.1432 Y30.6846
G01 X26.1667 Y30.5919
G01 X26.1706 Y30.5752
G01 X26.1773 Y30.5415
G01 X26.1916 Y30.4469
G01 X26.1958 Y30.4129
G01 X26.1983 Y30.3787
G01 X26.2010 Y30.3234
G01 X28.9587 Y27.5657
G01 X28.9824 Y27.5797
G01 X28.9974 Y27.5879
G01 X29.0281 Y27.6034
G01 X29.1146 Y27.6441
G01 X29.1463 Y27.6572
G01 X29.2363 Y27.6896
G01 X29.2689 Y27.7004
G01 X29.3020 Y27.7095
G01 X29.3781 Y27.7286
G01 X29.4116 Y27.7361
G01 X29.4454 Y27.7420
G01 X29.5231 Y27.7535
G01 X29.5571 Y27.7577
G01 X29.5913 Y27.7602
G01 X29.6869 Y27.7647
G01 X29.7212 Y27.7647
G01 X29.8167 Y27.7602
G01 X29.8510 Y27.7577
G01 X29.8850 Y27.7535
G01 X29.9627 Y27.7420
G01 X29.9965 Y27.7361
G01 X30.0299 Y27.7286
G01 X30.1061 Y27.7095
G01 X30.1392 Y27.7004
G01 X30.1717 Y27.6896
G01 X30.2457 Y27.6632
G01 X30.2777 Y27.6508
G01 X30.3090 Y27.6369
G01 X30.3954 Y27.5958
G01 X30.4257 Y27.5797
G01 X30.4405 Y27.5710
G01 X30.5224 Y27.5217
G01 X30.5510 Y27.5026
G01 X30.6279 Y27.4458
G01 X30.6550 Y27.4247
G01 X30.6809 Y27.4023
G01 X30.7517 Y27.3379
G01 X30.7759 Y27.3136
G01 X30.8403 Y27.2429
G01 X30.8628 Y27.2169
G01 X30.8839 Y27.1899
G01 X30.9306 Y27.1268
G01 X30.9504 Y27.0988
G01 X30.9687 Y27.0698
G01 X31.0091 Y27.0024
G01 X31.0260 Y26.9726
G01 X31.0414 Y26.9419
G01 X31.0750 Y26.8710
G01 X31.0889 Y26.8396
G01 X31.1012 Y26.8076
G01 X31.1277 Y26.7337
G01 X31.1385 Y26.7011
G01 X31.1476 Y26.6680
G01 X31.1667 Y26.5919
G01 X31.1742 Y26.5584
G01 X31.1801 Y26.5246
G01 X31.1916 Y26.4469
G01 X31.1958 Y26.4129
G01 X31.1983 Y26.3787
G01 X31.2022 Y26.3003
G01 X31.2030 Y26.2660
G01 X31.2022 Y26.2317
G01 X31.1983 Y26.1533
G01 X31.1958 Y26.1190
G01 X31.1916 Y26.0850
G01 X31.1801 Y26.0073
G01 X31.1742 Y25.9735
G01 X31.1667 Y25.9401
G01 X31.1476 Y25.8639
G01 X31.1385 Y25.8308
G01 X31.1277 Y25.7983
G01 X31.1012 Y25.7243
G01 X31.0889 Y25.6923
G01 X31.0750 Y25.6610
G01 X31.0414 Y25.5900
G01 X31.0260 Y25.5594
G01 X31.0091 Y25.5295
G01 X30.9687 Y25.4622
G01 X30.9504 Y25.4332
G01 X30.9306 Y25.4051
G01 X30.8839 Y25.3421
G01 X30.8628 Y25.3150
G01 X30.8403 Y25.2891
G01 X30.7876 Y25.2309
G01 X30.7759 Y25.2183
G01 X30.7528 Y25.1951
G01 X31.3549 Y25.1951
G01 X31.3549 Y27.0607
G01 X29.6466 Y28.7690
G00 Z1.0000
G00 X33.6724 Y36.9066
G01 F60.00
G01 Z-0.0900
G01 F500.00
G01 X33.6575 Y36.9081
G01 X33.4540 Y36.9179
G01 X33.2431 Y36.9076
G01 X33.0342 Y36.8766
G01 X32.8294 Y36.8253
G01 X32.6305 Y36.7541
G01 X32.4396 Y36.6638
G01 X32.2585 Y36.5552
G01 X32.0888 Y36.4294
G01 X31.9324 Y36.2876
G01 X31.7906 Y36.1312
G01 X31.6648 Y35.9615
G01 X31.5562 Y35.7804
G01 X31.4659 Y35.5895
G01 X31.3947 Y35.3906
G01 X31.3434 Y35.1858
G01 X31.3124 Y34.9769
G01 X31.3021 Y34.7660
G01 X31.3124 Y34.5550
G01 X31.3434 Y34.3461
G01 X31.3947 Y34.1413
G01 X31.4659 Y33.9425
G01 X31.5562 Y33.7515
G01 X31.6648 Y33.5704
G01 X31.7906 Y33.4008
G01 X31.9324 Y33.2443
G01 X32.0888 Y33.1025
G01 X32.2585 Y32.9767
G01 X32.4396 Y32.8681
G01 X32.6305 Y32.7778
G01 X32.8294 Y32.7067
G01 X33.0342 Y32.6554
G01 X33.2431 Y32.6244
G01 X33.4540 Y32.6140
G01 X33.6650 Y32.6244
G01 X33.8739 Y32.6554
G01 X34.0787 Y32.7067
G01 X34.2775 Y32.7778
G01 X34.4685 Y32.8681
G01 X34.6496 Y32.9767
G01 X34.8192 Y33.1025
G01 X34.9757 Y33.2443
G01 X35.1175 Y33.4008
G01 X35.2433 Y33.5704
G01 X35.3519 Y33.7515
G01 X35.4422 Y33.9425
G01 X35.5133 Y34.1413
G01 X35.5646 Y34.3461
G01 X35.5956 Y34.5550
G01 X35.6060 Y34.7660
G01 X35.5956 Y34.9769
G01 X35.5646 Y35.1858
G01 X35.5133 Y35.3906
G01 X35.4422 Y35.5895
G01 X35.3519 Y35.7804
G01 X35.2433 Y35.9615
G01 X35.1175 Y36.1312
G01 X34.9757 Y36.2876
G01 X34.8192 Y36.4294
G01 X34.6496 Y36.5552
G01 X34.4685 Y36.6638
G01 X34.2775 Y36.7541
G01 X34.0787 Y36.8253
G01 X33.8739 Y36.8766
G01 X33.6724 Y36.9066
G00 Z1.0000
G00 X33.7125 Y37.1772
G01 F60.00
G01 Z-0.0900
G01 F500.00
G01 X33.6918 Y37.1797
G01 X33.6709 Y37.1813
G01 X33.4749 Y37.1909
G01 X33.4540 Y37.1914
G01 X33.4332 Y37.1909
G01 X33.2371 Y37.1813
G01 X33.2163 Y37.1797
G01 X33.1956 Y37.1772
G01 X33.0014 Y37.1484
G01 X32.9808 Y37.1448
G01 X32.9605 Y37.1402
G01 X32.7701 Y37.0926
G01 X32.7500 Y37.0870
G01 X32.7301 Y37.0804
G01 X32.5453 Y37.0143
G01 X32.5258 Y37.0068
G01 X32.5068 Y36.9983
G01 X32.3293 Y36.9144
G01 X32.3107 Y36.9050
G01 X32.2925 Y36.8947
G01 X32.1242 Y36.7938
G01 X32.1065 Y36.7827
G01 X32.0894 Y36.7706
G01 X31.9318 Y36.6537
G01 X31.9153 Y36.6409
G01 X31.8995 Y36.6272
G01 X31.7541 Y36.4954
G01 X31.7390 Y36.4810
G01 X31.7246 Y36.4659
G01 X31.5928 Y36.3205
G01 X31.5791 Y36.3047
G01 X31.5663 Y36.2882
G01 X31.4494 Y36.1306
G01 X31.4373 Y36.1135
G01 X31.4262 Y36.0958
G01 X31.3253 Y35.9275
G01 X31.3150 Y35.9093
G01 X31.3056 Y35.8907
G01 X31.2217 Y35.7132
G01 X31.2132 Y35.6942
G01 X31.2057 Y35.6747
G01 X31.1396 Y35.4899
G01 X31.1330 Y35.4700
G01 X31.1274 Y35.4499
G01 X31.0798 Y35.2595
G01 X31.0752 Y35.2392
G01 X31.0716 Y35.2186
G01 X31.0428 Y35.0244
G01 X31.0403 Y35.0037
G01 X31.0387 Y34.9829
G01 X31.0291 Y34.7868
G01 X31.0286 Y34.7660
G01 X31.0291 Y34.7451
G01 X31.0387 Y34.5491
G01 X31.0403 Y34.5282
G01 X31.0428 Y34.5075
G01 X31.0716 Y34.3134
G01 X31.0752 Y34.2928
G01 X31.0798 Y34.2724
G01 X31.1274 Y34.0820
G01 X31.1330 Y34.0619
G01 X31.1396 Y34.0421
G01 X31.2057 Y33.8573
G01 X31.2132 Y33.8378
G01 X31.2217 Y33.8187
G01 X31.3056 Y33.6413
G01 X31.3150 Y33.6226
G01 X31.3253 Y33.6044
G01 X31.4262 Y33.4361
G01 X31.4373 Y33.4185
G01 X31.4494 Y33.4014
G01 X31.5663 Y33.2437
G01 X31.5791 Y33.2273
G01 X31.5928 Y33.2115
G01 X31.7246 Y33.0660
G01 X31.7390 Y33.0509
G01 X31.7541 Y33.0365
G01 X31.8995 Y32.9047
G01 X31.9153 Y32.8911
G01 X31.9318 Y32.8782
G01 X32.0894 Y32.7613
G01 X32.1065 Y32.7493
G01 X32.1242 Y32.7381
G01 X32.2925 Y32.6372
G01 X32.3107 Y32.6269
G01 X32.3293 Y32.6175
G01 X32.5068 Y32.5336
G01 X32.5258 Y32.5251
G01 X32.5453 Y32.5176
G01 X32.7301 Y32.4515
G01 X32.7500 Y32.4449
G01 X32.7701 Y32.4394
G01 X32.9605 Y32.3917
G01 X32.9808 Y32.3871
G01 X33.0014 Y32.3835
G01 X33.1956 Y32.3547
G01 X33.2163 Y32.3522
G01 X33.2371 Y32.3507
G01 X33.4332 Y32.3410
G01 X33.4540 Y32.3405
G01 X33.4749 Y32.3410
G01 X33.6709 Y32.3507
G01 X33.6918 Y32.3522
G01 X33.7125 Y32.3547
G01 X33.9066 Y32.3835
G01 X33.9272 Y32.3871
G01 X33.9476 Y32.3917
G01 X34.1380 Y32.4394
G01 X34.1581 Y32.4449
G01 X34.1779 Y32.4515
G01 X34.3627 Y32.5176
G01 X34.3822 Y32.5251
G01 X34.4013 Y32.5336
G01 X34.5787 Y32.6175
G01 X34.5974 Y32.6269
G01 X34.6156 Y32.6372
G01 X34.7839 Y32.7381
G01 X34.8015 Y32.7493
G01 X34.8186 Y32.7613
G01 X34.9763 Y32.8782
G01 X34.9927 Y32.8911
G01 X35.0085 Y32.9047
G01 X35.1540 Y33.0365
G01 X35.1691 Y33.0509
G01 X35.1835 Y33.0660
G01 X35.3153 Y33.2115
G01 X35.3289 Y33.2273
G01 X35.3418 Y33.2437
G01 X35.4587 Y33.4014
G01 X35.4707 Y33.4185
G01 X35.4819 Y33.4361
G01 X35.5828 Y33.6044
G01 X35.5931 Y33.6226
G01 X35.6025 Y33.6413
G01 X35.6864 Y33.8187
G01 X35.6949 Y33.8378
G01 X35.7024 Y33.8573
G01 X35.7685 Y34.0421
G01 X35.7751 Y34.0619
G01 X35.7806 Y34.0820
G01 X35.8283 Y34.2724
G01 X35.8329 Y34.2928
G01 X35.8365 Y34.3134
G01 X35.8653 Y34.5075
G01 X35.8678 Y34.5282
G01 X35.8693 Y34.5491
G01 X35.8790 Y34.7451
G01 X35.8795 Y34.7660
G01 X35.8790 Y34.7868
G01 X35.8693 Y34.9829
G01 X35.8678 Y35.0037
G01 X35.8653 Y35.0244
G01 X35.8365 Y35.2186
G01 X35.8329 Y35.2392
G01 X35.8283 Y35.2595
G01 X35.7806 Y35.4499
G01 X35.7751 Y35.4700
G01 X35.7685 Y35.4899
G01 X35.7024 Y35.6747
G01 X35.6949 Y35.6942
G01 X35.6864 Y35.7132
G01 X35.6025 Y35.8907
G01 X35.5931 Y35.9093
G01 X35.5828 Y35.9275
G01 X35.4819 Y36.0958
G01 X35.4707 Y36.1135
G01 X35.4587 Y36.1306
G01 X35.3418 Y36.2882
G01 X35.3289 Y36.3047
G01 X35.3153 Y36.3205
G01 X35.1835 Y36.4659
G01 X35.1691 Y36.4810
G01 X35.1540 Y36.4954
G01 X35.0085 Y36.6272
G01 X34.9927 Y36.6409
G01 X34.9763 Y36.6537
G01 X34.8186 Y36.7706
G01 X34.8015 Y36.7827
G01 X34.7839 Y36.7938
G01 X34.6156 Y36.8947
G01 X34.5974 Y36.9050
G01 X34.5787 Y36.9144
G01 X34.4013 Y36.9983
G01 X34.3822 Y37.0068
G01 X34.3627 Y37.0143
G01 X34.1779 Y37.0804
G01 X34.1581 Y37.0870
G01 X34.1380 Y37.0926
G01 X33.9476 Y37.1402
G01 X33.9272 Y37.1448
G01 X33.9066 Y37.1484
G01 X33.7125 Y37.1772
G00 Z1.0000
G00 X33.7526 Y37.4477
G01 F60.00
G01 Z-0.0900
G01 F500.00
G01 X33.7186 Y37.4519
G01 X33.6844 Y37.4545
G01 X33.4883 Y37.4641
G01 X33.4540 Y37.4649
G01 X33.4197 Y37.4641
G01 X33.2237 Y37.4545
G01 X33.1895 Y37.4519
G01 X33.1554 Y37.4477
G01 X32.9613 Y37.4189
G01 X32.9275 Y37.4131
G01 X32.8940 Y37.4056
G01 X32.7036 Y37.3579
G01 X32.6706 Y37.3487
G01 X32.6380 Y37.3380
G01 X32.4532 Y37.2718
G01 X32.4212 Y37.2595
G01 X32.3898 Y37.2456
G01 X32.2124 Y37.1617
G01 X32.1817 Y37.1462
G01 X32.1519 Y37.1293
G01 X31.9835 Y37.0284
G01 X31.9546 Y37.0101
G01 X31.9265 Y36.9903
G01 X31.7689 Y36.8734
G01 X31.7418 Y36.8523
G01 X31.7158 Y36.8299
G01 X31.5704 Y36.6981
G01 X31.5456 Y36.6744
G01 X31.5219 Y36.6496
G01 X31.3901 Y36.5042
G01 X31.3677 Y36.4782
G01 X31.3466 Y36.4511
G01 X31.2297 Y36.2935
G01 X31.2099 Y36.2654
G01 X31.1916 Y36.2365
G01 X31.0907 Y36.0681
G01 X31.0738 Y36.0383
G01 X31.0583 Y36.0076
G01 X30.9744 Y35.8302
G01 X30.9605 Y35.7988
G01 X30.9482 Y35.7668
G01 X30.8820 Y35.5820
G01 X30.8713 Y35.5494
G01 X30.8621 Y35.5164
G01 X30.8144 Y35.3260
G01 X30.8069 Y35.2925
G01 X30.8011 Y35.2587
