(G-CODE GENERATED BY FLATCAM v8.994 - www.flatcam.org - Version Date: 2020/11/7)

(Name: SolarModular-PTH.drl_edit_cnc)
(Type: G-code from Geometry)
(Units: MM)

(Created on Wednesday, 12 June 2024 at 15:42)

(This preprocessor is the default preprocessor used by FlatCAM.)
(It is made to work with MACH3 compatible motion controllers.)


(TOOLS DIAMETER: )
(Tool: 1 -> Dia: 0.8)
(Tool: 2 -> Dia: 3.0)

(FEEDRATE Z: )
(Tool: 1 -> Feedrate: 300)
(Tool: 2 -> Feedrate: 300)

(FEEDRATE RAPIDS: )
(Tool: 1 -> Feedrate Rapids: 1500)
(Tool: 2 -> Feedrate Rapids: 1500)

(Z_CUT: )
(Tool: 1 -> Z_Cut: -1.7)
(Tool: 2 -> Z_Cut: -1.7)

(Tools Offset: )
(Tool: 1 -> Offset Z: 0.0)

(Z_MOVE: )
(Tool: 1 -> Z_Move: 2)
(Tool: 2 -> Z_Move: 2)

(Z Toolchange: 15 mm)
(X,Y Toolchange: 0.0000, 0.0000 mm)
(Z Start: None mm)
(Z End: 0.5 mm)
(X,Y End: None mm)
(Steps per circle: 64)
(Preprocessor Excellon: default)

(X range:    3.3040 ...   51.8540  mm)
(Y range:    3.3660 ...  123.1960  mm)

(Spindle Speed: 0 RPM)
G21
G90
G94

G01 F300.00

M5
G00 Z15.0000
T1
G00 X0.0000 Y0.0000                
M6
(MSG, Change to Tool Dia = 0.8000 ||| Total drills for tool T1 = 132)
M0
G00 Z15.0000

G01 F300.00
M03
G00 X35.9540 Y117.0460
G01 Z-1.7000
G01 Z0
G00 Z2.0000
G00 X40.2040 Y110.7960
G01 Z-1.7000
G01 Z0
G00 Z2.0000
G00 X40.8760 Y112.7960
G01 Z-1.7000
G01 Z0
G00 Z2.0000
G00 X45.8760 Y112.7960
G01 Z-1.7000
G01 Z0
G00 Z2.0000
G00 X46.5480 Y114.7960
G01 Z-1.7000
G01 Z0
G00 Z2.0000
G00 X51.4540 Y119.0460
G01 Z-1.7000
G01 Z0
G00 Z2.0000
G00 X51.4540 Y103.7960
G01 Z-1.7000
G01 Z0
G00 Z2.0000
G00 X46.4540 Y100.2960
G01 Z-1.7000
G01 Z0
G00 Z2.0000
G00 X45.7820 Y98.2960
G01 Z-1.7000
G01 Z0
G00 Z2.0000
G00 X40.7820 Y98.2960
G01 Z-1.7000
G01 Z0
G00 Z2.0000
G00 X40.1100 Y96.2960
G01 Z-1.7000
G01 Z0
G00 Z2.0000
G00 X47.2840 Y89.7960
G01 Z-1.7000
G01 Z0
G00 Z2.0000
G00 X51.4540 Y90.0460
G01 Z-1.7000
G01 Z0
G00 Z2.0000
G00 X47.2840 Y83.2660
G01 Z-1.7000
G01 Z0
G00 Z2.0000
G00 X51.4540 Y77.5460
G01 Z-1.7000
G01 Z0
G00 Z2.0000
G00 X51.4540 Y49.5460
G01 Z-1.7000
G01 Z0
G00 Z2.0000
G00 X51.4540 Y22.0460
G01 Z-1.7000
G01 Z0
G00 Z2.0000
G00 X45.4540 Y24.5460
G01 Z-1.7000
G01 Z0
G00 Z2.0000
G00 X45.4540 Y22.0060
G01 Z-1.7000
G01 Z0
G00 Z2.0000
G00 X45.4540 Y19.4660
G01 Z-1.7000
G01 Z0
G00 Z2.0000
G00 X43.2040 Y19.2660
G01 Z-1.7000
G01 Z0
G00 Z2.0000
G00 X39.8640 Y26.2660
G01 Z-1.7000
G01 Z0
G00 Z2.0000
G00 X37.4540 Y22.5460
G01 Z-1.7000
G01 Z0
G00 Z2.0000
G00 X39.4540 Y19.2660
G01 Z-1.7000
G01 Z0
G00 Z2.0000
G00 X35.7040 Y19.2660
G01 Z-1.7000
G01 Z0
G00 Z2.0000
G00 X32.4540 Y22.5460
G01 Z-1.7000
G01 Z0
G00 Z2.0000
G00 X29.7040 Y26.2660
G01 Z-1.7000
G01 Z0
G00 Z2.0000
G00 X29.7040 Y30.2660
G01 Z-1.7000
G01 Z0
G00 Z2.0000
G00 X24.7040 Y30.2660
G01 Z-1.7000
G01 Z0
G00 Z2.0000
G00 X29.3640 Y21.7660
G01 Z-1.7000
G01 Z0
G00 Z2.0000
G00 X30.8760 Y16.2660
G01 Z-1.7000
G01 Z0
G00 Z2.0000
G00 X30.2040 Y14.2660
G01 Z-1.7000
G01 Z0
G00 Z2.0000
G00 X25.2040 Y14.2660
G01 Z-1.7000
G01 Z0
G00 Z2.0000
G00 X24.5320 Y12.2660
G01 Z-1.7000
G01 Z0
G00 Z2.0000
G00 X28.9690 Y3.7660
G01 Z-1.7000
G01 Z0
G00 Z2.0000
G00 X26.4290 Y3.7660
G01 Z-1.7000
G01 Z0
G00 Z2.0000
G00 X5.2040 Y8.7960
G01 Z-1.7000
G01 Z0
G00 Z2.0000
G00 X5.2040 Y15.8860
G01 Z-1.7000
G01 Z0
G00 Z2.0000
G00 X12.2040 Y19.1910
G01 Z-1.7000
G01 Z0
G00 Z2.0000
G00 X15.9540 Y19.1910
G01 Z-1.7000
G01 Z0
G00 Z2.0000
G00 X19.7040 Y19.1910
G01 Z-1.7000
G01 Z0
G00 Z2.0000
G00 X19.2040 Y21.7660
G01 Z-1.7000
G01 Z0
G00 Z2.0000
G00 X21.2040 Y26.2660
G01 Z-1.7000
G01 Z0
G00 Z2.0000
G00 X16.2040 Y26.2660
G01 Z-1.7000
G01 Z0
G00 Z2.0000
G00 X13.7040 Y26.2660
G01 Z-1.7000
G01 Z0
G00 Z2.0000
G00 X8.7040 Y26.2660
G01 Z-1.7000
G01 Z0
G00 Z2.0000
G00 X5.2040 Y26.0460
G01 Z-1.7000
G01 Z0
G00 Z2.0000
G00 X5.2040 Y34.5460
G01 Z-1.7000
G01 Z0
G00 Z2.0000
G00 X5.2040 Y39.1360
G01 Z-1.7000
G01 Z0
G00 Z2.0000
G00 X11.9540 Y45.0460
G01 Z-1.7000
G01 Z0
G00 Z2.0000
G00 X15.7040 Y45.0460
G01 Z-1.7000
G01 Z0
G00 Z2.0000
G00 X19.4540 Y45.0460
G01 Z-1.7000
G01 Z0
G00 Z2.0000
G00 X22.2040 Y45.2660
G01 Z-1.7000
G01 Z0
G00 Z2.0000
G00 X23.2040 Y49.2660
G01 Z-1.7000
G01 Z0
G00 Z2.0000
G00 X25.7040 Y49.2660
G01 Z-1.7000
G01 Z0
G00 Z2.0000
G00 X32.3640 Y45.2660
G01 Z-1.7000
G01 Z0
G00 Z2.0000
G00 X35.9540 Y45.2660
G01 Z-1.7000
G01 Z0
G00 Z2.0000
G00 X39.7040 Y45.2660
G01 Z-1.7000
G01 Z0
G00 Z2.0000
G00 X43.4540 Y45.2660
G01 Z-1.7000
G01 Z0
G00 Z2.0000
G00 X45.2040 Y47.0060
G01 Z-1.7000
G01 Z0
G00 Z2.0000
G00 X45.2040 Y49.5460
G01 Z-1.7000
G01 Z0
G00 Z2.0000
G00 X45.2040 Y52.0860
G01 Z-1.7000
G01 Z0
G00 Z2.0000
G00 X41.3640 Y53.7660
G01 Z-1.7000
G01 Z0
G00 Z2.0000
G00 X38.2040 Y49.2660
G01 Z-1.7000
G01 Z0
G00 Z2.0000
G00 X33.2040 Y49.2660
G01 Z-1.7000
G01 Z0
G00 Z2.0000
G00 X30.7040 Y49.2660
G01 Z-1.7000
G01 Z0
G00 Z2.0000
G00 X31.2040 Y53.7660
G01 Z-1.7000
G01 Z0
G00 Z2.0000
G00 X18.2040 Y49.2660
G01 Z-1.7000
G01 Z0
G00 Z2.0000
G00 X15.7040 Y49.2660
G01 Z-1.7000
G01 Z0
G00 Z2.0000
G00 X10.7040 Y49.2660
G01 Z-1.7000
G01 Z0
G00 Z2.0000
G00 X5.2040 Y49.2960
G01 Z-1.7000
G01 Z0
G00 Z2.0000
G00 X5.2040 Y62.2960
G01 Z-1.7000
G01 Z0
G00 Z2.0000
G00 X5.2040 Y68.1360
G01 Z-1.7000
G01 Z0
G00 Z2.0000
G00 X11.8740 Y72.7660
G01 Z-1.7000
G01 Z0
G00 Z2.0000
G00 X15.6240 Y72.7660
G01 Z-1.7000
G01 Z0
G00 Z2.0000
G00 X19.3740 Y72.7660
G01 Z-1.7000
G01 Z0
G00 Z2.0000
G00 X22.6240 Y74.2660
G01 Z-1.7000
G01 Z0
G00 Z2.0000
G00 X24.1240 Y78.2660
G01 Z-1.7000
G01 Z0
G00 Z2.0000
G00 X26.6240 Y78.2660
G01 Z-1.7000
G01 Z0
G00 Z2.0000
G00 X31.6240 Y78.2660
G01 Z-1.7000
G01 Z0
G00 Z2.0000
G00 X34.6240 Y78.2660
G01 Z-1.7000
G01 Z0
G00 Z2.0000
G00 X32.7840 Y74.2660
G01 Z-1.7000
G01 Z0
G00 Z2.0000
G00 X35.3740 Y72.7660
G01 Z-1.7000
G01 Z0
G00 Z2.0000
G00 X39.1240 Y72.7660
G01 Z-1.7000
G01 Z0
G00 Z2.0000
G00 X42.8740 Y72.7660
G01 Z-1.7000
G01 Z0
G00 Z2.0000
G00 X44.6240 Y74.9660
G01 Z-1.7000
G01 Z0
G00 Z2.0000
G00 X44.6240 Y77.5060
G01 Z-1.7000
G01 Z0
G00 Z2.0000
G00 X44.6240 Y80.0460
G01 Z-1.7000
G01 Z0
G00 Z2.0000
G00 X39.6240 Y78.2660
G01 Z-1.7000
G01 Z0
G00 Z2.0000
G00 X37.1240 Y83.2660
G01 Z-1.7000
G01 Z0
G00 Z2.0000
G00 X37.1240 Y89.7960
G01 Z-1.7000
G01 Z0
G00 Z2.0000
G00 X31.2980 Y92.2960
G01 Z-1.7000
G01 Z0
G00 Z2.0000
G00 X30.6260 Y90.2960
G01 Z-1.7000
G01 Z0
G00 Z2.0000
G00 X25.6260 Y90.2960
G01 Z-1.7000
G01 Z0
G00 Z2.0000
G00 X24.9540 Y88.2960
G01 Z-1.7000
G01 Z0
G00 Z2.0000
G00 X19.1240 Y78.2660
G01 Z-1.7000
G01 Z0
G00 Z2.0000
G00 X16.6240 Y78.2660
G01 Z-1.7000
G01 Z0
G00 Z2.0000
G00 X11.6240 Y78.2660
G01 Z-1.7000
G01 Z0
G00 Z2.0000
G00 X5.2040 Y78.2960
G01 Z-1.7000
G01 Z0
G00 Z2.0000
G00 X3.9240 Y85.2960
G01 Z-1.7000
G01 Z0
G00 Z2.0000
G00 X3.9240 Y89.0460
G01 Z-1.7000
G01 Z0
G00 Z2.0000
G00 X3.9240 Y92.7960
G01 Z-1.7000
G01 Z0
G00 Z2.0000
G00 X3.9540 Y100.6860
G01 Z-1.7000
G01 Z0
G00 Z2.0000
G00 X8.6100 Y102.7960
G01 Z-1.7000
G01 Z0
G00 Z2.0000
G00 X9.2820 Y104.7960
G01 Z-1.7000
G01 Z0
G00 Z2.0000
G00 X14.2820 Y104.7960
G01 Z-1.7000
G01 Z0
G00 Z2.0000
G00 X14.9540 Y106.7960
G01 Z-1.7000
G01 Z0
G00 Z2.0000
G00 X3.7040 Y110.0460
G01 Z-1.7000
G01 Z0
G00 Z2.0000
G00 X3.9540 Y119.0460
G01 Z-1.7000
G01 Z0
G00 Z2.0000
G00 X8.2650 Y116.2960
G01 Z-1.7000
G01 Z0
G00 Z2.0000
G00 X8.9370 Y118.2960
G01 Z-1.7000
G01 Z0
G00 Z2.0000
G00 X13.9370 Y118.2960
G01 Z-1.7000
G01 Z0
G00 Z2.0000
G00 X14.6090 Y120.2960
G01 Z-1.7000
G01 Z0
G00 Z2.0000
G00 X20.9540 Y116.4560
G01 Z-1.7000
G01 Z0
G00 Z2.0000
G00 X24.6290 Y116.1610
G01 Z-1.7000
G01 Z0
G00 Z2.0000
G00 X24.6290 Y113.6210
G01 Z-1.7000
G01 Z0
G00 Z2.0000
G00 X24.6290 Y111.0810
G01 Z-1.7000
G01 Z0
G00 Z2.0000
G00 X24.6290 Y108.5410
G01 Z-1.7000
G01 Z0
G00 Z2.0000
G00 X20.9540 Y106.2960
G01 Z-1.7000
G01 Z0
G00 Z2.0000
G00 X24.6290 Y106.0010
G01 Z-1.7000
G01 Z0
G00 Z2.0000
G00 X24.6290 Y103.4610
G01 Z-1.7000
G01 Z0
G00 Z2.0000
G00 X24.6290 Y100.9210
G01 Z-1.7000
G01 Z0
G00 Z2.0000
G00 X32.2490 Y100.9210
G01 Z-1.7000
G01 Z0
G00 Z2.0000
G00 X32.2490 Y103.4610
G01 Z-1.7000
G01 Z0
G00 Z2.0000
G00 X32.2490 Y106.0010
G01 Z-1.7000
G01 Z0
G00 Z2.0000
G00 X35.9540 Y106.8860
G01 Z-1.7000
G01 Z0
G00 Z2.0000
G00 X32.2490 Y108.5410
G01 Z-1.7000
G01 Z0
G00 Z2.0000
G00 X32.2490 Y111.0810
G01 Z-1.7000
G01 Z0
G00 Z2.0000
G00 X32.2490 Y113.6210
G01 Z-1.7000
G01 Z0
G00 Z2.0000
G00 X32.2490 Y116.1610
G01 Z-1.7000
G01 Z0
G00 Z2.0000
G00 X27.4390 Y122.7960
G01 Z-1.7000
G01 Z0
G00 Z2.0000
G00 X29.9790 Y122.7960
G01 Z-1.7000
G01 Z0
G00 Z2.0000
M05
G00 Z0.50


