(G-CODE GENERATED BY FLATCAM v8.994 - www.flatcam.org - Version Date: 2020/11/7)

(Name: SolarModular-PTH.drl_edit_cnc)
(Type: G-code from Geometry)
(Units: MM)

(Created on Wednesday, 12 June 2024 at 15:48)

(This preprocessor is the default preprocessor used by FlatCAM.)
(It is made to work with MACH3 compatible motion controllers.)


(TOOLS DIAMETER: )
(Tool: 1 -> Dia: 0.8)
(Tool: 2 -> Dia: 3.0)

(FEEDRATE Z: )
(Tool: 1 -> Feedrate: 300)
(Tool: 2 -> Feedrate: 300)

(FEEDRATE RAPIDS: )
(Tool: 1 -> Feedrate Rapids: 1500)
(Tool: 2 -> Feedrate Rapids: 1500)

(Z_CUT: )
(Tool: 1 -> Z_Cut: -1.7)
(Tool: 2 -> Z_Cut: -1.7)

(Tools Offset: )
(Tool: 2 -> Offset Z: 0.0)

(Z_MOVE: )
(Tool: 1 -> Z_Move: 2)
(Tool: 2 -> Z_Move: 2)

(Z Toolchange: 15 mm)
(X,Y Toolchange: 0.0000, 0.0000 mm)
(Z Start: None mm)
(Z End: 0.5 mm)
(X,Y End: None mm)
(Steps per circle: 64)
(Preprocessor Excellon: default)

(X range:    3.3040 ...   51.8540  mm)
(Y range:    3.3660 ...  123.1960  mm)

(Spindle Speed: 0 RPM)
G21
G90
G94

G01 F300.00

M5
G00 Z15.0000
T2
G00 X0.0000 Y0.0000                
M6
(MSG, Change to Tool Dia = 3.0000 ||| Total drills for tool T2 = 14)
M0
G00 Z15.0000

G01 F300.00
M03
G00 X14.4240 Y95.2960
G01 Z-1.7000
G01 Z0
G00 Z2.0000
G00 X14.4240 Y82.7960
G01 Z-1.7000
G01 Z0
G00 Z2.0000
G00 X21.8740 Y62.2660
G01 Z-1.7000
G01 Z0
G00 Z2.0000
G00 X32.8740 Y62.2660
G01 Z-1.7000
G01 Z0
G00 Z2.0000
G00 X45.3740 Y62.2660
G01 Z-1.7000
G01 Z0
G00 Z2.0000
G00 X33.4540 Y34.7660
G01 Z-1.7000
G01 Z0
G00 Z2.0000
G00 X45.9540 Y34.7660
G01 Z-1.7000
G01 Z0
G00 Z2.0000
G00 X45.7040 Y8.7660
G01 Z-1.7000
G01 Z0
G00 Z2.0000
G00 X33.2040 Y8.7660
G01 Z-1.7000
G01 Z0
G00 Z2.0000
G00 X22.2040 Y8.6910
G01 Z-1.7000
G01 Z0
G00 Z2.0000
G00 X9.7040 Y8.6910
G01 Z-1.7000
G01 Z0
G00 Z2.0000
G00 X9.4540 Y34.5460
G01 Z-1.7000
G01 Z0
G00 Z2.0000
G00 X21.9540 Y34.5460
G01 Z-1.7000
G01 Z0
G00 Z2.0000
G00 X9.3740 Y62.2660
G01 Z-1.7000
G01 Z0
G00 Z2.0000
M05
G00 Z0.50


