(G-CODE GENERATED BY FLATCAM v8.994 - www.flatcam.org - Version Date: 2020/11/7)

(Name: SolarModular-Edge_Cuts.gbr_cutout_cnc)
(Type: G-code from Geometry)
(Units: MM)

(Created on Wednesday, 12 June 2024 at 15:45)

(This preprocessor is the default preprocessor used by FlatCAM.)
(It is made to work with MACH3 compatible motion controllers.)

(TOOL DIAMETER: 2.0 mm)
(Feedrate_XY: 120.0 mm/min)
(Feedrate_Z: 60.0 mm/min)
(Feedrate rapids 1500.0 mm/min)

(Z_Cut: -1.8 mm)
(DepthPerCut: 0.9 mm <=>2 passes)
(Z_Move: 1.0 mm)
(Z Start: None mm)
(Z End: 15.0 mm)
(X,Y End: None mm)
(Steps per circle: 64)
(Preprocessor Geometry: default)

(X range:   -0.1710 ...   56.0790  mm)
(Y range:   -0.0790 ...  126.0790  mm)

(Spindle Speed: 0.0 RPM)
G21
G90
G94

G01 F120.00

M5
G00 Z15.0000
G00 X0.0000 Y0.0000
T1
M6    
(MSG, Change to Tool Dia = 2.0000)
M0
G00 Z15.0000

M03
G01 F120.00
G00 X0.9540 Y126.0790
G01 F60.00
G01 Z-0.9000
G01 F120.00
G01 X54.9540 Y126.0790
G01 X55.0105 Y126.0776
G01 X55.1179 Y126.0670
G01 X55.2286 Y126.0450
G01 X55.3342 Y126.0128
G01 X55.4339 Y125.9715
G01 X55.5334 Y125.9183
G01 X55.6232 Y125.8584
G01 X55.7086 Y125.7884
G01 X55.7884 Y125.7086
G01 X55.8584 Y125.6232
G01 X55.9183 Y125.5334
G01 X55.9715 Y125.4339
G01 X56.0137 Y125.3319
G01 X56.0456 Y125.2262
G01 X56.0670 Y125.1179
G01 X56.0776 Y125.0105
G01 X56.0790 Y124.9540
G01 X56.0790 Y1.0460
G01 X56.0776 Y0.9895
G01 X56.0670 Y0.8821
G01 X56.0450 Y0.7714
G01 X56.0128 Y0.6658
G01 X55.9715 Y0.5661
G01 X55.9183 Y0.4666
G01 X55.8584 Y0.3768
G01 X55.7884 Y0.2914
G01 X55.7086 Y0.2116
G01 X55.6252 Y0.1431
G01 X55.5334 Y0.0817
G01 X55.4339 Y0.0285
G01 X55.3319 Y-0.0137
G01 X55.2262 Y-0.0456
G01 X55.1179 Y-0.0670
G01 X55.0105 Y-0.0776
G01 X54.9540 Y-0.0790
G01 X0.9540 Y-0.0790
G01 X0.8976 Y-0.0776
G01 X0.7902 Y-0.0670
G01 X0.6795 Y-0.0450
G01 X0.5762 Y-0.0137
G01 X0.4741 Y0.0285
G01 X0.3746 Y0.0817
G01 X0.2849 Y0.1416
G01 X0.1994 Y0.2116
G01 X0.1197 Y0.2914
G01 X0.0497 Y0.3768
G01 X-0.0103 Y0.4666
G01 X-0.0635 Y0.5661
G01 X-0.1056 Y0.6681
G01 X-0.1375 Y0.7738
G01 X-0.1590 Y0.8821
G01 X-0.1695 Y0.9895
G01 X-0.1710 Y1.0460
G01 X-0.1710 Y124.9540
G01 X-0.1695 Y125.0105
G01 X-0.1586 Y125.1203
G01 X-0.1369 Y125.2286
G01 X-0.1048 Y125.3342
G01 X-0.0624 Y125.4361
G01 X-0.0103 Y125.5334
G01 X0.0512 Y125.6252
G01 X0.1213 Y125.7104
G01 X0.1994 Y125.7884
G01 X0.2849 Y125.8584
G01 X0.3767 Y125.9196
G01 X0.4741 Y125.9715
G01 X0.5762 Y126.0137
G01 X0.6819 Y126.0456
G01 X0.7902 Y126.0670
G01 X0.8976 Y126.0776
G01 X0.9540 Y126.0790
G00 X0.9540 Y126.0790
G01 F60.00
G01 Z-1.8000
G01 F120.00
G01 X0.8976 Y126.0776
G01 X0.7902 Y126.0670
G01 X0.6819 Y126.0456
G01 X0.5762 Y126.0137
G01 X0.4741 Y125.9715
G01 X0.3767 Y125.9196
G01 X0.2849 Y125.8584
G01 X0.1994 Y125.7884
G01 X0.1213 Y125.7104
G01 X0.0512 Y125.6252
G01 X-0.0103 Y125.5334
G01 X-0.0624 Y125.4361
G01 X-0.1048 Y125.3342
G01 X-0.1369 Y125.2286
G01 X-0.1586 Y125.1203
G01 X-0.1695 Y125.0105
G01 X-0.1710 Y124.9540
G01 X-0.1710 Y1.0460
G01 X-0.1695 Y0.9895
G01 X-0.1590 Y0.8821
G01 X-0.1375 Y0.7738
G01 X-0.1056 Y0.6681
G01 X-0.0635 Y0.5661
G01 X-0.0103 Y0.4666
G01 X0.0497 Y0.3768
G01 X0.1197 Y0.2914
G01 X0.1994 Y0.2116
G01 X0.2849 Y0.1416
G01 X0.3746 Y0.0817
G01 X0.4741 Y0.0285
G01 X0.5762 Y-0.0137
G01 X0.6795 Y-0.0450
G01 X0.7902 Y-0.0670
G01 X0.8976 Y-0.0776
G01 X0.9540 Y-0.0790
G01 X54.9540 Y-0.0790
G01 X55.0105 Y-0.0776
G01 X55.1179 Y-0.0670
G01 X55.2262 Y-0.0456
G01 X55.3319 Y-0.0137
G01 X55.4339 Y0.0285
G01 X55.5334 Y0.0817
G01 X55.6252 Y0.1431
G01 X55.7086 Y0.2116
G01 X55.7884 Y0.2914
G01 X55.8584 Y0.3768
G01 X55.9183 Y0.4666
G01 X55.9715 Y0.5661
G01 X56.0128 Y0.6658
G01 X56.0450 Y0.7714
G01 X56.0670 Y0.8821
G01 X56.0776 Y0.9895
G01 X56.0790 Y1.0460
G01 X56.0790 Y124.9540
G01 X56.0776 Y125.0105
G01 X56.0670 Y125.1179
G01 X56.0456 Y125.2262
G01 X56.0137 Y125.3319
G01 X55.9715 Y125.4339
G01 X55.9183 Y125.5334
G01 X55.8584 Y125.6232
G01 X55.7884 Y125.7086
G01 X55.7086 Y125.7884
G01 X55.6232 Y125.8584
G01 X55.5334 Y125.9183
G01 X55.4339 Y125.9715
G01 X55.3342 Y126.0128
G01 X55.2286 Y126.0450
G01 X55.1179 Y126.0670
G01 X55.0105 Y126.0776
G01 X54.9540 Y126.0790
G01 X0.9540 Y126.0790
G00 Z1.0000
M05
G00 Z1.0000
G00 Z15.00


