(G-CODE GENERATED BY FLATCAM v8.994 - www.flatcam.org - Version Date: 2020/11/7)

(Name: SolarModular-PTH.drl_edit_cnc)
(Type: G-code from Geometry)
(Units: MM)

(Created on Tuesday, 11 June 2024 at 17:42)

(This preprocessor is the default preprocessor used by FlatCAM.)
(It is made to work with MACH3 compatible motion controllers.)


(TOOLS DIAMETER: )
(Tool: 1 -> Dia: 0.8)
(Tool: 2 -> Dia: 3.0)

(FEEDRATE Z: )
(Tool: 1 -> Feedrate: 300)
(Tool: 2 -> Feedrate: 300)

(FEEDRATE RAPIDS: )
(Tool: 1 -> Feedrate Rapids: 1500)
(Tool: 2 -> Feedrate Rapids: 1500)

(Z_CUT: )
(Tool: 1 -> Z_Cut: -1.7)
(Tool: 2 -> Z_Cut: -1.7)

(Tools Offset: )
(Tool: 1 -> Offset Z: 0.0)

(Z_MOVE: )
(Tool: 1 -> Z_Move: 2)
(Tool: 2 -> Z_Move: 2)

(Z Toolchange: 15 mm)
(X,Y Toolchange: 0.0000, 0.0000 mm)
(Z Start: None mm)
(Z End: 0.5 mm)
(X,Y End: None mm)
(Steps per circle: 64)
(Preprocessor Excellon: default)

(X range:    1.7580 ...  121.5880  mm)
(Y range:  -51.6500 ...   -3.1000  mm)

(Spindle Speed: 0 RPM)
G21
G90
G94

G01 F300.00

M5
G00 Z15.0000
T1
G00 X0.0000 Y0.0000                
M6
(MSG, Change to Tool Dia = 0.8000 ||| Total drills for tool T1 = 132)
M0
G00 Z15.0000

G01 F300.00
M03
G00 X7.9080 Y-19.0000
G01 Z-1.7000
G01 Z0
G00 Z2.0000
G00 X14.1580 Y-14.7500
G01 Z-1.7000
G01 Z0
G00 Z2.0000
G00 X12.1580 Y-14.0780
G01 Z-1.7000
G01 Z0
G00 Z2.0000
G00 X12.1580 Y-9.0780
G01 Z-1.7000
G01 Z0
G00 Z2.0000
G00 X10.1580 Y-8.4060
G01 Z-1.7000
G01 Z0
G00 Z2.0000
G00 X5.9080 Y-3.5000
G01 Z-1.7000
G01 Z0
G00 Z2.0000
G00 X21.1580 Y-3.5000
G01 Z-1.7000
G01 Z0
G00 Z2.0000
G00 X24.6580 Y-8.5000
G01 Z-1.7000
G01 Z0
G00 Z2.0000
G00 X26.6580 Y-9.1720
G01 Z-1.7000
G01 Z0
G00 Z2.0000
G00 X26.6580 Y-14.1720
G01 Z-1.7000
G01 Z0
G00 Z2.0000
G00 X28.6580 Y-14.8440
G01 Z-1.7000
G01 Z0
G00 Z2.0000
G00 X35.1580 Y-7.6700
G01 Z-1.7000
G01 Z0
G00 Z2.0000
G00 X34.9080 Y-3.5000
G01 Z-1.7000
G01 Z0
G00 Z2.0000
G00 X41.6880 Y-7.6700
G01 Z-1.7000
G01 Z0
G00 Z2.0000
G00 X47.4080 Y-3.5000
G01 Z-1.7000
G01 Z0
G00 Z2.0000
G00 X75.4080 Y-3.5000
G01 Z-1.7000
G01 Z0
G00 Z2.0000
G00 X102.9080 Y-3.5000
G01 Z-1.7000
G01 Z0
G00 Z2.0000
G00 X100.4080 Y-9.5000
G01 Z-1.7000
G01 Z0
G00 Z2.0000
G00 X102.9480 Y-9.5000
G01 Z-1.7000
G01 Z0
G00 Z2.0000
G00 X105.4880 Y-9.5000
G01 Z-1.7000
G01 Z0
G00 Z2.0000
G00 X105.6880 Y-11.7500
G01 Z-1.7000
G01 Z0
G00 Z2.0000
G00 X98.6880 Y-15.0900
G01 Z-1.7000
G01 Z0
G00 Z2.0000
G00 X102.4080 Y-17.5000
G01 Z-1.7000
G01 Z0
G00 Z2.0000
G00 X105.6880 Y-15.5000
G01 Z-1.7000
G01 Z0
G00 Z2.0000
G00 X105.6880 Y-19.2500
G01 Z-1.7000
G01 Z0
G00 Z2.0000
G00 X102.4080 Y-22.5000
G01 Z-1.7000
G01 Z0
G00 Z2.0000
G00 X98.6880 Y-25.2500
G01 Z-1.7000
G01 Z0
G00 Z2.0000
G00 X94.6880 Y-25.2500
G01 Z-1.7000
G01 Z0
G00 Z2.0000
G00 X94.6880 Y-30.2500
G01 Z-1.7000
G01 Z0
G00 Z2.0000
G00 X103.1880 Y-25.5900
G01 Z-1.7000
G01 Z0
G00 Z2.0000
G00 X108.6880 Y-24.0780
G01 Z-1.7000
G01 Z0
G00 Z2.0000
G00 X110.6880 Y-24.7500
G01 Z-1.7000
G01 Z0
G00 Z2.0000
G00 X110.6880 Y-29.7500
G01 Z-1.7000
G01 Z0
G00 Z2.0000
G00 X112.6880 Y-30.4220
G01 Z-1.7000
G01 Z0
G00 Z2.0000
G00 X121.1880 Y-25.9850
G01 Z-1.7000
G01 Z0
G00 Z2.0000
G00 X121.1880 Y-28.5250
G01 Z-1.7000
G01 Z0
G00 Z2.0000
G00 X116.1580 Y-49.7500
G01 Z-1.7000
G01 Z0
G00 Z2.0000
G00 X109.0680 Y-49.7500
G01 Z-1.7000
G01 Z0
G00 Z2.0000
G00 X105.7630 Y-42.7500
G01 Z-1.7000
G01 Z0
G00 Z2.0000
G00 X105.7630 Y-39.0000
G01 Z-1.7000
G01 Z0
G00 Z2.0000
G00 X105.7630 Y-35.2500
G01 Z-1.7000
G01 Z0
G00 Z2.0000
G00 X103.1880 Y-35.7500
G01 Z-1.7000
G01 Z0
G00 Z2.0000
G00 X98.6880 Y-33.7500
G01 Z-1.7000
G01 Z0
G00 Z2.0000
G00 X98.6880 Y-38.7500
G01 Z-1.7000
G01 Z0
G00 Z2.0000
G00 X98.6880 Y-41.2500
G01 Z-1.7000
G01 Z0
G00 Z2.0000
G00 X98.6880 Y-46.2500
G01 Z-1.7000
G01 Z0
G00 Z2.0000
G00 X98.9080 Y-49.7500
G01 Z-1.7000
G01 Z0
G00 Z2.0000
G00 X90.4080 Y-49.7500
G01 Z-1.7000
G01 Z0
G00 Z2.0000
G00 X85.8180 Y-49.7500
G01 Z-1.7000
G01 Z0
G00 Z2.0000
G00 X79.9080 Y-43.0000
G01 Z-1.7000
G01 Z0
G00 Z2.0000
G00 X79.9080 Y-39.2500
G01 Z-1.7000
G01 Z0
G00 Z2.0000
G00 X79.9080 Y-35.5000
G01 Z-1.7000
G01 Z0
G00 Z2.0000
G00 X79.6880 Y-32.7500
G01 Z-1.7000
G01 Z0
G00 Z2.0000
G00 X75.6880 Y-31.7500
G01 Z-1.7000
G01 Z0
G00 Z2.0000
G00 X75.6880 Y-29.2500
G01 Z-1.7000
G01 Z0
G00 Z2.0000
G00 X79.6880 Y-22.5900
G01 Z-1.7000
G01 Z0
G00 Z2.0000
G00 X79.6880 Y-19.0000
G01 Z-1.7000
G01 Z0
G00 Z2.0000
G00 X79.6880 Y-15.2500
G01 Z-1.7000
G01 Z0
G00 Z2.0000
G00 X79.6880 Y-11.5000
G01 Z-1.7000
G01 Z0
G00 Z2.0000
G00 X77.9480 Y-9.7500
G01 Z-1.7000
G01 Z0
G00 Z2.0000
G00 X75.4080 Y-9.7500
G01 Z-1.7000
G01 Z0
G00 Z2.0000
G00 X72.8680 Y-9.7500
G01 Z-1.7000
G01 Z0
G00 Z2.0000
G00 X71.1880 Y-13.5900
G01 Z-1.7000
G01 Z0
G00 Z2.0000
G00 X75.6880 Y-16.7500
G01 Z-1.7000
G01 Z0
G00 Z2.0000
G00 X75.6880 Y-21.7500
G01 Z-1.7000
G01 Z0
G00 Z2.0000
G00 X75.6880 Y-24.2500
G01 Z-1.7000
G01 Z0
G00 Z2.0000
G00 X71.1880 Y-23.7500
G01 Z-1.7000
G01 Z0
G00 Z2.0000
G00 X75.6880 Y-36.7500
G01 Z-1.7000
G01 Z0
G00 Z2.0000
G00 X75.6880 Y-39.2500
G01 Z-1.7000
G01 Z0
G00 Z2.0000
G00 X75.6880 Y-44.2500
G01 Z-1.7000
G01 Z0
G00 Z2.0000
G00 X75.6580 Y-49.7500
G01 Z-1.7000
G01 Z0
G00 Z2.0000
G00 X62.6580 Y-49.7500
G01 Z-1.7000
G01 Z0
G00 Z2.0000
G00 X56.8180 Y-49.7500
G01 Z-1.7000
G01 Z0
G00 Z2.0000
G00 X52.1880 Y-43.0800
G01 Z-1.7000
G01 Z0
G00 Z2.0000
G00 X52.1880 Y-39.3300
G01 Z-1.7000
G01 Z0
G00 Z2.0000
G00 X52.1880 Y-35.5800
G01 Z-1.7000
G01 Z0
G00 Z2.0000
G00 X50.6880 Y-32.3300
G01 Z-1.7000
G01 Z0
G00 Z2.0000
G00 X46.6880 Y-30.8300
G01 Z-1.7000
G01 Z0
G00 Z2.0000
G00 X46.6880 Y-28.3300
G01 Z-1.7000
G01 Z0
G00 Z2.0000
G00 X46.6880 Y-23.3300
G01 Z-1.7000
G01 Z0
G00 Z2.0000
G00 X46.6880 Y-20.3300
G01 Z-1.7000
G01 Z0
G00 Z2.0000
G00 X50.6880 Y-22.1700
G01 Z-1.7000
G01 Z0
G00 Z2.0000
G00 X52.1880 Y-19.5800
G01 Z-1.7000
G01 Z0
G00 Z2.0000
G00 X52.1880 Y-15.8300
G01 Z-1.7000
G01 Z0
G00 Z2.0000
G00 X52.1880 Y-12.0800
G01 Z-1.7000
G01 Z0
G00 Z2.0000
G00 X49.9880 Y-10.3300
G01 Z-1.7000
G01 Z0
G00 Z2.0000
G00 X47.4480 Y-10.3300
G01 Z-1.7000
G01 Z0
G00 Z2.0000
G00 X44.9080 Y-10.3300
G01 Z-1.7000
G01 Z0
G00 Z2.0000
G00 X46.6880 Y-15.3300
G01 Z-1.7000
G01 Z0
G00 Z2.0000
G00 X41.6880 Y-17.8300
G01 Z-1.7000
G01 Z0
G00 Z2.0000
G00 X35.1580 Y-17.8300
G01 Z-1.7000
G01 Z0
G00 Z2.0000
G00 X32.6580 Y-23.6560
G01 Z-1.7000
G01 Z0
G00 Z2.0000
G00 X34.6580 Y-24.3280
G01 Z-1.7000
G01 Z0
G00 Z2.0000
G00 X34.6580 Y-29.3280
G01 Z-1.7000
G01 Z0
G00 Z2.0000
G00 X36.6580 Y-30.0000
G01 Z-1.7000
G01 Z0
G00 Z2.0000
G00 X46.6880 Y-35.8300
G01 Z-1.7000
G01 Z0
G00 Z2.0000
G00 X46.6880 Y-38.3300
G01 Z-1.7000
G01 Z0
G00 Z2.0000
G00 X46.6880 Y-43.3300
G01 Z-1.7000
G01 Z0
G00 Z2.0000
G00 X46.6580 Y-49.7500
G01 Z-1.7000
G01 Z0
G00 Z2.0000
G00 X39.6580 Y-51.0300
G01 Z-1.7000
G01 Z0
G00 Z2.0000
G00 X35.9080 Y-51.0300
G01 Z-1.7000
G01 Z0
G00 Z2.0000
G00 X32.1580 Y-51.0300
G01 Z-1.7000
G01 Z0
G00 Z2.0000
G00 X24.2680 Y-51.0000
G01 Z-1.7000
G01 Z0
G00 Z2.0000
G00 X22.1580 Y-46.3440
G01 Z-1.7000
G01 Z0
G00 Z2.0000
G00 X20.1580 Y-45.6720
G01 Z-1.7000
G01 Z0
G00 Z2.0000
G00 X20.1580 Y-40.6720
G01 Z-1.7000
G01 Z0
G00 Z2.0000
G00 X18.1580 Y-40.0000
G01 Z-1.7000
G01 Z0
G00 Z2.0000
G00 X14.9080 Y-51.2500
G01 Z-1.7000
G01 Z0
G00 Z2.0000
G00 X5.9080 Y-51.0000
G01 Z-1.7000
G01 Z0
G00 Z2.0000
G00 X8.6580 Y-46.6890
G01 Z-1.7000
G01 Z0
G00 Z2.0000
G00 X6.6580 Y-46.0170
G01 Z-1.7000
G01 Z0
G00 Z2.0000
G00 X6.6580 Y-41.0170
G01 Z-1.7000
G01 Z0
G00 Z2.0000
G00 X4.6580 Y-40.3450
G01 Z-1.7000
G01 Z0
G00 Z2.0000
G00 X8.4980 Y-34.0000
G01 Z-1.7000
G01 Z0
G00 Z2.0000
G00 X8.7930 Y-30.3250
G01 Z-1.7000
G01 Z0
G00 Z2.0000
G00 X11.3330 Y-30.3250
G01 Z-1.7000
G01 Z0
G00 Z2.0000
G00 X13.8730 Y-30.3250
G01 Z-1.7000
G01 Z0
G00 Z2.0000
G00 X16.4130 Y-30.3250
G01 Z-1.7000
G01 Z0
G00 Z2.0000
G00 X18.6580 Y-34.0000
G01 Z-1.7000
G01 Z0
G00 Z2.0000
G00 X18.9530 Y-30.3250
G01 Z-1.7000
G01 Z0
G00 Z2.0000
G00 X21.4930 Y-30.3250
G01 Z-1.7000
G01 Z0
G00 Z2.0000
G00 X24.0330 Y-30.3250
G01 Z-1.7000
G01 Z0
G00 Z2.0000
G00 X24.0330 Y-22.7050
G01 Z-1.7000
G01 Z0
G00 Z2.0000
G00 X21.4930 Y-22.7050
G01 Z-1.7000
G01 Z0
G00 Z2.0000
G00 X18.9530 Y-22.7050
G01 Z-1.7000
G01 Z0
G00 Z2.0000
G00 X18.0680 Y-19.0000
G01 Z-1.7000
G01 Z0
G00 Z2.0000
G00 X16.4130 Y-22.7050
G01 Z-1.7000
G01 Z0
G00 Z2.0000
G00 X13.8730 Y-22.7050
G01 Z-1.7000
G01 Z0
G00 Z2.0000
G00 X11.3330 Y-22.7050
G01 Z-1.7000
G01 Z0
G00 Z2.0000
G00 X8.7930 Y-22.7050
G01 Z-1.7000
G01 Z0
G00 Z2.0000
G00 X2.1580 Y-27.5150
G01 Z-1.7000
G01 Z0
G00 Z2.0000
G00 X2.1580 Y-24.9750
G01 Z-1.7000
G01 Z0
G00 Z2.0000
M05
G00 Z0.50


