(G-CODE GENERATED BY FLATCAM v8.994 - www.flatcam.org - Version Date: 2020/11/7)

(Name: SolarModular-B_Cu.gbr_iso_combined_cnc)
(Type: G-code from Geometry)
(Units: MM)

(Created on Tuesday, 11 June 2024 at 17:37)

(This preprocessor is the default preprocessor used by FlatCAM.)
(It is made to work with MACH3 compatible motion controllers.)

(TOOL DIAMETER: 0.3039 mm)
(Feedrate_XY: 500.0 mm/min)
(Feedrate_Z: 60.0 mm/min)
(Feedrate rapids 1500.0 mm/min)

(Z_Cut: -0.09 mm)
(Z_Move: 1.0 mm)
(Z Start: None mm)
(Z End: 15.0 mm)
(X,Y End: None mm)
(Steps per circle: 64)
(Preprocessor Geometry: default)

(X range:    0.6091 ...  122.7370  mm)
(Y range:  -54.1992 ...    0.0992  mm)

(Spindle Speed: 15000.0 RPM)
G21
G90
G94

G01 F500.00

M5
G00 Z15.0000
G00 X0.0000 Y0.0000
T2
M6    
(MSG, Change to Tool Dia = 0.3039)
M0
G00 Z15.0000

M03 S15000.0
G01 F500.00
G00 X4.9061 Y-4.3500
G01 F60.00
G01 Z-0.0900
G01 F500.00
G01 X4.9065 Y-4.3612
G01 X4.9078 Y-4.3723
G01 X4.9098 Y-4.3833
G01 X4.9127 Y-4.3941
G01 X4.9177 Y-4.4081
G01 X4.9223 Y-4.4183
G01 X4.9277 Y-4.4281
G01 X4.9338 Y-4.4375
G01 X4.9406 Y-4.4464
G01 X4.9480 Y-4.4548
G01 X4.9560 Y-4.4626
G01 X4.9675 Y-4.4720
G01 X4.9768 Y-4.4784
G01 X4.9897 Y-4.4857
G01 X4.9999 Y-4.4904
G01 X5.0104 Y-4.4943
G01 X5.0211 Y-4.4974
G01 X5.0321 Y-4.4997
G01 X5.0432 Y-4.5012
G01 X5.0543 Y-4.5019
G01 X5.3559 Y-4.5019
G01 X5.3559 Y-22.0000
G01 X5.3586 Y-22.0541
G01 X5.3665 Y-22.1077
G01 X5.3777 Y-22.1531
G01 X5.3820 Y-22.1674
G01 X5.3979 Y-22.2113
G01 X5.4211 Y-22.2603
G01 X5.4450 Y-22.3005
G01 X5.4533 Y-22.3129
G01 X5.4812 Y-22.3503
G01 X5.5125 Y-22.3850
G01 X6.2253 Y-23.0980
G01 X6.2628 Y-23.1318
G01 X6.3002 Y-23.1598
G01 X6.3126 Y-23.1681
G01 X6.3528 Y-23.1920
G01 X6.4018 Y-23.2151
G01 X6.4457 Y-23.2310
G01 X6.4600 Y-23.2354
G01 X6.5053 Y-23.2465
G01 X6.5515 Y-23.2536
G01 X6.5627 Y-23.2548
G01 X6.6056 Y-23.2570
G01 X7.8542 Y-23.2571
G01 X7.8581 Y-23.2834
G01 X7.8602 Y-23.2944
G01 X7.8811 Y-23.3778
G01 X7.8844 Y-23.3884
G01 X7.9122 Y-23.4658
G01 X7.9166 Y-23.4761
G01 X7.9535 Y-23.5537
G01 X7.9995 Y-23.6307
G01 X8.0058 Y-23.6400
G01 X8.0572 Y-23.7089
G01 X8.1199 Y-23.7781
G01 X8.1892 Y-23.8409
G01 X8.2611 Y-23.8944
G01 X8.2705 Y-23.9005
G01 X8.3443 Y-23.9445
G01 X8.4288 Y-23.9845
G01 X8.5167 Y-24.0160
G01 X8.6073 Y-24.0387
G01 X8.6998 Y-24.0524
G01 X8.7931 Y-24.0569
G01 X8.8864 Y-24.0524
G01 X8.9788 Y-24.0387
G01 X9.0622 Y-24.0179
G01 X9.0765 Y-24.0136
G01 X9.1574 Y-23.9845
G01 X9.2418 Y-23.9445
G01 X9.3219 Y-23.8965
G01 X9.3911 Y-23.8455
G01 X9.4026 Y-23.8360
G01 X9.4662 Y-23.7781
G01 X9.5241 Y-23.7146
G01 X9.5335 Y-23.7030
G01 X9.5846 Y-23.6339
G01 X9.6326 Y-23.5537
G01 X9.6726 Y-23.4693
G01 X9.7017 Y-23.3884
G01 X9.7060 Y-23.3741
G01 X9.7251 Y-23.2980
G01 X9.7274 Y-23.2870
G01 X9.7404 Y-23.1983
G01 X9.7450 Y-23.1087
G01 X9.7450 Y-22.3050
G01 X9.7404 Y-22.2117
G01 X9.7267 Y-22.1193
G01 X9.7040 Y-22.0287
G01 X9.6752 Y-21.9477
G01 X9.6695 Y-21.9339
G01 X9.6360 Y-21.8629
G01 X9.6289 Y-21.8498
G01 X9.5846 Y-21.7761
G01 X9.5289 Y-21.7011
G01 X9.4662 Y-21.6319
G01 X9.4026 Y-21.5740
G01 X9.3911 Y-21.5645
G01 X9.3280 Y-21.5178
G01 X9.3156 Y-21.5095
G01 X9.2418 Y-21.4655
G01 X9.1642 Y-21.4285
G01 X9.1504 Y-21.4228
G01 X9.0694 Y-21.3940
G01 X8.9861 Y-21.3730
G01 X8.9714 Y-21.3701
G01 X8.8864 Y-21.3576
G01 X8.8005 Y-21.3532
G01 X8.7856 Y-21.3532
G01 X8.6998 Y-21.3576
G01 X8.6147 Y-21.3701
G01 X8.6001 Y-21.3730
G01 X8.5167 Y-21.3940
G01 X8.4322 Y-21.4241
G01 X8.4219 Y-21.4285
G01 X8.3510 Y-21.4621
G01 X8.3378 Y-21.4691
G01 X8.2642 Y-21.5135
G01 X8.1950 Y-21.5645
G01 X8.1835 Y-21.5740
G01 X8.1199 Y-21.6319
G01 X8.0621 Y-21.6954
G01 X8.0549 Y-21.7040
G01 X8.0058 Y-21.7700
G01 X7.9976 Y-21.7824
G01 X7.9535 Y-21.8563
G01 X7.9150 Y-21.9373
G01 X7.9109 Y-21.9477
G01 X7.8844 Y-22.0216
G01 X7.8811 Y-22.0322
G01 X7.8602 Y-22.1156
G01 X7.8581 Y-22.1266
G01 X7.8542 Y-22.1528
G01 X6.8418 Y-22.1529
G01 X6.4602 Y-21.7713
G01 X6.4602 Y-14.6300
G01 X11.0061 Y-14.6300
G01 X11.0061 Y-15.0779
G01 X11.0068 Y-15.0927
G01 X11.0084 Y-15.1038
G01 X11.0107 Y-15.1148
G01 X11.0138 Y-15.1255
G01 X11.0177 Y-15.1360
G01 X11.0223 Y-15.1462
G01 X11.0259 Y-15.1528
G01 X11.0317 Y-15.1623
G01 X11.0383 Y-15.1713
G01 X11.0455 Y-15.1799
G01 X11.0506 Y-15.1853
G01 X11.0588 Y-15.1929
G01 X11.0675 Y-15.1999
G01 X11.0768 Y-15.2062
G01 X11.0864 Y-15.2119
G01 X11.0965 Y-15.2168
G01 X11.1034 Y-15.2196
G01 X11.1140 Y-15.2233
G01 X11.1248 Y-15.2261
G01 X11.1358 Y-15.2282
G01 X11.1469 Y-15.2294
G01 X11.1581 Y-15.2298
G01 X13.0061 Y-15.2298
G01 X13.0061 Y-15.7500
G01 X13.0068 Y-15.7649
G01 X13.0084 Y-15.7760
G01 X13.0107 Y-15.7869
G01 X13.0127 Y-15.7941
G01 X13.0163 Y-15.8047
G01 X13.0207 Y-15.8150
G01 X13.0259 Y-15.8249
G01 X13.0317 Y-15.8344
G01 X13.0383 Y-15.8435
G01 X13.0455 Y-15.8520
G01 X13.0533 Y-15.8600
G01 X13.0617 Y-15.8675
G01 X13.0706 Y-15.8742
G01 X13.0768 Y-15.8784
G01 X13.0864 Y-15.8840
G01 X13.0965 Y-15.8889
G01 X13.1034 Y-15.8918
G01 X13.1140 Y-15.8954
G01 X13.1248 Y-15.8983
G01 X13.1358 Y-15.9003
G01 X13.1469 Y-15.9015
G01 X13.1581 Y-15.9019
G01 X15.1581 Y-15.9019
G01 X15.1730 Y-15.9012
G01 X15.1840 Y-15.8997
G01 X15.1986 Y-15.8964
G01 X15.2127 Y-15.8918
G01 X15.2230 Y-15.8874
G01 X15.2362 Y-15.8803
G01 X15.2486 Y-15.8720
G01 X15.2573 Y-15.8651
G01 X15.2681 Y-15.8548
G01 X15.2779 Y-15.8435
G01 X15.2844 Y-15.8344
G01 X15.2921 Y-15.8216
G01 X15.2970 Y-15.8116
G01 X15.3011 Y-15.8012
G01 X15.3055 Y-15.7869
G01 X15.3078 Y-15.7760
G01 X15.3096 Y-15.7612
G01 X15.3100 Y-15.7500
G01 X15.3100 Y-13.7500
G01 X15.3093 Y-13.7351
G01 X15.3071 Y-13.7204
G01 X15.3045 Y-13.7095
G01 X15.2998 Y-13.6953
G01 X15.2954 Y-13.6850
G01 X15.2884 Y-13.6719
G01 X15.2801 Y-13.6595
G01 X15.2731 Y-13.6508
G01 X15.2655 Y-13.6426
G01 X15.2573 Y-13.6349
G01 X15.2486 Y-13.6280
G01 X15.2394 Y-13.6216
G01 X15.2297 Y-13.6160
G01 X15.2162 Y-13.6096
G01 X15.2022 Y-13.6046
G01 X15.1914 Y-13.6017
G01 X15.1767 Y-13.5992
G01 X15.1655 Y-13.5982
G01 X13.3100 Y-13.5981
G01 X13.3100 Y-13.0779
G01 X13.3098 Y-13.0704
G01 X13.3089 Y-13.0593
G01 X13.3063 Y-13.0446
G01 X13.3035 Y-13.0337
G01 X13.2984 Y-13.0197
G01 X13.2938 Y-13.0095
G01 X13.2864 Y-12.9966
G01 X13.2779 Y-12.9844
G01 X13.2707 Y-12.9758
G01 X13.2628 Y-12.9678
G01 X13.2545 Y-12.9604
G01 X13.2456 Y-12.9536
G01 X13.2362 Y-12.9475
G01 X13.2230 Y-12.9405
G01 X13.2127 Y-12.9361
G01 X13.2022 Y-12.9324
G01 X13.1877 Y-12.9288
G01 X13.1767 Y-12.9270
G01 X13.1618 Y-12.9260
G01 X11.1581 Y-12.9259
G01 X11.1469 Y-12.9263
G01 X11.1358 Y-12.9276
G01 X11.1248 Y-12.9296
G01 X11.1175 Y-12.9314
G01 X11.1104 Y-12.9336
G01 X11.0999 Y-12.9375
G01 X11.0897 Y-12.9421
G01 X11.0799 Y-12.9475
G01 X11.0706 Y-12.9536
G01 X11.0617 Y-12.9604
G01 X11.0533 Y-12.9678
G01 X11.0455 Y-12.9758
G01 X11.0383 Y-12.9844
G01 X11.0338 Y-12.9904
G01 X11.0277 Y-12.9997
G01 X11.0223 Y-13.0095
G01 X11.0191 Y-13.0163
G01 X11.0150 Y-13.0267
G01 X11.0116 Y-13.0373
G01 X11.0090 Y-13.0482
G01 X11.0068 Y-13.0630
G01 X11.0061 Y-13.0779
G01 X11.0061 Y-13.5257
G01 X6.4602 Y-13.5257
G01 X6.4602 Y-4.5019
G01 X6.7618 Y-4.5019
G01 X6.7692 Y-4.5015
G01 X6.7804 Y-4.5003
G01 X6.7877 Y-4.4990
G01 X6.7986 Y-4.4964
G01 X6.8093 Y-4.4931
G01 X6.8162 Y-4.4904
G01 X6.8264 Y-4.4857
G01 X6.8362 Y-4.4803
G01 X6.8456 Y-4.4742
G01 X6.8545 Y-4.4675
G01 X6.8628 Y-4.4600
G01 X6.8707 Y-4.4520
G01 X6.8779 Y-4.4435
G01 X6.8823 Y-4.4375
G01 X6.8884 Y-4.4281
G01 X6.8938 Y-4.4183
G01 X6.8984 Y-4.4081
G01 X6.9023 Y-4.3977
G01 X6.9045 Y-4.3905
G01 X6.9071 Y-4.3796
G01 X6.9093 Y-4.3649
G01 X6.9100 Y-4.3500
G01 X6.9100 Y-2.6463
G01 X6.9093 Y-2.6351
G01 X6.9071 Y-2.6204
G01 X6.9035 Y-2.6059
G01 X6.8984 Y-2.5919
G01 X6.8938 Y-2.5817
G01 X6.8864 Y-2.5687
G01 X6.8801 Y-2.5595
G01 X6.8707 Y-2.5480
G01 X6.8601 Y-2.5374
G01 X6.8486 Y-2.5280
G01 X6.8362 Y-2.5197
G01 X6.8297 Y-2.5160
G01 X6.8196 Y-2.5111
G01 X6.8057 Y-2.5057
G01 X6.7950 Y-2.5026
G01 X6.7877 Y-2.5010
G01 X6.7730 Y-2.4988
G01 X6.7581 Y-2.4981
G01 X5.0543 Y-2.4981
G01 X5.0395 Y-2.4992
G01 X5.0284 Y-2.5010
G01 X5.0140 Y-2.5046
G01 X5.0034 Y-2.5082
G01 X4.9897 Y-2.5143
G01 X4.9799 Y-2.5197
G01 X4.9675 Y-2.5280
G01 X4.9560 Y-2.5374
G01 X4.9455 Y-2.5480
G01 X4.9360 Y-2.5595
G01 X4.9277 Y-2.5719
G01 X4.9207 Y-2.5850
G01 X4.9150 Y-2.5988
G01 X4.9116 Y-2.6095
G01 X4.9098 Y-2.6167
G01 X4.9073 Y-2.6314
G01 X4.9062 Y-2.6463
G01 X4.9061 Y-4.3500
G00 Z1.0000
G00 X9.0126 Y-8.2854
G01 F60.00
G01 Z-0.0900
G01 F500.00
G01 X9.0111 Y-8.3002
G01 X9.0061 Y-8.4057
G01 X9.0111 Y-8.5112
G01 X9.0126 Y-8.5260
G01 X9.0282 Y-8.6304
G01 X9.0537 Y-8.7329
G01 X9.0581 Y-8.7472
G01 X9.0911 Y-8.8396
G01 X9.0968 Y-8.8534
G01 X9.1421 Y-8.9487
G01 X9.1963 Y-9.0394
G01 X9.2045 Y-9.0518
G01 X9.2676 Y-9.1365
G01 X9.3384 Y-9.2149
G01 X9.3489 Y-9.2254
G01 X9.4273 Y-9.2962
G01 X9.5181 Y-9.3635
G01 X9.6150 Y-9.4216
G01 X9.7172 Y-9.4700
G01 X9.8237 Y-9.5081
G01 X9.9261 Y-9.5339
G01 X9.9407 Y-9.5368
G01 X10.0378 Y-9.5512
G01 X10.0526 Y-9.5527
G01 X10.1581 Y-9.5577
G01 X10.2635 Y-9.5527
G01 X10.2747 Y-9.5517
G01 X10.3828 Y-9.5355
G01 X10.4925 Y-9.5081
G01 X10.5989 Y-9.4700
G01 X10.6978 Y-9.4234
G01 X10.7076 Y-9.4180
G01 X10.7981 Y-9.3635
G01 X10.8859 Y-9.2985
G01 X10.8945 Y-9.2913
G01 X10.9699 Y-9.2229
G01 X10.9778 Y-9.2149
G01 X11.0109 Y-9.1783
G01 X11.0113 Y-9.1871
G01 X11.0126 Y-9.1982
G01 X11.0270 Y-9.2952
G01 X11.0299 Y-9.3099
G01 X11.0557 Y-9.4122
G01 X11.0938 Y-9.5187
G01 X11.1421 Y-9.6209
G01 X11.1963 Y-9.7115
G01 X11.2045 Y-9.7239
G01 X11.2630 Y-9.8028
G01 X11.2725 Y-9.8143
G01 X11.3435 Y-9.8924
G01 X11.4273 Y-9.9683
G01 X11.5181 Y-10.0357
G01 X11.6085 Y-10.0901
G01 X11.6217 Y-10.0971
G01 X11.7104 Y-10.1391
G01 X11.7242 Y-10.1448
G01 X11.8237 Y-10.1802
G01 X11.9297 Y-10.2069
G01 X11.9407 Y-10.2089
G01 X12.0378 Y-10.2233
G01 X12.0526 Y-10.2248
G01 X12.1581 Y-10.2298
G01 X12.2710 Y-10.2243
G01 X12.3828 Y-10.2077
G01 X12.4853 Y-10.1822
G01 X12.4995 Y-10.1779
G01 X12.5919 Y-10.1448
G01 X12.6057 Y-10.1391
G01 X12.7011 Y-10.0938
G01 X12.7918 Y-10.0397
G01 X12.8041 Y-10.0314
G01 X12.8830 Y-9.9729
G01 X12.8945 Y-9.9635
G01 X12.9726 Y-9.8924
G01 X13.0485 Y-9.8086
G01 X13.1159 Y-9.7178
G01 X13.1687 Y-9.6300
G01 X15.1714 Y-9.6300
G01 X17.5159 Y-11.9745
G01 X17.5159 Y-18.2255
G01 X17.4642 Y-18.2641
G01 X17.3976 Y-18.3243
G01 X17.3898 Y-18.3323
G01 X17.3371 Y-18.3904
G01 X17.3299 Y-18.3990
G01 X17.2765 Y-18.4711
G01 X17.2322 Y-18.5448
G01 X17.2252 Y-18.5579
G01 X17.1886 Y-18.6357
G01 X17.1594 Y-18.7166
G01 X17.1551 Y-18.7309
G01 X17.1344 Y-18.8143
G01 X17.1211 Y-18.9030
G01 X17.1201 Y-18.9141
G01 X17.1163 Y-18.9925
G01 X17.1162 Y-19.0037
G01 X17.1207 Y-19.0933
G01 X17.1300 Y-19.1572
G01 X16.0200 Y-20.2672
G01 X15.9862 Y-20.3047
G01 X15.9583 Y-20.3421
G01 X15.9500 Y-20.3545
G01 X15.9298 Y-20.3882
G01 X15.9244 Y-20.3980
G01 X15.9029 Y-20.4437
G01 X15.8847 Y-20.4947
G01 X15.8715 Y-20.5473
G01 X15.8645 Y-20.5935
G01 X15.8630 Y-20.6083
G01 X15.8609 Y-20.6550
G01 X15.8609 Y-21.5305
G01 X15.8092 Y-21.5691
G01 X15.7453 Y-21.6267
G01 X15.7348 Y-21.6373
G01 X15.6821 Y-21.6954
G01 X15.6726 Y-21.7070
G01 X15.6215 Y-21.7761
G01 X15.5753 Y-21.8530
G01 X15.5702 Y-21.8629
G01 X15.5336 Y-21.9407
G01 X15.5021 Y-22.0287
G01 X15.4794 Y-22.1193
G01 X15.4666 Y-22.2043
G01 X15.4651 Y-22.2191
G01 X15.4611 Y-22.3050
G01 X15.4611 Y-23.1050
G01 X15.4651 Y-23.1909
G01 X15.4666 Y-23.2057
G01 X15.4794 Y-23.2907
G01 X15.5001 Y-23.3741
G01 X15.5044 Y-23.3884
G01 X15.5336 Y-23.4693
G01 X15.5735 Y-23.5537
G01 X15.6176 Y-23.6276
G01 X15.6258 Y-23.6400
G01 X15.6772 Y-23.7089
G01 X15.7399 Y-23.7781
G01 X15.8035 Y-23.8360
G01 X15.8150 Y-23.8455
G01 X15.8781 Y-23.8922
G01 X15.8905 Y-23.9005
G01 X15.9643 Y-23.9445
G01 X16.0488 Y-23.9845
G01 X16.1367 Y-24.0160
G01 X16.2273 Y-24.0387
G01 X16.3198 Y-24.0524
G01 X16.4056 Y-24.0568
G01 X16.4205 Y-24.0568
G01 X16.4989 Y-24.0529
G01 X16.5138 Y-24.0515
G01 X16.5988 Y-24.0387
G01 X16.6894 Y-24.0160
G01 X16.7774 Y-23.9845
G01 X16.8585 Y-23.9463
G01 X16.8683 Y-23.9409
G01 X16.9356 Y-23.9005
G01 X16.9480 Y-23.8922
G01 X17.0170 Y-23.8409
G01 X17.0808 Y-23.7833
G01 X17.0913 Y-23.7727
G01 X17.1489 Y-23.7089
G01 X17.2003 Y-23.6400
G01 X17.2086 Y-23.6276
G01 X17.2526 Y-23.5537
G01 X17.2895 Y-23.4761
G01 X17.2952 Y-23.4623
G01 X17.3240 Y-23.3813
G01 X17.3451 Y-23.2980
G01 X17.3480 Y-23.2834
G01 X17.3604 Y-23.1983
G01 X17.3650 Y-23.1087
G01 X17.3650 Y-22.3013
G01 X17.3604 Y-22.2117
G01 X17.3474 Y-22.1230
G01 X17.3451 Y-22.1120
G01 X17.3240 Y-22.0287
G01 X17.2926 Y-21.9407
G01 X17.2526 Y-21.8563
G01 X17.2066 Y-21.7793
G01 X17.2003 Y-21.7700
G01 X17.1489 Y-21.7011
G01 X17.0888 Y-21.6345
G01 X17.0808 Y-21.6267
G01 X17.0198 Y-21.5715
G01 X17.0111 Y-21.5645
G01 X16.9652 Y-21.5305
G01 X16.9652 Y-20.8837
G01 X17.9108 Y-19.9381
G01 X17.9748 Y-19.9474
G01 X18.0606 Y-19.9518
G01 X18.0755 Y-19.9518
G01 X18.1539 Y-19.9479
G01 X18.1688 Y-19.9465
G01 X18.2538 Y-19.9337
G01 X18.3408 Y-19.9120
G01 X18.3515 Y-19.9086
G01 X18.4324 Y-19.8795
G01 X18.5168 Y-19.8395
G01 X18.5969 Y-19.7915
G01 X18.6661 Y-19.7405
G01 X18.6748 Y-19.7335
G01 X18.7412 Y-19.6731
G01 X18.8039 Y-19.6039
G01 X18.8596 Y-19.5289
G01 X18.9076 Y-19.4487
G01 X18.9476 Y-19.3643
G01 X18.9790 Y-19.2763
G01 X19.0017 Y-19.1857
G01 X19.0145 Y-19.1007
G01 X19.0160 Y-19.0859
G01 X19.0200 Y-19.0000
G01 X19.0160 Y-18.9141
G01 X19.0145 Y-18.8993
G01 X19.0017 Y-18.8143
G01 X18.9810 Y-18.7309
G01 X18.9767 Y-18.7166
G01 X18.9502 Y-18.6427
G01 X18.9461 Y-18.6323
G01 X18.9076 Y-18.5513
G01 X18.8636 Y-18.4774
G01 X18.8553 Y-18.4650
G01 X18.8039 Y-18.3961
G01 X18.7463 Y-18.3323
G01 X18.7358 Y-18.3217
G01 X18.6720 Y-18.2641
G01 X18.6202 Y-18.2255
G01 X18.6202 Y-11.7458
G01 X18.6176 Y-11.6917
G01 X18.6109 Y-11.6454
G01 X18.6080 Y-11.6308
G01 X18.5964 Y-11.5855
G01 X18.5809 Y-11.5414
G01 X18.5752 Y-11.5277
G01 X18.5567 Y-11.4888
G01 X18.5513 Y-11.4790
G01 X18.5311 Y-11.4453
G01 X18.5229 Y-11.4329
G01 X18.4949 Y-11.3955
G01 X18.4585 Y-11.3554
G01 X15.7906 Y-8.6874
G01 X15.7504 Y-8.6510
G01 X15.7130 Y-8.6231
G01 X15.7006 Y-8.6148
G01 X15.6604 Y-8.5909
G01 X15.6182 Y-8.5708
G01 X15.6045 Y-8.5651
G01 X15.5640 Y-8.5506
G01 X15.5532 Y-8.5475
G01 X15.5151 Y-8.5379
G01 X15.5005 Y-8.5350
G01 X15.4543 Y-8.5284
G01 X15.4001 Y-8.5257
G01 X13.1687 Y-8.5257
G01 X13.1159 Y-8.4379
G01 X13.0485 Y-8.3471
G01 X12.9726 Y-8.2633
G01 X12.8945 Y-8.1923
G01 X12.8830 Y-8.1828
G01 X12.8041 Y-8.1243
G01 X12.7918 Y-8.1161
G01 X12.7011 Y-8.0619
G01 X12.5989 Y-8.0136
G01 X12.4925 Y-7.9755
G01 X12.3901 Y-7.9497
G01 X12.3754 Y-7.9468
G01 X12.2784 Y-7.9324
G01 X12.2635 Y-7.9309
G01 X12.1581 Y-7.9259
G01 X12.0452 Y-7.9315
G01 X11.9333 Y-7.9480
G01 X11.8297 Y-7.9738
G01 X11.7927 Y-7.9466
G01 X11.7527 Y-7.9224
G01 X11.7429 Y-7.9170
G01 X11.7040 Y-7.8986
G01 X11.6903 Y-7.8929
G01 X11.6462 Y-7.8773
G01 X11.6009 Y-7.8658
G01 X11.5900 Y-7.8635
G01 X11.5400 Y-7.8562
G01 X11.4896 Y-7.8536
G01 X11.1687 Y-7.8536
G01 X11.1159 Y-7.7657
G01 X11.0531 Y-7.6808
G01 X11.0437 Y-7.6693
G01 X10.9726 Y-7.5912
G01 X10.8945 Y-7.5201
G01 X10.8830 Y-7.5107
G01 X10.7981 Y-7.4479
G01 X10.7076 Y-7.3935
G01 X10.6944 Y-7.3864
G01 X10.5989 Y-7.3414
G01 X10.4995 Y-7.3057
G01 X10.4853 Y-7.3014
G01 X10.3828 Y-7.2759
G01 X10.2784 Y-7.2602
G01 X10.2635 Y-7.2588
G01 X10.1655 Y-7.2539
G01 X10.1506 Y-7.2539
G01 X10.0452 Y-7.2593
G01 X9.9333 Y-7.2759
G01 X9.8237 Y-7.3034
G01 X9.7242 Y-7.3388
G01 X9.7104 Y-7.3445
G01 X9.6150 Y-7.3898
G01 X9.5244 Y-7.4439
G01 X9.5120 Y-7.4522
G01 X9.4332 Y-7.5107
G01 X9.4216 Y-7.5201
G01 X9.3435 Y-7.5912
G01 X9.2676 Y-7.6749
G01 X9.2003 Y-7.7657
G01 X9.1421 Y-7.8627
G01 X9.0938 Y-7.9649
G01 X9.0557 Y-8.0713
G01 X9.0282 Y-8.1810
G01 X9.0126 Y-8.2854
G00 Z1.0000
G00 X15.6686 Y-10.9008
G01 F60.00
G01 Z-0.0900
G01 F500.00
G01 X14.9448 Y-10.1770
G01 X13.4531 Y-10.1770
G01 X13.3714 Y-10.2669
G01 X13.3471 Y-10.2912
G01 X13.3346 Y-10.3029
G01 X13.2619 Y-10.3688
G01 X13.2359 Y-10.3912
G01 X13.2088 Y-10.4123
G01 X13.1300 Y-10.4707
G01 X13.1161 Y-10.4808
G01 X13.0876 Y-10.4999
G01 X12.9740 Y-10.5679
G01 X12.9437 Y-10.5841
G01 X12.9283 Y-10.5916
G01 X12.8240 Y-10.6407
G01 X12.8082 Y-10.6475
G01 X12.7762 Y-10.6598
G01 X12.6838 Y-10.6929
G01 X12.6512 Y-10.7037
G01 X12.6182 Y-10.7128
G01 X12.5230 Y-10.7367
G01 X12.4895 Y-10.7442
G01 X12.4557 Y-10.7500
G01 X12.3586 Y-10.7644
G01 X12.3246 Y-10.7686
G01 X12.2904 Y-10.7712
G01 X12.1752 Y-10.7766
G01 X12.1409 Y-10.7766
G01 X12.1238 Y-10.7760
G01 X12.0257 Y-10.7712
G01 X11.9915 Y-10.7686
G01 X11.9575 Y-10.7644
G01 X11.8604 Y-10.7500
G01 X11.8435 Y-10.7473
G01 X11.8098 Y-10.7406
G01 X11.6814 Y-10.7084
G01 X11.6649 Y-10.7037
G01 X11.6323 Y-10.6929
G01 X11.5399 Y-10.6598
G01 X11.5079 Y-10.6475
G01 X11.4765 Y-10.6336
G01 X11.3878 Y-10.5916
G01 X11.3724 Y-10.5841
G01 X11.3421 Y-10.5679
G01 X11.2285 Y-10.4999
G01 X11.2000 Y-10.4808
G01 X11.1861 Y-10.4707
G01 X11.1073 Y-10.4123
G01 X11.0802 Y-10.3912
G01 X11.0543 Y-10.3688
G01 X10.9816 Y-10.3029
G01 X10.9567 Y-10.2792
G01 X10.9447 Y-10.2669
G01 X10.8672 Y-10.1816
G01 X10.8447 Y-10.1557
G01 X10.8236 Y-10.1286
G01 X10.7652 Y-10.0498
G01 X10.7454 Y-10.0218
G01 X10.7334 Y-10.0030
G01 X10.6676 Y-10.0263
G01 X10.6348 Y-10.0363
G01 X10.5063 Y-10.0685
G01 X10.4727 Y-10.0752
G01 X10.4557 Y-10.0779
G01 X10.3416 Y-10.0946
G01 X10.3075 Y-10.0980
G01 X10.2904 Y-10.0990
G01 X10.1924 Y-10.1038
G01 X10.1581 Y-10.1047
G01 X10.1238 Y-10.1038
G01 X10.0086 Y-10.0980
G01 X9.9745 Y-10.0946
G01 X9.9575 Y-10.0923
G01 X9.8604 Y-10.0779
G01 X9.8266 Y-10.0720
G01 X9.7931 Y-10.0645
G01 X9.6979 Y-10.0407
G01 X9.6649 Y-10.0315
G01 X9.6323 Y-10.0208
G01 X9.5399 Y-9.9877
G01 X9.5079 Y-9.9754
G01 X9.4765 Y-9.9615
G01 X9.3765 Y-9.9140
G01 X10.3634 Y-10.9008
G01 X15.6686 Y-10.9008
G00 Z1.0000
G00 X15.5824 Y-13.7192
G01 F60.00
G01 Z-0.0900
G01 F500.00
G01 X15.5824 Y-12.8420
G01 X15.5661 Y-12.8257
G01 X13.5007 Y-12.8257
G01 X13.5175 Y-12.8502
G01 X13.5283 Y-12.8681
G01 X13.5381 Y-12.8866
G01 X13.5427 Y-12.8959
G01 X13.5511 Y-12.9150
G01 X13.5587 Y-12.9345
G01 X13.5652 Y-12.9544
G01 X13.5708 Y-12.9745
G01 X13.5753 Y-12.9949
G01 X13.5773 Y-13.0051
G01 X13.5789 Y-13.0154
G01 X13.5815 Y-13.0362
G01 X13.5830 Y-13.0570
G01 X13.5834 Y-13.0674
G01 X13.5835 Y-13.3245
G01 X15.1581 Y-13.3245
G01 X15.1789 Y-13.3251
G01 X15.1998 Y-13.3266
G01 X15.2205 Y-13.3291
G01 X15.2411 Y-13.3327
G01 X15.2614 Y-13.3373
G01 X15.2816 Y-13.3429
G01 X15.3014 Y-13.3494
G01 X15.3112 Y-13.3530
G01 X15.3305 Y-13.3610
G01 X15.3494 Y-13.3700
G01 X15.3586 Y-13.3748
G01 X15.3768 Y-13.3851
G01 X15.3944 Y-13.3962
G01 X15.4030 Y-13.4022
G01 X15.4115 Y-13.4083
G01 X15.4280 Y-13.4211
G01 X15.4438 Y-13.4348
G01 X15.4589 Y-13.4492
G01 X15.4733 Y-13.4643
G01 X15.4802 Y-13.4721
G01 X15.4935 Y-13.4882
G01 X15.5059 Y-13.5050
G01 X15.5175 Y-13.5224
G01 X15.5230 Y-13.5313
G01 X15.5333 Y-13.5494
G01 X15.5381 Y-13.5587
G01 X15.5470 Y-13.5776
G01 X15.5511 Y-13.5872
G01 X15.5587 Y-13.6067
G01 X15.5652 Y-13.6265
G01 X15.5708 Y-13.6466
G01 X15.5732 Y-13.6568
G01 X15.5773 Y-13.6773
G01 X15.5789 Y-13.6876
G01 X15.5815 Y-13.7083
G01 X15.5824 Y-13.7192
G00 Z1.0000
G00 X20.7992 Y-15.5544
G01 F60.00
G01 Z-0.0900
G01 F500.00
G01 X22.9710 Y-13.3829
G01 X23.0126 Y-13.3449
G01 X23.0386 Y-13.3225
G01 X23.0657 Y-13.3014
G01 X23.0972 Y-13.2780
G01 X23.1253 Y-13.2582
G01 X23.1542 Y-13.2399
G01 X23.1879 Y-13.2197
G01 X23.2178 Y-13.2028
G01 X23.2484 Y-13.1873
G01 X23.2995 Y-13.1634
G01 X23.3312 Y-13.1503
G01 X23.4005 Y-13.1255
G01 X23.4333 Y-13.1155
G01 X23.4880 Y-13.1016
G01 X23.5047 Y-13.0976
G01 X23.5383 Y-13.0910
G01 X23.5941 Y-13.0825
G01 X23.6282 Y-13.0783
G01 X23.6624 Y-13.0757
G01 X23.7016 Y-13.0738
G01 X23.7359 Y-13.0730
G01 X24.9662 Y-13.0730
G01 X24.9694 Y-13.0526
G01 X24.9761 Y-13.0190
G01 X24.9844 Y-12.9857
G01 X24.9892 Y-12.9692
G01 X25.0000 Y-12.9367
G01 X25.0059 Y-12.9206
G01 X25.0191 Y-12.8889
G01 X25.0337 Y-12.8579
G01 X25.0499 Y-12.8276
G01 X25.0585 Y-12.8128
G01 X25.0675 Y-12.7982
G01 X25.0866 Y-12.7697
G01 X25.0966 Y-12.7558
G01 X25.1178 Y-12.7287
G01 X25.1402 Y-12.7027
G01 X25.1638 Y-12.6779
G01 X25.1887 Y-12.6542
G01 X25.2015 Y-12.6429
G01 X25.2280 Y-12.6211
G01 X25.2417 Y-12.6107
G01 X25.2697 Y-12.5910
G01 X25.2987 Y-12.5726
G01 X25.3286 Y-12.5557
G01 X25.3438 Y-12.5478
G01 X25.3748 Y-12.5331
G01 X25.3906 Y-12.5264
G01 X25.4065 Y-12.5200
G01 X25.4388 Y-12.5085
G01 X25.4716 Y-12.4985
G01 X25.4882 Y-12.4941
G01 X25.5217 Y-12.4866
G01 X25.5555 Y-12.4807
G01 X25.5896 Y-12.4765
G01 X25.6066 Y-12.4751
G01 X25.6409 Y-12.4734
G01 X25.6581 Y-12.4732
G01 X27.6581 Y-12.4732
G01 X27.6924 Y-12.4740
G01 X27.7095 Y-12.4751
G01 X27.7436 Y-12.4784
G01 X27.7776 Y-12.4835
G01 X27.7944 Y-12.4866
G01 X27.8279 Y-12.4941
G01 X27.8610 Y-12.5033
G01 X27.8935 Y-12.5140
G01 X27.9255 Y-12.5264
G01 X27.9569 Y-12.5403
G01 X27.9723 Y-12.5478
G01 X28.0026 Y-12.5640
G01 X28.0320 Y-12.5816
G01 X28.0464 Y-12.5910
G01 X28.0744 Y-12.6107
G01 X28.1015 Y-12.6318
G01 X28.1275 Y-12.6542
G01 X28.1523 Y-12.6779
G01 X28.1760 Y-12.7027
G01 X28.1984 Y-12.7287
G01 X28.2195 Y-12.7558
G01 X28.2392 Y-12.7838
G01 X28.2486 Y-12.7982
G01 X28.2662 Y-12.8276
G01 X28.2824 Y-12.8579
G01 X28.2899 Y-12.8733
G01 X28.3038 Y-12.9047
G01 X28.3162 Y-12.9367
G01 X28.3218 Y-12.9529
G01 X28.3317 Y-12.9857
G01 X28.3400 Y-13.0190
G01 X28.3467 Y-13.0526
G01 X28.3518 Y-13.0866
G01 X28.3551 Y-13.1207
G01 X28.3565 Y-13.1453
G01 X29.6581 Y-13.1453
G01 X29.6924 Y-13.1462
G01 X29.7095 Y-13.1472
G01 X29.7436 Y-13.1506
G01 X29.7606 Y-13.1529
G01 X29.7944 Y-13.1587
G01 X29.8279 Y-13.1663
G01 X29.8610 Y-13.1754
G01 X29.8935 Y-13.1862
G01 X29.9096 Y-13.1922
G01 X29.9255 Y-13.1985
G01 X29.9569 Y-13.2124
G01 X29.9876 Y-13.2279
G01 X30.0174 Y-13.2448
G01 X30.0464 Y-13.2631
G01 X30.0605 Y-13.2728
G01 X30.0881 Y-13.2933
G01 X30.1015 Y-13.3040
G01 X30.1275 Y-13.3264
G01 X30.1523 Y-13.3500
G01 X30.1760 Y-13.3749
G01 X30.1984 Y-13.4009
G01 X30.2195 Y-13.4279
G01 X30.2295 Y-13.4418
G01 X30.2486 Y-13.4703
G01 X30.2662 Y-13.4998
G01 X30.2824 Y-13.5300
G01 X30.2899 Y-13.5454
G01 X30.3038 Y-13.5768
G01 X30.3162 Y-13.6088
G01 X30.3269 Y-13.6414
G01 X30.3317 Y-13.6579
G01 X30.3400 Y-13.6911
G01 X30.3436 Y-13.7079
G01 X30.3467 Y-13.7248
G01 X30.3518 Y-13.7587
G01 X30.3551 Y-13.7929
G01 X30.3562 Y-13.8100
G01 X30.3570 Y-13.8443
G01 X30.3570 Y-14.9888
G01 X32.0991 Y-16.7308
G01 X34.1402 Y-16.7308
G01 X34.1811 Y-16.6937
G01 X34.2071 Y-16.6713
G01 X34.2342 Y-16.6502
G01 X34.2972 Y-16.6034
G01 X34.3253 Y-16.5837
G01 X34.3397 Y-16.5743
G01 X34.4364 Y-16.5163
G01 X34.4667 Y-16.5001
G01 X34.4821 Y-16.4926
G01 X34.5531 Y-16.4590
G01 X34.5844 Y-16.4451
G01 X34.6164 Y-16.4328
G01 X34.6904 Y-16.4063
G01 X34.7066 Y-16.4008
G01 X34.7394 Y-16.3908
G01 X34.8488 Y-16.3634
G01 X34.8656 Y-16.3598
G01 X34.8994 Y-16.3540
G01 X34.9771 Y-16.3424
G01 X35.0111 Y-16.3382
G01 X35.0454 Y-16.3357
G01 X35.1238 Y-16.3319
G01 X35.1409 Y-16.3312
G01 X35.1752 Y-16.3312
G01 X35.2879 Y-16.3368
G01 X35.3220 Y-16.3401
G01 X35.3390 Y-16.3424
G01 X35.4167 Y-16.3540
G01 X35.4505 Y-16.3598
G01 X35.4840 Y-16.3673
G01 X35.5767 Y-16.3908
G01 X35.5932 Y-16.3956
G01 X35.6258 Y-16.4063
G01 X35.6997 Y-16.4328
G01 X35.7317 Y-16.4451
G01 X35.7631 Y-16.4590
G01 X35.8340 Y-16.4926
G01 X35.8647 Y-16.5080
G01 X35.8945 Y-16.5249
G01 X35.9619 Y-16.5653
G01 X35.9908 Y-16.5837
G01 X36.0189 Y-16.6034
G01 X36.0956 Y-16.6606
G01 X36.1221 Y-16.6823
G01 X36.1931 Y-16.7464
G01 X36.2180 Y-16.7701
G01 X36.2417 Y-16.7949
G01 X36.2944 Y-16.8531
G01 X36.3168 Y-16.8791
G01 X36.3379 Y-16.9061
G01 X36.3847 Y-16.9692
G01 X36.4044 Y-16.9972
G01 X36.4228 Y-17.0262
G01 X36.4631 Y-17.0935
G01 X36.4800 Y-17.1234
G01 X36.4955 Y-17.1540
G01 X36.5290 Y-17.2250
G01 X36.5429 Y-17.2564
G01 X36.5553 Y-17.2884
G01 X36.5873 Y-17.3785
G01 X36.5973 Y-17.4113
G01 X36.6207 Y-17.5041
G01 X36.6282 Y-17.5376
G01 X36.6341 Y-17.5714
G01 X36.6479 Y-17.6660
G01 X36.6498 Y-17.6831
G01 X36.6523 Y-17.7173
G01 X36.6568 Y-17.8128
G01 X36.6568 Y-17.8472
G01 X36.6523 Y-17.9427
G01 X36.6498 Y-17.9769
G01 X36.6479 Y-17.9940
G01 X36.6341 Y-18.0886
G01 X36.6282 Y-18.1224
G01 X36.6207 Y-18.1559
G01 X36.5973 Y-18.2487
G01 X36.5873 Y-18.2815
G01 X36.5553 Y-18.3716
G01 X36.5493 Y-18.3877
G01 X36.5362 Y-18.4194
G01 X36.4955 Y-18.5060
G01 X36.4800 Y-18.5366
G01 X36.4631 Y-18.5665
G01 X36.4228 Y-18.6338
G01 X36.4044 Y-18.6628
G01 X36.3947 Y-18.6769
G01 X36.3379 Y-18.7539
G01 X36.3168 Y-18.7809
G01 X36.2944 Y-18.8069
G01 X36.2417 Y-18.8651
G01 X36.2180 Y-18.8899
G01 X36.1931 Y-18.9136
G01 X36.1350 Y-18.9663
G01 X36.1090 Y-18.9887
G01 X36.0820 Y-19.0098
G01 X36.0189 Y-19.0566
G01 X35.9908 Y-19.0763
G01 X35.9619 Y-19.0947
G01 X35.8945 Y-19.1351
G01 X35.8647 Y-19.1520
G01 X35.8340 Y-19.1674
G01 X35.7631 Y-19.2010
G01 X35.7317 Y-19.2149
G01 X35.6997 Y-19.2272
G01 X35.6258 Y-19.2537
G01 X35.5932 Y-19.2644
G01 X35.5601 Y-19.2736
G01 X35.4840 Y-19.2927
G01 X35.4673 Y-19.2966
G01 X35.4336 Y-19.3033
G01 X35.3390 Y-19.3176
G01 X35.3050 Y-19.3218
G01 X35.2708 Y-19.3243
G01 X35.1924 Y-19.3281
G01 X35.1752 Y-19.3288
G01 X35.1409 Y-19.3288
G01 X35.0454 Y-19.3243
G01 X35.0111 Y-19.3218
G01 X34.9771 Y-19.3176
G01 X34.8994 Y-19.3060
G01 X34.8656 Y-19.3002
G01 X34.8488 Y-19.2966
G01 X34.7394 Y-19.2692
G01 X34.7229 Y-19.2644
G01 X34.6904 Y-19.2537
G01 X34.6164 Y-19.2272
G01 X34.5844 Y-19.2149
G01 X34.5531 Y-19.2010
G01 X34.4821 Y-19.1674
G01 X34.4515 Y-19.1520
G01 X34.4364 Y-19.1437
G01 X34.3397 Y-19.0857
G01 X34.3253 Y-19.0763
G01 X34.2972 Y-19.0566
G01 X34.2342 Y-19.0098
G01 X34.2071 Y-18.9887
G01 X34.1811 Y-18.9663
G01 X34.1402 Y-18.9292
G01 X31.6438 Y-18.9292
G01 X31.6095 Y-18.9283
G01 X31.5703 Y-18.9264
G01 X31.5360 Y-18.9239
G01 X31.5020 Y-18.9197
G01 X31.4631 Y-18.9139
G01 X31.4293 Y-18.9080
G01 X31.3959 Y-18.9005
G01 X31.3412 Y-18.8866
G01 X31.3247 Y-18.8818
G01 X31.2921 Y-18.8711
G01 X31.2551 Y-18.8578
G01 X31.2231 Y-18.8455
G01 X31.1918 Y-18.8316
G01 X31.1409 Y-18.8073
G01 X31.1256 Y-18.7994
G01 X31.0958 Y-18.7825
G01 X31.0621 Y-18.7623
G01 X31.0331 Y-18.7439
G01 X31.0051 Y-18.7242
G01 X30.9599 Y-18.6904
G01 X30.9333 Y-18.6686
G01 X30.9205 Y-18.6573
G01 X30.8914 Y-18.6309
G01 X30.8665 Y-18.6072
G01 X28.8026 Y-16.5433
G01 X27.6409 Y-16.5430
G01 X27.6066 Y-16.5414
G01 X27.5725 Y-16.5380
G01 X27.5555 Y-16.5357
G01 X27.5217 Y-16.5298
G01 X27.5049 Y-16.5263
G01 X27.4716 Y-16.5179
G01 X27.4388 Y-16.5080
G01 X27.4065 Y-16.4964
G01 X27.3748 Y-16.4833
G01 X27.3592 Y-16.4761
G01 X27.3438 Y-16.4686
G01 X27.3135 Y-16.4525
G01 X27.2841 Y-16.4348
G01 X27.2697 Y-16.4255
G01 X27.2417 Y-16.4057
G01 X27.2280 Y-16.3953
G01 X27.2015 Y-16.3736
G01 X27.1761 Y-16.3505
G01 X27.1518 Y-16.3263
G01 X27.1402 Y-16.3137
G01 X27.1288 Y-16.3008
G01 X27.1070 Y-16.2743
G01 X27.0966 Y-16.2607
G01 X27.0769 Y-16.2326
G01 X27.0585 Y-16.2036
G01 X27.0499 Y-16.1888
G01 X27.0337 Y-16.1586
G01 X27.0191 Y-16.1275
G01 X27.0059 Y-16.0958
G01 X27.0000 Y-16.0798
G01 X26.9944 Y-16.0635
G01 X26.9844 Y-16.0307
G01 X26.9800 Y-16.0141
G01 X26.9725 Y-15.9807
G01 X26.9694 Y-15.9638
G01 X26.9643 Y-15.9298
G01 X26.9610 Y-15.8957
G01 X26.9597 Y-15.8711
G01 X25.6581 Y-15.8711
G01 X25.6238 Y-15.8703
G01 X25.5896 Y-15.8677
G01 X25.5725 Y-15.8659
G01 X25.5386 Y-15.8608
G01 X25.5049 Y-15.8541
G01 X25.4716 Y-15.8458
G01 X25.4552 Y-15.8410
G01 X25.4226 Y-15.8303
G01 X25.3906 Y-15.8179
G01 X25.3592 Y-15.8040
G01 X25.3438 Y-15.7965
G01 X25.3286 Y-15.7886
G01 X25.2987 Y-15.7717
G01 X25.2697 Y-15.7533
G01 X25.2556 Y-15.7436
G01 X25.2417 Y-15.7336
G01 X25.2146 Y-15.7125
G01 X25.1887 Y-15.6900
G01 X25.1761 Y-15.6784
G01 X25.1518 Y-15.6541
G01 X25.1402 Y-15.6415
G01 X25.1178 Y-15.6156
G01 X25.1070 Y-15.6022
G01 X25.0966 Y-15.5885
G01 X25.0769 Y-15.5605
G01 X25.0675 Y-15.5461
G01 X25.0499 Y-15.5167
G01 X25.0416 Y-15.5016
G01 X25.0262 Y-15.4710
G01 X25.0123 Y-15.4396
G01 X25.0059 Y-15.4237
G01 X25.0000 Y-15.4076
G01 X24.9892 Y-15.3750
G01 X24.9800 Y-15.3420
G01 X24.9761 Y-15.3253
G01 X24.9694 Y-15.2916
G01 X24.9662 Y-15.2713
G01 X24.1912 Y-15.2713
G01 X22.5922 Y-16.8703
G01 X22.5922 Y-21.2871
G01 X22.6407 Y-21.3409
G01 X22.6625 Y-21.3675
G01 X22.7297 Y-21.4581
G01 X22.7488 Y-21.4866
G01 X22.7631 Y-21.5100
G01 X22.7774 Y-21.4866
G01 X22.7867 Y-21.4722
G01 X22.8065 Y-21.4442
G01 X22.8636 Y-21.3675
G01 X22.8854 Y-21.3409
G01 X22.8968 Y-21.3281
G01 X22.9612 Y-21.2573
G01 X22.9854 Y-21.2331
G01 X23.0561 Y-21.1687
G01 X23.0821 Y-21.1463
G01 X23.0955 Y-21.1356
G01 X23.1722 Y-21.0784
G01 X23.2003 Y-21.0587
G01 X23.2293 Y-21.0403
G01 X23.2966 Y-20.9999
G01 X23.3265 Y-20.9830
G01 X23.3571 Y-20.9676
G01 X23.4281 Y-20.9340
G01 X23.4594 Y-20.9201
G01 X23.4914 Y-20.9078
G01 X23.5816 Y-20.8758
G01 X23.6144 Y-20.8658
G01 X23.6310 Y-20.8614
G01 X23.7238 Y-20.8384
G01 X23.7575 Y-20.8317
G01 X23.8521 Y-20.8174
G01 X23.8691 Y-20.8151
G01 X23.9032 Y-20.8118
G01 X23.9988 Y-20.8069
G01 X24.0331 Y-20.8060
G01 X24.0674 Y-20.8069
G01 X24.1458 Y-20.8107
G01 X24.1800 Y-20.8132
G01 X24.2140 Y-20.8174
G01 X24.2917 Y-20.8290
G01 X24.3255 Y-20.8348
G01 X24.3590 Y-20.8423
G01 X24.4351 Y-20.8614
G01 X24.4682 Y-20.8706
G01 X24.5008 Y-20.8813
G01 X24.5908 Y-20.9138
G01 X24.6067 Y-20.9201
G01 X24.6381 Y-20.9340
G01 X24.7244 Y-20.9751
G01 X24.7547 Y-20.9913
G01 X24.8369 Y-21.0403
G01 X24.8658 Y-21.0587
G01 X24.8939 Y-21.0784
G01 X24.9706 Y-21.1356
G01 X24.9840 Y-21.1463
G01 X25.0100 Y-21.1687
G01 X25.0681 Y-21.2214
G01 X25.0930 Y-21.2451
G01 X25.1167 Y-21.2699
G01 X25.1694 Y-21.3281
G01 X25.1918 Y-21.3541
G01 X25.2129 Y-21.3811
G01 X25.2597 Y-21.4442
G01 X25.2794 Y-21.4722
G01 X25.2978 Y-21.5012
G01 X25.3468 Y-21.5834
G01 X25.3629 Y-21.6136
G01 X25.4040 Y-21.7000
G01 X25.4179 Y-21.7314
G01 X25.4303 Y-21.7634
G01 X25.4567 Y-21.8373
G01 X25.4675 Y-21.8699
G01 X25.4766 Y-21.9029
G01 X25.4957 Y-21.9791
G01 X25.5032 Y-22.0126
G01 X25.5091 Y-22.0464
G01 X25.5229 Y-22.1410
G01 X25.5263 Y-22.1752
G01 X25.5273 Y-22.1923
G01 X25.5318 Y-22.2878
G01 X25.5320 Y-22.5565
G01 X30.9662 Y-22.5565
G01 X30.9694 Y-22.5362
G01 X30.9761 Y-22.5026
G01 X30.9800 Y-22.4859
G01 X30.9892 Y-22.4528
G01 X31.0000 Y-22.4202
G01 X31.0059 Y-22.4042
G01 X31.0123 Y-22.3882
G01 X31.0262 Y-22.3569
G01 X31.0416 Y-22.3262
G01 X31.0499 Y-22.3112
G01 X31.0675 Y-22.2818
G01 X31.0866 Y-22.2532
G01 X31.0966 Y-22.2393
G01 X31.1178 Y-22.2123
G01 X31.1288 Y-22.1992
G01 X31.1518 Y-22.1737
G01 X31.1761 Y-22.1495
G01 X31.1887 Y-22.1378
G01 X31.2146 Y-22.1154
G01 X31.2280 Y-22.1047
G01 X31.2556 Y-22.0842
G01 X31.2697 Y-22.0745
G01 X31.2987 Y-22.0562
G01 X31.3135 Y-22.0475
G01 X31.3438 Y-22.0314
G01 X31.3592 Y-22.0239
G01 X31.3748 Y-22.0167
G01 X31.4065 Y-22.0036
G01 X31.4388 Y-21.9920
G01 X31.4716 Y-21.9821
G01 X31.4882 Y-21.9777
G01 X31.5217 Y-21.9702
G01 X31.5555 Y-21.9643
G01 X31.5896 Y-21.9601
G01 X31.6238 Y-21.9576
G01 X31.6581 Y-21.9567
G01 X33.6581 Y-21.9567
G01 X33.6752 Y-21.9570
G01 X33.7095 Y-21.9586
G01 X33.7436 Y-21.9620
G01 X33.7606 Y-21.9643
G01 X33.7944 Y-21.9702
G01 X33.8279 Y-21.9777
G01 X33.8445 Y-21.9821
G01 X33.8773 Y-21.9920
G01 X33.8935 Y-21.9976
G01 X33.9096 Y-22.0036
G01 X33.9413 Y-22.0167
G01 X33.9723 Y-22.0314
G01 X33.9876 Y-22.0393
G01 X34.0174 Y-22.0562
G01 X34.0464 Y-22.0745
G01 X34.0605 Y-22.0842
G01 X34.0881 Y-22.1047
G01 X34.1146 Y-22.1264
G01 X34.1400 Y-22.1495
G01 X34.1523 Y-22.1615
G01 X34.1760 Y-22.1863
G01 X34.1984 Y-22.2123
G01 X34.2091 Y-22.2257
G01 X34.2195 Y-22.2393
G01 X34.2392 Y-22.2674
G01 X34.2576 Y-22.2964
G01 X34.2745 Y-22.3262
G01 X34.2824 Y-22.3414
G01 X34.2971 Y-22.3725
G01 X34.3038 Y-22.3882
G01 X34.3162 Y-22.4202
G01 X34.3218 Y-22.4365
G01 X34.3317 Y-22.4693
G01 X34.3400 Y-22.5026
G01 X34.3436 Y-22.5193
G01 X34.3495 Y-22.5532
G01 X34.3518 Y-22.5702
G01 X34.3551 Y-22.6043
G01 X34.3565 Y-22.6289
G01 X35.6581 Y-22.6289
G01 X35.6924 Y-22.6297
G01 X35.7095 Y-22.6308
G01 X35.7436 Y-22.6341
G01 X35.7606 Y-22.6365
G01 X35.7944 Y-22.6423
G01 X35.8279 Y-22.6498
G01 X35.8610 Y-22.6590
G01 X35.8935 Y-22.6697
G01 X35.9255 Y-22.6821
G01 X35.9569 Y-22.6960
G01 X35.9876 Y-22.7114
G01 X36.0174 Y-22.7283
G01 X36.0464 Y-22.7467
G01 X36.0744 Y-22.7664
G01 X36.1015 Y-22.7875
G01 X36.1275 Y-22.8100
G01 X36.1523 Y-22.8336
G01 X36.1760 Y-22.8585
G01 X36.1984 Y-22.8844
G01 X36.2091 Y-22.8978
G01 X36.2295 Y-22.9254
G01 X36.2486 Y-22.9539
G01 X36.2662 Y-22.9833
G01 X36.2745 Y-22.9984
G01 X36.2899 Y-23.0290
G01 X36.2971 Y-23.0446
G01 X36.3102 Y-23.0763
G01 X36.3162 Y-23.0924
G01 X36.3269 Y-23.1250
G01 X36.3317 Y-23.1414
G01 X36.3361 Y-23.1580
G01 X36.3436 Y-23.1915
G01 X36.3495 Y-23.2253
G01 X36.3518 Y-23.2423
G01 X36.3537 Y-23.2593
G01 X36.3562 Y-23.2936
G01 X36.3570 Y-23.3279
G01 X36.3570 Y-25.3279
G01 X36.3562 Y-25.3622
G01 X36.3537 Y-25.3964
G01 X36.3495 Y-25.4304
G01 X36.3467 Y-25.4474
G01 X36.3400 Y-25.4810
G01 X36.3361 Y-25.4977
G01 X36.3269 Y-25.5308
G01 X36.3162 Y-25.5633
G01 X36.3102 Y-25.5794
G01 X36.2971 Y-25.6111
G01 X36.2899 Y-25.6267
G01 X36.2745 Y-25.6573
G01 X36.2662 Y-25.6724
G01 X36.2486 Y-25.7018
G01 X36.2392 Y-25.7162
G01 X36.2195 Y-25.7442
G01 X36.1984 Y-25.7713
G01 X36.1873 Y-25.7844
G01 X36.1643 Y-25.8098
G01 X36.1523 Y-25.8221
G01 X36.1275 Y-25.8458
G01 X36.1146 Y-25.8571
G01 X36.1015 Y-25.8682
G01 X36.0744 Y-25.8893
G01 X36.0605 Y-25.8993
G01 X36.0320 Y-25.9184
G01 X36.0174 Y-25.9274
G01 X35.9876 Y-25.9443
G01 X35.9723 Y-25.9522
G01 X35.9413 Y-25.9669
G01 X35.9255 Y-25.9736
G01 X35.8935 Y-25.9860
G01 X35.8610 Y-25.9967
G01 X35.8445 Y-26.0015
G01 X35.8112 Y-26.0098
G01 X35.7944 Y-26.0134
G01 X35.7606 Y-26.0193
G01 X35.7266 Y-26.0235
G01 X35.6924 Y-26.0260
G01 X35.6581 Y-26.0268
G01 X33.6581 Y-26.0268
G01 X33.6409 Y-26.0266
G01 X33.6066 Y-26.0249
G01 X33.5725 Y-26.0216
G01 X33.5386 Y-26.0165
G01 X33.5217 Y-26.0134
G01 X33.4882 Y-26.0059
G01 X33.4552 Y-25.9967
G01 X33.4226 Y-25.9860
G01 X33.3906 Y-25.9736
G01 X33.3592 Y-25.9597
G01 X33.3286 Y-25.9443
G01 X33.2987 Y-25.9274
G01 X33.2841 Y-25.9184
G01 X33.2556 Y-25.8993
G01 X33.2280 Y-25.8789
G01 X33.2015 Y-25.8571
G01 X33.1761 Y-25.8341
G01 X33.1518 Y-25.8098
G01 X33.1402 Y-25.7973
G01 X33.1178 Y-25.7713
G01 X33.0966 Y-25.7442
G01 X33.0769 Y-25.7162
G01 X33.0585 Y-25.6872
G01 X33.0416 Y-25.6573
G01 X33.0262 Y-25.6267
G01 X33.0123 Y-25.5953
G01 X33.0000 Y-25.5633
G01 X32.9944 Y-25.5471
G01 X32.9844 Y-25.5143
G01 X32.9761 Y-25.4810
G01 X32.9694 Y-25.4474
G01 X32.9643 Y-25.4134
G01 X32.9610 Y-25.3793
G01 X32.9597 Y-25.3547
G01 X31.6409 Y-25.3545
G01 X31.6238 Y-25.3538
G01 X31.5896 Y-25.3513
G01 X31.5555 Y-25.3471
G01 X31.5386 Y-25.3444
G01 X31.5049 Y-25.3377
G01 X31.4882 Y-25.3337
G01 X31.4552 Y-25.3246
G01 X31.4388 Y-25.3194
G01 X31.4065 Y-25.3078
G01 X31.3906 Y-25.3015
G01 X31.3592 Y-25.2876
G01 X31.3286 Y-25.2721
G01 X31.3135 Y-25.2639
G01 X31.2841 Y-25.2462
G01 X31.2556 Y-25.2272
G01 X31.2417 Y-25.2171
G01 X31.2280 Y-25.2067
G01 X31.2015 Y-25.1850
G01 X31.1761 Y-25.1619
G01 X31.1638 Y-25.1500
G01 X31.1518 Y-25.1377
G01 X31.1288 Y-25.1123
G01 X31.1178 Y-25.0991
G01 X31.0966 Y-25.0721
G01 X31.0769 Y-25.0440
G01 X31.0675 Y-25.0297
G01 X31.0499 Y-25.0002
G01 X31.0416 Y-24.9852
G01 X31.0262 Y-24.9546
G01 X31.0191 Y-24.9390
G01 X31.0123 Y-24.9232
G01 X31.0000 Y-24.8912
G01 X30.9892 Y-24.8586
G01 X30.9844 Y-24.8421
G01 X30.9761 Y-24.8089
G01 X30.9725 Y-24.7921
G01 X30.9694 Y-24.7752
G01 X30.9662 Y-24.7549
G01 X24.9666 Y-24.7547
G01 X24.9103 Y-24.7521
G01 X24.8760 Y-24.7496
G01 X24.8420 Y-24.7454
G01 X24.8031 Y-24.7396
G01 X24.7693 Y-24.7338
G01 X24.7526 Y-24.7302
G01 X24.6978 Y-24.7167
G01 X24.6647 Y-24.7076
G01 X24.6321 Y-24.6968
G01 X24.5791 Y-24.6776
G01 X24.5474 Y-24.6645
G01 X24.4963 Y-24.6405
G01 X24.4656 Y-24.6251
G01 X24.4506 Y-24.6168
G01 X24.4021 Y-24.5880
G01 X24.3875 Y-24.5790
G01 X24.3672 Y-24.5656
G01 X24.3423 Y-24.5716
G01 X24.3086 Y-24.5783
G01 X24.1970 Y-24.5949
G01 X24.1629 Y-24.5982
G01 X24.1458 Y-24.5993
G01 X24.0507 Y-24.6037
G01 X22.3772 Y-26.2772
G01 X22.3524 Y-26.3009
G01 X22.3233 Y-26.3273
G01 X22.2973 Y-26.3497
G01 X22.2703 Y-26.3708
G01 X22.2295 Y-26.4008
G01 X32.8302 Y-26.4008
G01 X32.8645 Y-26.4017
G01 X32.9209 Y-26.4047
G01 X32.9379 Y-26.4061
G01 X32.9720 Y-26.4103
G01 X33.0108 Y-26.4161
G01 X33.0446 Y-26.4220
G01 X33.0781 Y-26.4295
G01 X33.1328 Y-26.4434
G01 X33.1493 Y-26.4482
G01 X33.1819 Y-26.4589
G01 X33.2188 Y-26.4722
G01 X33.2508 Y-26.4845
G01 X33.2822 Y-26.4984
G01 X33.3331 Y-26.5227
G01 X33.3484 Y-26.5306
G01 X33.3782 Y-26.5475
G01 X33.4119 Y-26.5677
G01 X33.4409 Y-26.5861
G01 X33.4689 Y-26.6058
G01 X33.5141 Y-26.6396
G01 X33.5275 Y-26.6503
G01 X33.5535 Y-26.6727
G01 X33.5826 Y-26.6991
G01 X33.6074 Y-26.7228
G01 X34.5196 Y-27.6349
G01 X34.6238 Y-27.6297
G01 X34.6581 Y-27.6289
G01 X34.6924 Y-27.6297
G01 X34.7904 Y-27.6345
G01 X34.8246 Y-27.6371
G01 X34.8416 Y-27.6390
G01 X34.9557 Y-27.6557
G01 X34.9895 Y-27.6615
G01 X35.0230 Y-27.6690
G01 X35.1348 Y-27.6973
G01 X35.1512 Y-27.7020
G01 X35.1838 Y-27.7128
G01 X35.2762 Y-27.7459
G01 X35.3082 Y-27.7582
G01 X35.3396 Y-27.7721
G01 X35.4437 Y-27.8216
G01 X35.4740 Y-27.8378
G01 X35.5730 Y-27.8969
G01 X35.6020 Y-27.9152
G01 X35.6161 Y-27.9249
G01 X35.7088 Y-27.9934
G01 X35.7359 Y-28.0145
G01 X35.7619 Y-28.0369
G01 X35.8346 Y-28.1028
G01 X35.8471 Y-28.1145
G01 X35.8714 Y-28.1388
G01 X35.9490 Y-28.2241
G01 X35.9714 Y-28.2500
G01 X35.9925 Y-28.2771
G01 X36.0510 Y-28.3559
G01 X36.0707 Y-28.3840
G01 X36.0827 Y-28.4027
G01 X36.1485 Y-28.3794
G01 X36.1814 Y-28.3694
G01 X36.3098 Y-28.3372
G01 X36.3435 Y-28.3305
G01 X36.3604 Y-28.3278
G01 X36.4745 Y-28.3111
G01 X36.5086 Y-28.3077
G01 X36.5257 Y-28.3067
G01 X36.6409 Y-28.3012
G01 X36.6581 Y-28.3010
G01 X36.6924 Y-28.3019
G01 X36.7965 Y-28.3071
G01 X37.8089 Y-27.2947
G01 X37.8089 Y-12.0992
G01 X28.4859 Y-12.0992
G01 X28.4516 Y-12.0983
G01 X28.4124 Y-12.0964
G01 X28.3782 Y-12.0939
G01 X28.3611 Y-12.0920
G01 X28.2883 Y-12.0812
G01 X28.2715 Y-12.0780
G01 X28.2380 Y-12.0705
G01 X28.1999 Y-12.0610
G01 X28.1668 Y-12.0518
G01 X28.1343 Y-12.0411
G01 X28.0973 Y-12.0278
G01 X28.0812 Y-12.0219
G01 X28.0495 Y-12.0087
G01 X27.9830 Y-11.9773
G01 X27.9527 Y-11.9611
G01 X27.9379 Y-11.9525
G01 X27.9042 Y-11.9323
G01 X27.8753 Y-11.9139
G01 X27.8472 Y-11.8942
G01 X27.8157 Y-11.8708
G01 X27.7886 Y-11.8497
G01 X27.7626 Y-11.8273
G01 X27.7335 Y-11.8009
G01 X27.7087 Y-11.7772
G01 X26.7965 Y-10.8651
G01 X26.6924 Y-10.8703
G01 X26.6581 Y-10.8711
G01 X26.6238 Y-10.8703
G01 X26.5257 Y-10.8655
G01 X26.5086 Y-10.8644
G01 X26.4745 Y-10.8610
G01 X26.3604 Y-10.8443
G01 X26.3266 Y-10.8385
G01 X26.2931 Y-10.8310
G01 X26.1814 Y-10.8027
G01 X26.1649 Y-10.7980
G01 X26.1323 Y-10.7872
G01 X26.0399 Y-10.7541
G01 X26.0079 Y-10.7418
G01 X25.9765 Y-10.7279
G01 X25.8724 Y-10.6784
G01 X25.8421 Y-10.6622
G01 X25.7432 Y-10.6031
G01 X25.7285 Y-10.5941
G01 X25.7000 Y-10.5751
G01 X25.6073 Y-10.5066
G01 X25.5802 Y-10.4855
G01 X25.5543 Y-10.4631
G01 X25.4816 Y-10.3972
G01 X25.4567 Y-10.3735
G01 X25.4447 Y-10.3612
G01 X25.3672 Y-10.2759
G01 X25.3447 Y-10.2500
G01 X25.3236 Y-10.2229
G01 X25.2652 Y-10.1441
G01 X25.2454 Y-10.1160
G01 X25.2334 Y-10.0973
G01 X25.1676 Y-10.1206
G01 X25.1348 Y-10.1306
G01 X25.0063 Y-10.1628
G01 X24.9895 Y-10.1663
G01 X24.9557 Y-10.1722
G01 X24.8416 Y-10.1889
G01 X24.8075 Y-10.1923
G01 X24.7904 Y-10.1933
G01 X24.6924 Y-10.1981
G01 X24.6581 Y-10.1990
G01 X24.6238 Y-10.1981
G01 X24.5257 Y-10.1933
G01 X24.5086 Y-10.1923
G01 X24.4745 Y-10.1889
G01 X24.3435 Y-10.1695
G01 X24.3098 Y-10.1628
G01 X24.2931 Y-10.1588
G01 X24.1979 Y-10.1350
G01 X24.1649 Y-10.1258
G01 X24.1323 Y-10.1151
G01 X24.0399 Y-10.0820
G01 X24.0238 Y-10.0760
G01 X23.9921 Y-10.0629
G01 X23.8878 Y-10.0138
G01 X23.8572 Y-9.9984
G01 X23.8273 Y-9.9814
G01 X23.7432 Y-9.9310
G01 X23.7142 Y-9.9126
G01 X23.6861 Y-9.8929
G01 X23.6073 Y-9.8344
G01 X23.5802 Y-9.8133
G01 X23.5543 Y-9.7909
G01 X23.4690 Y-9.7133
G01 X23.4567 Y-9.7014
G01 X23.4331 Y-9.6765
G01 X23.3672 Y-9.6038
G01 X23.3447 Y-9.5778
G01 X23.3236 Y-9.5508
G01 X23.2652 Y-9.4719
G01 X23.2551 Y-9.4580
G01 X23.2361 Y-9.4295
G01 X23.1766 Y-9.3307
G01 X23.1597 Y-9.3009
G01 X23.1443 Y-9.2702
G01 X23.1023 Y-9.1815
G01 X23.0884 Y-9.1502
G01 X23.0761 Y-9.1182
G01 X23.0374 Y-9.0095
G01 X23.0323 Y-8.9932
G01 X23.0231 Y-8.9601
G01 X22.9993 Y-8.8649
G01 X22.9917 Y-8.8315
G01 X22.9859 Y-8.7977
G01 X22.9715 Y-8.7006
G01 X22.9673 Y-8.6665
G01 X22.9658 Y-8.6494
G01 X22.9599 Y-8.5343
G01 X22.9591 Y-8.5034
G01 X20.7992 Y-10.6634
G01 X20.7992 Y-15.5544
G00 Z1.0000
G00 X18.6008 Y-20.4004
G01 F60.00
G01 Z-0.0900
G01 F500.00
G01 X18.5358 Y-20.4237
G01 X18.5032 Y-20.4344
G01 X18.4701 Y-20.4436
G01 X18.3940 Y-20.4627
G01 X18.3605 Y-20.4702
G01 X18.3267 Y-20.4760
G01 X18.2320 Y-20.4899
G01 X18.1979 Y-20.4932
G01 X18.1255 Y-20.4970
G01 X17.5122 Y-21.1103
G01 X17.5122 Y-21.2871
G01 X17.5607 Y-21.3409
G01 X17.5825 Y-21.3675
G01 X17.6497 Y-21.4581
G01 X17.6688 Y-21.4866
G01 X17.6831 Y-21.5100
G01 X17.6974 Y-21.4866
G01 X17.7164 Y-21.4581
G01 X17.7836 Y-21.3675
G01 X17.8054 Y-21.3409
G01 X17.8168 Y-21.3281
G01 X17.8812 Y-21.2573
G01 X17.8931 Y-21.2451
G01 X17.9180 Y-21.2214
G01 X17.9761 Y-21.1687
G01 X18.0021 Y-21.1463
G01 X18.0292 Y-21.1252
G01 X18.1061 Y-21.0684
G01 X18.1203 Y-21.0587
G01 X18.1493 Y-21.0403
G01 X18.2166 Y-20.9999
G01 X18.2465 Y-20.9830
G01 X18.2771 Y-20.9676
G01 X18.3637 Y-20.9269
G01 X18.3954 Y-20.9138
G01 X18.4114 Y-20.9078
G01 X18.5016 Y-20.8758
G01 X18.5344 Y-20.8658
G01 X18.6008 Y-20.8489
G01 X18.6008 Y-20.4004
G00 Z1.0000
G00 X18.0066 Y-22.2043
G01 F60.00
G01 Z-0.0900
G01 F500.00
G01 X18.0051 Y-22.2191
G01 X18.0011 Y-22.3050
G01 X18.0011 Y-23.1050
G01 X18.0057 Y-23.1983
G01 X18.0187 Y-23.2870
G01 X18.0210 Y-23.2980
G01 X18.0401 Y-23.3741
G01 X18.0444 Y-23.3884
G01 X18.0736 Y-23.4693
G01 X18.1135 Y-23.5537
G01 X18.1615 Y-23.6339
G01 X18.2126 Y-23.7030
G01 X18.2221 Y-23.7146
G01 X18.2748 Y-23.7727
G01 X18.2826 Y-23.7807
G01 X18.3492 Y-23.8409
G01 X18.4242 Y-23.8965
G01 X18.5043 Y-23.9445
G01 X18.5888 Y-23.9845
G01 X18.6767 Y-24.0160
G01 X18.7673 Y-24.0387
G01 X18.8598 Y-24.0524
G01 X18.9531 Y-24.0569
G01 X19.0464 Y-24.0524
G01 X19.1388 Y-24.0387
G01 X19.2294 Y-24.0160
G01 X19.3174 Y-23.9845
G01 X19.4018 Y-23.9445
G01 X19.4819 Y-23.8965
G01 X19.5570 Y-23.8409
G01 X19.6208 Y-23.7833
G01 X19.6288 Y-23.7755
G01 X19.6889 Y-23.7089
G01 X19.7403 Y-23.6400
G01 X19.7486 Y-23.6276
G01 X19.7926 Y-23.5537
G01 X19.8295 Y-23.4761
G01 X19.8352 Y-23.4623
G01 X19.8640 Y-23.3813
G01 X19.8859 Y-23.2944
G01 X19.8880 Y-23.2834
G01 X19.9004 Y-23.1983
G01 X19.9050 Y-23.1087
G01 X19.9050 Y-22.5339
G01 X20.0930 Y-22.3458
G01 X20.1268 Y-22.3083
G01 X20.1548 Y-22.2709
G01 X20.1631 Y-22.2585
G01 X20.1870 Y-22.2183
G01 X20.2071 Y-22.1762
G01 X20.2128 Y-22.1624
G01 X20.2284 Y-22.1183
G01 X20.2399 Y-22.0731
G01 X20.2428 Y-22.0584
G01 X20.2495 Y-22.0122
G01 X20.2520 Y-21.9655
G01 X20.2521 Y-10.4368
G01 X24.1368 Y-6.5522
G01 X33.2594 Y-6.5521
G01 X34.2200 Y-7.5128
G01 X34.2107 Y-7.5767
G01 X34.2063 Y-7.6625
G01 X34.2063 Y-7.6775
G01 X34.2107 Y-7.7633
G01 X34.2231 Y-7.8484
G01 X34.2260 Y-7.8630
G01 X34.2471 Y-7.9463
G01 X34.2772 Y-8.0308
G01 X34.2816 Y-8.0411
G01 X34.3185 Y-8.1187
G01 X34.3626 Y-8.1926
G01 X34.3708 Y-8.2050
G01 X34.4222 Y-8.2739
G01 X34.4798 Y-8.3377
G01 X34.4903 Y-8.3483
G01 X34.5542 Y-8.4059
G01 X34.6231 Y-8.4572
G01 X34.6355 Y-8.4655
G01 X34.7093 Y-8.5095
G01 X34.7938 Y-8.5495
G01 X34.8746 Y-8.5786
G01 X34.8889 Y-8.5829
G01 X34.9723 Y-8.6037
G01 X35.0648 Y-8.6174
G01 X35.1506 Y-8.6218
G01 X35.1655 Y-8.6218
G01 X35.2514 Y-8.6174
G01 X35.3438 Y-8.6037
G01 X35.4272 Y-8.5829
G01 X35.4415 Y-8.5786
G01 X35.5224 Y-8.5495
G01 X35.6035 Y-8.5113
G01 X35.6133 Y-8.5059
G01 X35.6806 Y-8.4655
G01 X35.6930 Y-8.4572
G01 X35.7620 Y-8.4059
G01 X35.8258 Y-8.3483
G01 X35.8363 Y-8.3377
G01 X35.8939 Y-8.2739
G01 X35.9453 Y-8.2050
G01 X35.9536 Y-8.1926
G01 X35.9976 Y-8.1187
G01 X36.0345 Y-8.0411
G01 X36.0402 Y-8.0273
G01 X36.0690 Y-7.9463
G01 X36.0901 Y-7.8630
G01 X36.0930 Y-7.8484
G01 X36.1054 Y-7.7633
G01 X36.1098 Y-7.6775
G01 X36.1098 Y-7.6625
G01 X36.1054 Y-7.5767
G01 X36.0930 Y-7.4916
G01 X36.0901 Y-7.4770
G01 X36.0690 Y-7.3937
G01 X36.0402 Y-7.3127
G01 X36.0345 Y-7.2989
G01 X35.9993 Y-7.2246
G01 X35.9939 Y-7.2148
G01 X35.9496 Y-7.1411
G01 X35.8985 Y-7.0720
G01 X35.8915 Y-7.0632
G01 X35.8363 Y-7.0023
G01 X35.8258 Y-6.9917
G01 X35.7620 Y-6.9341
G01 X35.7102 Y-6.8955
G01 X35.7102 Y-4.5019
G01 X35.7655 Y-4.5018
G01 X35.7804 Y-4.5003
G01 X35.7914 Y-4.4983
G01 X35.8057 Y-4.4943
G01 X35.8196 Y-4.4889
G01 X35.8330 Y-4.4822
G01 X35.8425 Y-4.4763
G01 X35.8486 Y-4.4720
G01 X35.8545 Y-4.4675
G01 X35.8628 Y-4.4600
G01 X35.8707 Y-4.4520
G01 X35.8755 Y-4.4464
G01 X35.8844 Y-4.4344
G01 X35.8884 Y-4.4281
G01 X35.8938 Y-4.4183
G01 X35.8998 Y-4.4047
G01 X35.9023 Y-4.3977
G01 X35.9055 Y-4.3869
G01 X35.9071 Y-4.3796
G01 X35.9089 Y-4.3686
G01 X35.9100 Y-4.3537
G01 X35.9100 Y-2.6463
G01 X35.9089 Y-2.6314
G01 X35.9063 Y-2.6167
G01 X35.9023 Y-2.6023
G01 X35.8984 Y-2.5919
G01 X35.8954 Y-2.5850
G01 X35.8884 Y-2.5719
G01 X35.8801 Y-2.5595
G01 X35.8707 Y-2.5480
G01 X35.8601 Y-2.5374
G01 X35.8486 Y-2.5280
G01 X35.8394 Y-2.5216
G01 X35.8297 Y-2.5160
G01 X35.8162 Y-2.5096
G01 X35.8022 Y-2.5046
G01 X35.7914 Y-2.5017
G01 X35.7767 Y-2.4992
G01 X35.7618 Y-2.4981
G01 X34.0543 Y-2.4981
G01 X34.0432 Y-2.4988
G01 X34.0321 Y-2.5003
G01 X34.0175 Y-2.5036
G01 X34.0069 Y-2.5069
G01 X33.9965 Y-2.5111
G01 X33.9864 Y-2.5160
G01 X33.9768 Y-2.5216
G01 X33.9675 Y-2.5280
G01 X33.9588 Y-2.5349
G01 X33.9506 Y-2.5426
G01 X33.9430 Y-2.5508
G01 X33.9338 Y-2.5625
G01 X33.9277 Y-2.5719
G01 X33.9223 Y-2.5817
G01 X33.9177 Y-2.5919
G01 X33.9138 Y-2.6023
G01 X33.9098 Y-2.6167
G01 X33.9078 Y-2.6277
G01 X33.9065 Y-2.6388
G01 X33.9061 Y-2.6500
G01 X33.9061 Y-4.3500
G01 X33.9065 Y-4.3612
G01 X33.9084 Y-4.3760
G01 X33.9116 Y-4.3905
G01 X33.9150 Y-4.4012
G01 X33.9191 Y-4.4116
G01 X33.9241 Y-4.4216
G01 X33.9297 Y-4.4313
G01 X33.9338 Y-4.4375
G01 X33.9406 Y-4.4464
G01 X33.9480 Y-4.4548
G01 X33.9533 Y-4.4600
G01 X33.9617 Y-4.4675
G01 X33.9706 Y-4.4742
G01 X33.9799 Y-4.4803
G01 X33.9897 Y-4.4857
G01 X33.9965 Y-4.4889
G01 X34.0069 Y-4.4931
G01 X34.0140 Y-4.4954
G01 X34.0248 Y-4.4983
G01 X34.0358 Y-4.5003
G01 X34.0469 Y-4.5015
G01 X34.0581 Y-4.5019
G01 X34.6059 Y-4.5019
G01 X34.6059 Y-6.3370
G01 X33.8785 Y-5.6096
G01 X33.8383 Y-5.5732
G01 X33.8009 Y-5.5452
G01 X33.7885 Y-5.5369
G01 X33.7483 Y-5.5130
G01 X33.6994 Y-5.4899
G01 X33.6483 Y-5.4716
G01 X33.6031 Y-5.4601
G01 X33.5884 Y-5.4572
G01 X33.5496 Y-5.4514
G01 X33.5385 Y-5.4502
G01 X33.4881 Y-5.4479
G01 X23.9081 Y-5.4479
G01 X23.8539 Y-5.4505
G01 X23.8077 Y-5.4572
G01 X23.7967 Y-5.4592
G01 X23.7478 Y-5.4716
G01 X23.7037 Y-5.4872
G01 X23.6899 Y-5.4929
G01 X23.6478 Y-5.5130
G01 X23.6076 Y-5.5369
G01 X23.5952 Y-5.5452
G01 X23.5578 Y-5.5732
G01 X23.5203 Y-5.6070
G01 X19.3044 Y-9.8230
G01 X19.2732 Y-9.8578
G01 X19.2409 Y-9.9013
G01 X19.2130 Y-9.9478
G01 X19.1899 Y-9.9968
G01 X19.1716 Y-10.0478
G01 X19.1585 Y-10.1003
G01 X19.1505 Y-10.1539
G01 X19.1479 Y-10.2043
G01 X19.1479 Y-21.3734
G01 X19.1314 Y-21.3701
G01 X19.0464 Y-21.3576
G01 X18.9531 Y-21.3531
G01 X18.8598 Y-21.3576
G01 X18.7673 Y-21.3713
G01 X18.6767 Y-21.3940
G01 X18.5888 Y-21.4255
G01 X18.5043 Y-21.4655
G01 X18.4305 Y-21.5095
G01 X18.4181 Y-21.5178
G01 X18.3492 Y-21.5691
G01 X18.2799 Y-21.6319
G01 X18.2172 Y-21.7011
G01 X18.1658 Y-21.7700
G01 X18.1576 Y-21.7824
G01 X18.1135 Y-21.8563
G01 X18.0766 Y-21.9339
G01 X18.0709 Y-21.9477
G01 X18.0444 Y-22.0216
G01 X18.0401 Y-22.0359
G01 X18.0194 Y-22.1193
G01 X18.0066 Y-22.2043
G00 Z1.0000
G00 X17.1649 Y-24.4008
G01 F60.00
G01 Z-0.0900
G01 F500.00
G01 X18.2012 Y-24.4008
G01 X18.1493 Y-24.3697
G01 X18.1203 Y-24.3513
G01 X18.0922 Y-24.3316
G01 X18.0292 Y-24.2848
G01 X18.0155 Y-24.2744
G01 X17.9890 Y-24.2527
G01 X17.9054 Y-24.1769
G01 X17.8931 Y-24.1649
G01 X17.8695 Y-24.1401
G01 X17.8168 Y-24.0819
G01 X17.7943 Y-24.0559
G01 X17.7732 Y-24.0289
G01 X17.7164 Y-23.9519
G01 X17.6974 Y-23.9234
G01 X17.6831 Y-23.9000
G01 X17.6688 Y-23.9234
G01 X17.6497 Y-23.9519
G01 X17.5929 Y-24.0289
G01 X17.5718 Y-24.0559
G01 X17.5494 Y-24.0819
G01 X17.4967 Y-24.1401
G01 X17.4850 Y-24.1527
G01 X17.4607 Y-24.1769
G01 X17.3771 Y-24.2527
G01 X17.3506 Y-24.2744
G01 X17.3370 Y-24.2848
G01 X17.2739 Y-24.3316
G01 X17.2458 Y-24.3513
G01 X17.2169 Y-24.3697
G01 X17.1649 Y-24.4008
G00 Z1.0000
G00 X14.6249 Y-24.4008
G01 F60.00
G01 Z-0.0900
G01 F500.00
G01 X15.6612 Y-24.4008
G01 X15.6093 Y-24.3697
G01 X15.5803 Y-24.3513
G01 X15.5522 Y-24.3316
G01 X15.4892 Y-24.2848
G01 X15.4621 Y-24.2637
G01 X15.4490 Y-24.2527
G01 X15.3654 Y-24.1769
G01 X15.3531 Y-24.1649
G01 X15.3295 Y-24.1401
G01 X15.2768 Y-24.0819
G01 X15.2543 Y-24.0559
G01 X15.2332 Y-24.0289
G01 X15.1764 Y-23.9519
G01 X15.1574 Y-23.9234
G01 X15.1431 Y-23.9000
G01 X15.1288 Y-23.9234
G01 X15.1097 Y-23.9519
G01 X15.0529 Y-24.0289
G01 X15.0318 Y-24.0559
G01 X15.0094 Y-24.0819
G01 X14.9567 Y-24.1401
G01 X14.9450 Y-24.1527
G01 X14.9207 Y-24.1769
G01 X14.8371 Y-24.2527
G01 X14.8106 Y-24.2744
G01 X14.7970 Y-24.2848
G01 X14.7339 Y-24.3316
G01 X14.7058 Y-24.3513
G01 X14.6769 Y-24.3697
G01 X14.6249 Y-24.4008
G00 Z1.0000
G00 X12.0849 Y-24.4008
G01 F60.00
G01 Z-0.0900
G01 F500.00
G01 X13.1212 Y-24.4008
G01 X13.0693 Y-24.3697
G01 X13.0403 Y-24.3513
G01 X13.0122 Y-24.3316
G01 X12.9492 Y-24.2848
G01 X12.9221 Y-24.2637
G01 X12.9090 Y-24.2527
G01 X12.8254 Y-24.1769
G01 X12.8131 Y-24.1649
G01 X12.7895 Y-24.1401
G01 X12.7368 Y-24.0819
G01 X12.7143 Y-24.0559
G01 X12.6932 Y-24.0289
G01 X12.6364 Y-23.9519
G01 X12.6174 Y-23.9234
G01 X12.6031 Y-23.9000
G01 X12.5888 Y-23.9234
G01 X12.5697 Y-23.9519
G01 X12.5129 Y-24.0289
G01 X12.4918 Y-24.0559
G01 X12.4694 Y-24.0819
G01 X12.4167 Y-24.1401
G01 X12.4050 Y-24.1527
G01 X12.3807 Y-24.1769
G01 X12.2971 Y-24.2527
G01 X12.2706 Y-24.2744
G01 X12.2570 Y-24.2848
G01 X12.1939 Y-24.3316
G01 X12.1658 Y-24.3513
G01 X12.1369 Y-24.3697
G01 X12.0849 Y-24.4008
G00 Z1.0000
G00 X9.5449 Y-24.4008
G01 F60.00
G01 Z-0.0900
G01 F500.00
G01 X10.5812 Y-24.4008
G01 X10.5293 Y-24.3697
G01 X10.5003 Y-24.3513
G01 X10.4722 Y-24.3316
G01 X10.4092 Y-24.2848
G01 X10.3821 Y-24.2637
G01 X10.3690 Y-24.2527
G01 X10.2854 Y-24.1769
G01 X10.2731 Y-24.1649
G01 X10.2495 Y-24.1401
G01 X10.1968 Y-24.0819
G01 X10.1743 Y-24.0559
G01 X10.1532 Y-24.0289
G01 X10.0964 Y-23.9519
G01 X10.0774 Y-23.9234
G01 X10.0631 Y-23.9000
G01 X10.0488 Y-23.9234
G01 X10.0297 Y-23.9519
G01 X9.9729 Y-24.0289
G01 X9.9518 Y-24.0559
G01 X9.9294 Y-24.0819
G01 X9.8767 Y-24.1401
G01 X9.8650 Y-24.1527
G01 X9.8407 Y-24.1769
G01 X9.7571 Y-24.2527
G01 X9.7306 Y-24.2744
G01 X9.7170 Y-24.2848
G01 X9.6539 Y-24.3316
G01 X9.6258 Y-24.3513
G01 X9.5969 Y-24.3697
G01 X9.5449 Y-24.4008
G00 Z1.0000
G00 X8.8208 Y-21.0804
G01 F60.00
G01 Z-0.0900
G01 F500.00
G01 X7.9636 Y-20.2232
G01 X7.9185 Y-20.2253
G01 X7.8976 Y-20.2253
G01 X7.8088 Y-20.2211
G01 X7.7879 Y-20.2196
G01 X7.7776 Y-20.2184
G01 X7.6896 Y-20.2055
G01 X7.6690 Y-20.2019
G01 X7.6486 Y-20.1973
G01 X7.5725 Y-20.1783
G01 X7.5624 Y-20.1756
G01 X7.5424 Y-20.1695
G01 X7.4586 Y-20.1397
G01 X7.4391 Y-20.1322
G01 X7.4200 Y-20.1237
G01 X7.3490 Y-20.0901
G01 X7.3304 Y-20.0808
G01 X7.3122 Y-20.0705
G01 X7.2449 Y-20.0301
G01 X7.2272 Y-20.0189
G01 X7.2102 Y-20.0069
G01 X7.1471 Y-19.9601
G01 X7.1306 Y-19.9473
G01 X7.1148 Y-19.9337
G01 X7.0567 Y-19.8809
G01 X7.0415 Y-19.8665
G01 X7.0271 Y-19.8514
G01 X6.9744 Y-19.7932
G01 X6.9608 Y-19.7774
G01 X6.9479 Y-19.7610
G01 X6.9012 Y-19.6979
G01 X6.8891 Y-19.6808
G01 X6.8780 Y-19.6632
G01 X6.8376 Y-19.5958
G01 X6.8273 Y-19.5777
G01 X6.8179 Y-19.5590
G01 X6.7843 Y-19.4881
G01 X6.7759 Y-19.4690
G01 X6.7684 Y-19.4495
G01 X6.7419 Y-19.3756
G01 X6.7337 Y-19.3500
G01 X6.7337 Y-21.6580
G01 X6.9551 Y-21.8793
G01 X7.6448 Y-21.8793
G01 X7.6570 Y-21.8457
G01 X7.6650 Y-21.8264
G01 X7.7029 Y-21.7460
G01 X7.7075 Y-21.7366
G01 X7.7173 Y-21.7182
G01 X7.7630 Y-21.6418
G01 X7.7741 Y-21.6242
G01 X7.7862 Y-21.6071
G01 X7.8392 Y-21.5357
G01 X7.8525 Y-21.5196
G01 X7.8594 Y-21.5118
G01 X7.9121 Y-21.4536
G01 X7.9265 Y-21.4385
G01 X7.9417 Y-21.4241
G01 X7.9998 Y-21.3713
G01 X8.0156 Y-21.3577
G01 X8.0321 Y-21.3449
G01 X8.0952 Y-21.2981
G01 X8.1122 Y-21.2861
G01 X8.1299 Y-21.2749
G01 X8.1972 Y-21.2345
G01 X8.2154 Y-21.2242
G01 X8.2340 Y-21.2149
G01 X8.3050 Y-21.1813
G01 X8.3241 Y-21.1728
G01 X8.3436 Y-21.1653
G01 X8.4175 Y-21.1389
G01 X8.4373 Y-21.1323
G01 X8.4575 Y-21.1267
G01 X8.5336 Y-21.1077
G01 X8.5540 Y-21.1031
G01 X8.5746 Y-21.0995
G01 X8.6626 Y-21.0866
G01 X8.6729 Y-21.0854
G01 X8.6938 Y-21.0839
G01 X8.7722 Y-21.0801
G01 X8.7931 Y-21.0795
G01 X8.8208 Y-21.0804
G00 Z1.0000
G00 X8.2588 Y-20.9052
G01 F60.00
G01 Z-0.0900
G01 F500.00
G01 X7.8506 Y-20.4970
G01 X7.7954 Y-20.4943
G01 X7.7611 Y-20.4918
G01 X7.7271 Y-20.4876
G01 X7.6325 Y-20.4733
G01 X7.5988 Y-20.4666
G01 X7.5060 Y-20.4436
G01 X7.4729 Y-20.4344
G01 X7.4404 Y-20.4237
G01 X7.3664 Y-20.3972
G01 X7.3344 Y-20.3849
G01 X7.3031 Y-20.3710
G01 X7.2321 Y-20.3374
G01 X7.2015 Y-20.3220
G01 X7.1716 Y-20.3051
G01 X7.0897 Y-20.2557
G01 X7.0611 Y-20.2366
G01 X7.0072 Y-20.1969
G01 X7.0072 Y-21.5447
G01 X7.0684 Y-21.6058
G01 X7.4672 Y-21.6058
G01 X7.4794 Y-21.5834
G01 X7.4880 Y-21.5685
G01 X7.5284 Y-21.5012
G01 X7.5467 Y-21.4722
G01 X7.5665 Y-21.4442
G01 X7.6236 Y-21.3675
G01 X7.6454 Y-21.3409
G01 X7.6568 Y-21.3281
G01 X7.7212 Y-21.2573
G01 X7.7454 Y-21.2331
G01 X7.8161 Y-21.1687
G01 X7.8421 Y-21.1463
G01 X7.8555 Y-21.1356
G01 X7.9461 Y-21.0684
G01 X7.9747 Y-21.0493
G01 X8.0566 Y-20.9999
G01 X8.0865 Y-20.9830
G01 X8.1017 Y-20.9751
G01 X8.1881 Y-20.9340
G01 X8.2194 Y-20.9201
G01 X8.2354 Y-20.9138
G01 X8.2588 Y-20.9052
G00 Z1.0000
G00 X6.9616 Y-18.8993
G01 F60.00
G01 Z-0.0900
G01 F500.00
G01 X6.9601 Y-18.9141
G01 X6.9561 Y-19.0000
G01 X6.9607 Y-19.0933
G01 X6.9744 Y-19.1857
G01 X6.9951 Y-19.2691
G01 X6.9994 Y-19.2834
G01 X7.0259 Y-19.3573
G01 X7.0316 Y-19.3711
G01 X7.0685 Y-19.4487
G01 X7.1126 Y-19.5226
G01 X7.1208 Y-19.5350
G01 X7.1722 Y-19.6039
G01 X7.2349 Y-19.6731
G01 X7.3042 Y-19.7359
G01 X7.3731 Y-19.7872
G01 X7.3855 Y-19.7955
G01 X7.4593 Y-19.8395
G01 X7.5369 Y-19.8765
G01 X7.5507 Y-19.8822
G01 X7.6282 Y-19.9098
G01 X7.6389 Y-19.9129
G01 X7.7223 Y-19.9337
G01 X7.8074 Y-19.9465
G01 X7.8185 Y-19.9477
G01 X7.9006 Y-19.9518
G01 X7.9155 Y-19.9518
G01 X8.0014 Y-19.9474
G01 X8.0653 Y-19.9381
G01 X10.3833 Y-22.2561
G01 X10.3811 Y-22.3050
G01 X10.3812 Y-23.1087
G01 X10.3851 Y-23.1909
G01 X10.3866 Y-23.2057
G01 X10.3994 Y-23.2907
G01 X10.4201 Y-23.3741
G01 X10.4244 Y-23.3884
G01 X10.4509 Y-23.4623
G01 X10.4566 Y-23.4761
G01 X10.4935 Y-23.5537
G01 X10.5376 Y-23.6276
G01 X10.5458 Y-23.6400
G01 X10.5972 Y-23.7089
G01 X10.6599 Y-23.7781
G01 X10.7292 Y-23.8409
G01 X10.7981 Y-23.8922
G01 X10.8073 Y-23.8986
G01 X10.8778 Y-23.9409
G01 X10.8910 Y-23.9479
G01 X10.9688 Y-23.9845
G01 X11.0496 Y-24.0136
G01 X11.0639 Y-24.0179
G01 X11.1473 Y-24.0387
G01 X11.2398 Y-24.0524
G01 X11.3256 Y-24.0568
G01 X11.3405 Y-24.0568
G01 X11.4264 Y-24.0524
G01 X11.5114 Y-24.0399
G01 X11.5261 Y-24.0370
G01 X11.6094 Y-24.0160
G01 X11.6904 Y-23.9872
G01 X11.7008 Y-23.9830
G01 X11.7751 Y-23.9479
G01 X11.7883 Y-23.9409
G01 X11.8619 Y-23.8965
G01 X11.9311 Y-23.8455
G01 X11.9426 Y-23.8360
G01 X12.0062 Y-23.7781
G01 X12.0641 Y-23.7146
G01 X12.0713 Y-23.7060
G01 X12.1203 Y-23.6400
G01 X12.1286 Y-23.6276
G01 X12.1726 Y-23.5537
G01 X12.2111 Y-23.4727
G01 X12.2152 Y-23.4623
G01 X12.2417 Y-23.3884
G01 X12.2451 Y-23.3778
G01 X12.2659 Y-23.2944
G01 X12.2680 Y-23.2834
G01 X12.2719 Y-23.2572
G01 X12.9342 Y-23.2572
G01 X12.9381 Y-23.2834
G01 X12.9402 Y-23.2944
G01 X12.9601 Y-23.3741
G01 X12.9632 Y-23.3849
G01 X12.9936 Y-23.4693
G01 X13.0318 Y-23.5504
G01 X13.0372 Y-23.5602
G01 X13.0776 Y-23.6276
G01 X13.0858 Y-23.6400
G01 X13.1372 Y-23.7089
G01 X13.1973 Y-23.7755
G01 X13.2053 Y-23.7833
G01 X13.2635 Y-23.8360
G01 X13.2750 Y-23.8455
G01 X13.3442 Y-23.8965
G01 X13.4243 Y-23.9445
G01 X13.5019 Y-23.9815
G01 X13.5157 Y-23.9872
G01 X13.5967 Y-24.0160
G01 X13.6837 Y-24.0379
G01 X13.6947 Y-24.0399
G01 X13.7798 Y-24.0524
G01 X13.8656 Y-24.0568
G01 X13.8805 Y-24.0568
G01 X13.9664 Y-24.0524
G01 X14.0514 Y-24.0399
G01 X14.0661 Y-24.0370
G01 X14.1494 Y-24.0160
G01 X14.2304 Y-23.9872
G01 X14.2442 Y-23.9815
G01 X14.3218 Y-23.9445
G01 X14.3956 Y-23.9005
G01 X14.4080 Y-23.8922
G01 X14.4770 Y-23.8409
G01 X14.5408 Y-23.7833
G01 X14.5513 Y-23.7727
G01 X14.6089 Y-23.7089
G01 X14.6603 Y-23.6400
G01 X14.6686 Y-23.6276
G01 X14.7126 Y-23.5537
G01 X14.7526 Y-23.4693
G01 X14.7817 Y-23.3884
G01 X14.7860 Y-23.3741
G01 X14.8051 Y-23.2980
G01 X14.8074 Y-23.2870
G01 X14.8204 Y-23.1983
G01 X14.8250 Y-23.1087
G01 X14.8250 Y-22.3013
G01 X14.8204 Y-22.2117
G01 X14.8080 Y-22.1266
G01 X14.8051 Y-22.1120
G01 X14.7860 Y-22.0359
G01 X14.7817 Y-22.0216
G01 X14.7526 Y-21.9407
G01 X14.7160 Y-21.8629
G01 X14.7089 Y-21.8498
G01 X14.6646 Y-21.7761
G01 X14.6089 Y-21.7011
G01 X14.5462 Y-21.6319
G01 X14.4826 Y-21.5740
G01 X14.4741 Y-21.5668
G01 X14.4080 Y-21.5178
G01 X14.3956 Y-21.5095
G01 X14.3218 Y-21.4655
G01 X14.2442 Y-21.4285
G01 X14.2304 Y-21.4228
G01 X14.1494 Y-21.3940
G01 X14.0588 Y-21.3713
G01 X13.9664 Y-21.3576
G01 X13.8805 Y-21.3532
G01 X13.8656 Y-21.3532
G01 X13.7798 Y-21.3576
G01 X13.6947 Y-21.3701
G01 X13.6801 Y-21.3730
G01 X13.6003 Y-21.3930
G01 X13.5896 Y-21.3964
G01 X13.5157 Y-21.4228
G01 X13.5019 Y-21.4285
G01 X13.4243 Y-21.4655
G01 X13.3442 Y-21.5135
G01 X13.2750 Y-21.5645
G01 X13.2635 Y-21.5740
G01 X13.1999 Y-21.6319
G01 X13.1396 Y-21.6982
G01 X13.1326 Y-21.7070
G01 X13.0858 Y-21.7700
G01 X13.0776 Y-21.7824
G01 X13.0335 Y-21.8563
G01 X12.9950 Y-21.9373
G01 X12.9909 Y-21.9477
G01 X12.9644 Y-22.0216
G01 X12.9611 Y-22.0322
G01 X12.9402 Y-22.1156
G01 X12.9381 Y-22.1266
G01 X12.9342 Y-22.1528
G01 X12.2719 Y-22.1528
G01 X12.2680 Y-22.1266
G01 X12.2659 Y-22.1156
G01 X12.2460 Y-22.0359
G01 X12.2429 Y-22.0251
G01 X12.2126 Y-21.9407
G01 X12.1760 Y-21.8629
G01 X12.1708 Y-21.8530
G01 X12.1246 Y-21.7761
G01 X12.0689 Y-21.7011
G01 X12.0062 Y-21.6319
G01 X11.9398 Y-21.5715
G01 X11.9311 Y-21.5645
G01 X11.8619 Y-21.5135
G01 X11.7883 Y-21.4691
G01 X11.7751 Y-21.4621
G01 X11.6974 Y-21.4255
G01 X11.6165 Y-21.3964
G01 X11.6022 Y-21.3921
G01 X11.5224 Y-21.3721
G01 X11.5114 Y-21.3701
G01 X11.4264 Y-21.3576
G01 X11.3405 Y-21.3532
G01 X11.3256 Y-21.3532
G01 X11.2472 Y-21.3571
G01 X11.2324 Y-21.3585
G01 X11.1473 Y-21.3713
G01 X11.0776 Y-21.3886
G01 X9.2411 Y-19.5522
G01 X13.9118 Y-19.5521
G01 X13.9622 Y-19.5495
G01 X14.0158 Y-19.5415
G01 X14.0683 Y-19.5284
G01 X14.1194 Y-19.5101
G01 X14.1683 Y-19.4870
G01 X14.2148 Y-19.4591
G01 X14.2583 Y-19.4268
G01 X14.2958 Y-19.3930
G01 X16.7985 Y-16.8904
G01 X16.8349 Y-16.8503
G01 X16.8672 Y-16.8068
G01 X16.8950 Y-16.7603
G01 X16.9152 Y-16.7181
G01 X16.9209 Y-16.7043
G01 X16.9364 Y-16.6603
G01 X16.9496 Y-16.6077
G01 X16.9576 Y-16.5541
G01 X16.9602 Y-16.5000
G01 X16.9602 Y-12.5000
G01 X16.9576 Y-12.4459
G01 X16.9496 Y-12.3923
G01 X16.9364 Y-12.3397
G01 X16.9209 Y-12.2957
G01 X16.9152 Y-12.2819
G01 X16.8950 Y-12.2397
G01 X16.8692 Y-12.1964
G01 X16.8629 Y-12.1871
G01 X16.8349 Y-12.1497
G01 X16.8036 Y-12.1150
G01 X16.2985 Y-11.6096
G01 X16.2640 Y-11.5781
G01 X16.2554 Y-11.5709
G01 X16.2209 Y-11.5452
G01 X16.2085 Y-11.5369
G01 X16.1683 Y-11.5130
G01 X16.1194 Y-11.4899
G01 X16.0754 Y-11.4740
G01 X16.0612 Y-11.4696
G01 X16.0158 Y-11.4585
G01 X15.9659 Y-11.4509
G01 X15.9547 Y-11.4500
G01 X15.9081 Y-11.4479
G01 X10.1368 Y-11.4479
G01 X8.7522 Y-10.0632
G01 X8.7521 Y-7.9368
G01 X12.6368 Y-4.0522
G01 X20.1561 Y-4.0521
G01 X20.1562 Y-4.3537
G01 X20.1568 Y-4.3649
G01 X20.1578 Y-4.3723
G01 X20.1607 Y-4.3869
G01 X20.1638 Y-4.3977
G01 X20.1677 Y-4.4081
G01 X20.1723 Y-4.4183
G01 X20.1759 Y-4.4249
G01 X20.1797 Y-4.4313
G01 X20.1860 Y-4.4405
G01 X20.1930 Y-4.4492
G01 X20.2006 Y-4.4574
G01 X20.2060 Y-4.4626
G01 X20.2146 Y-4.4698
G01 X20.2236 Y-4.4763
G01 X20.2332 Y-4.4822
G01 X20.2397 Y-4.4857
G01 X20.2499 Y-4.4904
G01 X20.2604 Y-4.4943
G01 X20.2711 Y-4.4974
G01 X20.2784 Y-4.4990
G01 X20.2895 Y-4.5008
G01 X20.3006 Y-4.5018
G01 X20.3081 Y-4.5019
G01 X22.0081 Y-4.5019
G01 X22.0192 Y-4.5015
G01 X22.0304 Y-4.5003
G01 X22.0450 Y-4.4974
G01 X22.0557 Y-4.4943
G01 X22.0662 Y-4.4904
G01 X22.0797 Y-4.4840
G01 X22.0894 Y-4.4784
G01 X22.1015 Y-4.4698
G01 X22.1101 Y-4.4626
G01 X22.1207 Y-4.4520
G01 X22.1301 Y-4.4405
G01 X22.1364 Y-4.4313
G01 X22.1421 Y-4.4216
G01 X22.1484 Y-4.4081
G01 X22.1523 Y-4.3977
G01 X22.1563 Y-4.3833
G01 X22.1589 Y-4.3686
G01 X22.1598 Y-4.3575
G01 X22.1600 Y-2.6463
G01 X22.1589 Y-2.6314
G01 X22.1563 Y-2.6167
G01 X22.1523 Y-2.6023
G01 X22.1470 Y-2.5884
G01 X22.1438 Y-2.5817
G01 X22.1384 Y-2.5719
G01 X22.1301 Y-2.5595
G01 X22.1207 Y-2.5480
G01 X22.1101 Y-2.5374
G01 X22.0986 Y-2.5280
G01 X22.0894 Y-2.5216
G01 X22.0764 Y-2.5143
G01 X22.0627 Y-2.5082
G01 X22.0522 Y-2.5046
G01 X22.0377 Y-2.5010
G01 X22.0230 Y-2.4988
G01 X22.0118 Y-2.4981
G01 X20.3081 Y-2.4981
G01 X20.2932 Y-2.4988
G01 X20.2784 Y-2.5010
G01 X20.2675 Y-2.5036
G01 X20.2569 Y-2.5069
G01 X20.2499 Y-2.5096
G01 X20.2397 Y-2.5143
G01 X20.2299 Y-2.5197
G01 X20.2206 Y-2.5258
G01 X20.2146 Y-2.5302
G01 X20.2060 Y-2.5374
G01 X20.1980 Y-2.5452
G01 X20.1906 Y-2.5536
G01 X20.1838 Y-2.5625
G01 X20.1777 Y-2.5719
G01 X20.1723 Y-2.5817
G01 X20.1677 Y-2.5919
G01 X20.1638 Y-2.6023
G01 X20.1616 Y-2.6095
G01 X20.1590 Y-2.6204
G01 X20.1578 Y-2.6277
G01 X20.1568 Y-2.6351
G01 X20.1562 Y-2.6463
G01 X20.1561 Y-2.9478
G01 X12.4081 Y-2.9479
G01 X12.3539 Y-2.9505
G01 X12.3077 Y-2.9572
G01 X12.2931 Y-2.9601
G01 X12.2550 Y-2.9696
G01 X12.2442 Y-2.9728
G01 X12.2037 Y-2.9872
G01 X12.1899 Y-2.9929
G01 X12.1478 Y-3.0130
G01 X12.1076 Y-3.0369
G01 X12.0952 Y-3.0452
G01 X12.0578 Y-3.0732
G01 X12.0176 Y-3.1096
G01 X7.8044 Y-7.3230
G01 X7.7732 Y-7.3578
G01 X7.7409 Y-7.4013
G01 X7.7130 Y-7.4478
G01 X7.6899 Y-7.4968
G01 X7.6716 Y-7.5478
G01 X7.6585 Y-7.6003
G01 X7.6505 Y-7.6539
G01 X7.6480 Y-7.7006
G01 X7.6479 Y-10.2919
G01 X7.6505 Y-10.3461
G01 X7.6572 Y-10.3923
G01 X7.6592 Y-10.4033
G01 X7.6696 Y-10.4450
G01 X7.6740 Y-10.4593
G01 X7.6885 Y-10.4998
G01 X7.6929 Y-10.5101
G01 X7.7130 Y-10.5522
G01 X7.7369 Y-10.5924
G01 X7.7452 Y-10.6048
G01 X7.7732 Y-10.6422
G01 X7.8070 Y-10.6797
G01 X9.5176 Y-12.3904
G01 X9.5578 Y-12.4268
G01 X9.6013 Y-12.4591
G01 X9.6478 Y-12.4870
G01 X9.6899 Y-12.5071
G01 X9.7037 Y-12.5128
G01 X9.7478 Y-12.5284
G01 X9.7931 Y-12.5399
G01 X9.8077 Y-12.5428
G01 X9.8539 Y-12.5495
G01 X9.9043 Y-12.5521
G01 X15.6794 Y-12.5521
G01 X15.8559 Y-12.7287
G01 X15.8559 Y-16.2713
G01 X13.6794 Y-18.4478
G01 X8.6825 Y-18.4479
G01 X8.6439 Y-18.3961
G01 X8.5863 Y-18.3323
G01 X8.5758 Y-18.3217
G01 X8.5120 Y-18.2641
G01 X8.4430 Y-18.2128
G01 X8.4306 Y-18.2045
G01 X8.3568 Y-18.1605
G01 X8.2758 Y-18.1220
G01 X8.2654 Y-18.1178
G01 X8.1844 Y-18.0890
G01 X8.1011 Y-18.0680
G01 X8.0864 Y-18.0651
G01 X8.0014 Y-18.0526
G01 X7.9155 Y-18.0482
G01 X7.9006 Y-18.0482
G01 X7.8185 Y-18.0523
G01 X7.8074 Y-18.0535
G01 X7.7223 Y-18.0663
G01 X7.6389 Y-18.0871
G01 X7.6246 Y-18.0914
G01 X7.5507 Y-18.1178
G01 X7.5369 Y-18.1235
G01 X7.4593 Y-18.1605
G01 X7.3792 Y-18.2085
G01 X7.3042 Y-18.2641
G01 X7.2349 Y-18.3269
G01 X7.1722 Y-18.3961
G01 X7.1208 Y-18.4650
G01 X7.1126 Y-18.4774
G01 X7.0722 Y-18.5448
G01 X7.0652 Y-18.5579
G01 X7.0286 Y-18.6357
G01 X6.9971 Y-18.7237
G01 X6.9744 Y-18.8143
G01 X6.9616 Y-18.8993
G00 Z1.0000
G00 X6.7337 Y-18.6500
G01 F60.00
G01 Z-0.0900
G01 F500.00
G01 X6.7419 Y-18.6244
G01 X6.7684 Y-18.5505
G01 X6.7759 Y-18.5310
G01 X6.7843 Y-18.5119
G01 X6.8179 Y-18.4410
G01 X6.8273 Y-18.4223
G01 X6.8376 Y-18.4042
G01 X6.8780 Y-18.3368
G01 X6.8891 Y-18.3192
G01 X6.9012 Y-18.3021
G01 X6.9479 Y-18.2390
G01 X6.9608 Y-18.2226
G01 X6.9744 Y-18.2068
G01 X7.0271 Y-18.1486
G01 X7.0415 Y-18.1335
G01 X7.0567 Y-18.1191
G01 X7.1148 Y-18.0663
G01 X7.1306 Y-18.0527
G01 X7.1471 Y-18.0399
G01 X7.2102 Y-17.9931
G01 X7.2272 Y-17.9811
G01 X7.2449 Y-17.9699
G01 X7.3122 Y-17.9295
G01 X7.3304 Y-17.9192
G01 X7.3490 Y-17.9099
G01 X7.4200 Y-17.8763
G01 X7.4391 Y-17.8678
G01 X7.4586 Y-17.8603
G01 X7.5325 Y-17.8339
G01 X7.5523 Y-17.8273
G01 X7.5725 Y-17.8217
G01 X7.6486 Y-17.8027
G01 X7.6690 Y-17.7981
G01 X7.6896 Y-17.7945
G01 X7.7672 Y-17.7830
G01 X7.7776 Y-17.7816
G01 X7.7984 Y-17.7795
G01 X7.8976 Y-17.7747
G01 X7.9185 Y-17.7747
G01 X7.9289 Y-17.7751
G01 X8.0074 Y-17.7789
G01 X8.0282 Y-17.7804
G01 X8.0489 Y-17.7830
G01 X8.1266 Y-17.7945
G01 X8.1369 Y-17.7962
G01 X8.1574 Y-17.8002
G01 X8.2538 Y-17.8244
G01 X8.2638 Y-17.8273
G01 X8.2836 Y-17.8339
G01 X8.3673 Y-17.8639
G01 X8.3770 Y-17.8678
G01 X8.3961 Y-17.8763
G01 X8.4671 Y-17.9099
G01 X8.4857 Y-17.9192
G01 X8.5039 Y-17.9295
G01 X8.5712 Y-17.9699
G01 X8.5801 Y-17.9754
G01 X8.5975 Y-17.9870
G01 X8.6690 Y-18.0399
G01 X8.6773 Y-18.0462
G01 X8.6935 Y-18.0594
G01 X8.7671 Y-18.1262
G01 X8.7819 Y-18.1409
G01 X8.8123 Y-18.1743
G01 X13.5661 Y-18.1743
G01 X15.5824 Y-16.1580
G01 X15.5824 Y-15.7808
G01 X15.5815 Y-15.7917
G01 X15.5789 Y-15.8124
G01 X15.5753 Y-15.8330
G01 X15.5732 Y-15.8432
G01 X15.5708 Y-15.8534
G01 X15.5652 Y-15.8735
G01 X15.5587 Y-15.8933
G01 X15.5511 Y-15.9128
G01 X15.5427 Y-15.9319
G01 X15.5333 Y-15.9506
G01 X15.5230 Y-15.9687
G01 X15.5175 Y-15.9776
G01 X15.5059 Y-15.9950
G01 X15.4998 Y-16.0034
G01 X15.4869 Y-16.0199
G01 X15.4733 Y-16.0357
G01 X15.4589 Y-16.0508
G01 X15.4438 Y-16.0652
G01 X15.4280 Y-16.0789
G01 X15.4198 Y-16.0854
G01 X15.4030 Y-16.0978
G01 X15.3857 Y-16.1095
G01 X15.3768 Y-16.1149
G01 X15.3586 Y-16.1252
G01 X15.3400 Y-16.1346
G01 X15.3209 Y-16.1431
G01 X15.3014 Y-16.1506
G01 X15.2915 Y-16.1540
G01 X15.2715 Y-16.1600
G01 X15.2614 Y-16.1627
G01 X15.2411 Y-16.1673
G01 X15.2205 Y-16.1709
G01 X15.2101 Y-16.1723
G01 X15.1894 Y-16.1743
G01 X15.1685 Y-16.1753
G01 X15.1581 Y-16.1755
G01 X13.1581 Y-16.1755
G01 X13.1372 Y-16.1749
G01 X13.1164 Y-16.1734
G01 X13.0956 Y-16.1709
G01 X13.0751 Y-16.1673
G01 X13.0648 Y-16.1651
G01 X13.0547 Y-16.1627
G01 X13.0346 Y-16.1571
G01 X13.0147 Y-16.1506
G01 X12.9952 Y-16.1431
G01 X12.9762 Y-16.1346
G01 X12.9668 Y-16.1300
G01 X12.9484 Y-16.1202
G01 X12.9304 Y-16.1095
G01 X12.9131 Y-16.0978
G01 X12.9046 Y-16.0917
G01 X12.8882 Y-16.0789
G01 X12.8723 Y-16.0652
G01 X12.8647 Y-16.0581
G01 X12.8499 Y-16.0434
G01 X12.8428 Y-16.0357
G01 X12.8292 Y-16.0199
G01 X12.8163 Y-16.0034
G01 X12.8043 Y-15.9864
G01 X12.7931 Y-15.9687
G01 X12.7879 Y-15.9597
G01 X12.7780 Y-15.9413
G01 X12.7691 Y-15.9224
G01 X12.7611 Y-15.9031
G01 X12.7541 Y-15.8835
G01 X12.7480 Y-15.8635
G01 X12.7429 Y-15.8432
G01 X12.7389 Y-15.8227
G01 X12.7358 Y-15.8021
G01 X12.7338 Y-15.7813
G01 X12.7331 Y-15.7709
G01 X12.7326 Y-15.7500
G01 X12.7326 Y-15.5033
G01 X11.1581 Y-15.5033
G01 X11.1372 Y-15.5028
G01 X11.1268 Y-15.5022
G01 X11.1060 Y-15.5001
G01 X11.0956 Y-15.4987
G01 X11.0853 Y-15.4971
G01 X11.0648 Y-15.4930
G01 X11.0446 Y-15.4879
G01 X11.0346 Y-15.4850
G01 X11.0147 Y-15.4784
G01 X10.9952 Y-15.4709
G01 X10.9762 Y-15.4625
G01 X10.9575 Y-15.4531
G01 X10.9393 Y-15.4428
G01 X10.9217 Y-15.4316
G01 X10.9046 Y-15.4196
G01 X10.8882 Y-15.4067
G01 X10.8723 Y-15.3931
G01 X10.8572 Y-15.3787
G01 X10.8428 Y-15.3636
G01 X10.8292 Y-15.3478
G01 X10.8163 Y-15.3313
G01 X10.8043 Y-15.3142
G01 X10.7931 Y-15.2966
G01 X10.7828 Y-15.2784
G01 X10.7735 Y-15.2598
G01 X10.7650 Y-15.2407
G01 X10.7575 Y-15.2212
G01 X10.7509 Y-15.2014
G01 X10.7480 Y-15.1913
G01 X10.7429 Y-15.1711
G01 X10.7389 Y-15.1506
G01 X10.7358 Y-15.1299
G01 X10.7338 Y-15.1092
G01 X10.7327 Y-15.0883
G01 X10.7326 Y-14.9035
G01 X6.7337 Y-14.9035
G01 X6.7337 Y-18.6500
G00 Z1.0000
G00 X7.0072 Y-17.8031
G01 F60.00
G01 Z-0.0900
G01 F500.00
G01 X7.0611 Y-17.7634
G01 X7.0897 Y-17.7443
G01 X7.1716 Y-17.6949
G01 X7.2015 Y-17.6780
G01 X7.2167 Y-17.6701
G01 X7.3031 Y-17.6290
G01 X7.3344 Y-17.6151
G01 X7.3664 Y-17.6028
G01 X7.4566 Y-17.5708
G01 X7.4894 Y-17.5608
G01 X7.5060 Y-17.5564
G01 X7.5988 Y-17.5334
G01 X7.6325 Y-17.5267
G01 X7.7271 Y-17.5124
G01 X7.7611 Y-17.5082
G01 X7.7954 Y-17.5057
G01 X7.8909 Y-17.5012
G01 X7.9252 Y-17.5012
G01 X8.0208 Y-17.5057
G01 X8.0550 Y-17.5082
G01 X8.0890 Y-17.5124
G01 X8.1667 Y-17.5240
G01 X8.2005 Y-17.5298
G01 X8.2340 Y-17.5373
G01 X8.3101 Y-17.5564
G01 X8.3432 Y-17.5656
G01 X8.3758 Y-17.5763
G01 X8.4658 Y-17.6088
G01 X8.4975 Y-17.6219
G01 X8.5131 Y-17.6290
G01 X8.5840 Y-17.6626
G01 X8.6147 Y-17.6780
G01 X8.6445 Y-17.6949
G01 X8.7265 Y-17.7443
G01 X8.7408 Y-17.7537
G01 X8.7689 Y-17.7734
G01 X8.8456 Y-17.8306
G01 X8.8721 Y-17.8523
G01 X8.9260 Y-17.9008
G01 X13.4528 Y-17.9008
G01 X14.9046 Y-16.4490
G01 X13.1409 Y-16.4488
G01 X13.1066 Y-16.4471
G01 X13.0725 Y-16.4437
G01 X13.0555 Y-16.4414
G01 X13.0217 Y-16.4355
G01 X12.9882 Y-16.4280
G01 X12.9716 Y-16.4237
G01 X12.9552 Y-16.4189
G01 X12.9226 Y-16.4081
G01 X12.9065 Y-16.4021
G01 X12.8748 Y-16.3890
G01 X12.8438 Y-16.3743
G01 X12.8286 Y-16.3664
G01 X12.7987 Y-16.3495
G01 X12.7697 Y-16.3312
G01 X12.7556 Y-16.3215
G01 X12.7280 Y-16.3010
G01 X12.7146 Y-16.2903
G01 X12.6887 Y-16.2679
G01 X12.6638 Y-16.2442
G01 X12.6518 Y-16.2320
G01 X12.6288 Y-16.2065
G01 X12.6070 Y-16.1800
G01 X12.5866 Y-16.1525
G01 X12.5675 Y-16.1239
G01 X12.5585 Y-16.1093
G01 X12.5416 Y-16.0795
G01 X12.5262 Y-16.0488
G01 X12.5191 Y-16.0333
G01 X12.5059 Y-16.0016
G01 X12.5000 Y-15.9855
G01 X12.4892 Y-15.9529
G01 X12.4844 Y-15.9364
G01 X12.4761 Y-15.9031
G01 X12.4725 Y-15.8864
G01 X12.4694 Y-15.8695
G01 X12.4643 Y-15.8356
G01 X12.4610 Y-15.8014
G01 X12.4597 Y-15.7768
G01 X11.1409 Y-15.7766
G01 X11.1238 Y-15.7760
G01 X11.0896 Y-15.7735
G01 X11.0555 Y-15.7693
G01 X11.0386 Y-15.7665
G01 X11.0217 Y-15.7634
G01 X10.9882 Y-15.7559
G01 X10.9552 Y-15.7467
G01 X10.9226 Y-15.7360
G01 X10.9065 Y-15.7300
G01 X10.8906 Y-15.7236
G01 X10.8592 Y-15.7097
G01 X10.8438 Y-15.7022
G01 X10.8135 Y-15.6860
G01 X10.7841 Y-15.6684
G01 X10.7556 Y-15.6493
G01 X10.7417 Y-15.6393
G01 X10.7280 Y-15.6289
G01 X10.7015 Y-15.6071
G01 X10.6761 Y-15.5841
G01 X10.6638 Y-15.5721
G01 X10.6518 Y-15.5598
G01 X10.6288 Y-15.5344
G01 X10.6178 Y-15.5213
G01 X10.5966 Y-15.4942
G01 X10.5866 Y-15.4803
G01 X10.5675 Y-15.4518
G01 X10.5499 Y-15.4224
G01 X10.5416 Y-15.4073
G01 X10.5262 Y-15.3767
G01 X10.5191 Y-15.3611
G01 X10.5059 Y-15.3294
G01 X10.5000 Y-15.3133
G01 X10.4944 Y-15.2971
G01 X10.4844 Y-15.2643
G01 X10.4800 Y-15.2477
G01 X10.4725 Y-15.2142
G01 X10.4694 Y-15.1974
G01 X10.4662 Y-15.1770
G01 X7.0072 Y-15.1770
G01 X7.0072 Y-17.8031
G00 Z1.0000
G00 X15.1431 Y-21.5100
G01 F60.00
G01 Z-0.0900
G01 F500.00
G01 X15.1574 Y-21.4866
G01 X15.1764 Y-21.4581
G01 X15.2436 Y-21.3675
G01 X15.2654 Y-21.3409
G01 X15.3139 Y-21.2871
G01 X15.3139 Y-20.6550
G01 X15.3147 Y-20.6207
G01 X15.3177 Y-20.5644
G01 X15.3211 Y-20.5302
G01 X15.3319 Y-20.4574
G01 X15.3386 Y-20.4238
G01 X15.3521 Y-20.3690
G01 X15.3612 Y-20.3359
G01 X15.3720 Y-20.3034
G01 X15.3912 Y-20.2503
G01 X15.4043 Y-20.2186
G01 X15.4283 Y-20.1675
G01 X15.4437 Y-20.1369
G01 X15.4606 Y-20.1070
G01 X15.4808 Y-20.0733
G01 X15.4991 Y-20.0443
G01 X15.5189 Y-20.0163
G01 X15.5527 Y-19.9711
G01 X15.5744 Y-19.9446
G01 X15.6122 Y-19.9026
G01 X15.6358 Y-19.8778
G01 X16.5711 Y-18.9425
G01 X16.5748 Y-18.8702
G01 X16.5782 Y-18.8360
G01 X16.5920 Y-18.7414
G01 X16.5979 Y-18.7076
G01 X16.6014 Y-18.6908
G01 X16.6245 Y-18.5979
G01 X16.6336 Y-18.5649
G01 X16.6444 Y-18.5323
G01 X16.6708 Y-18.4584
G01 X16.6832 Y-18.4264
G01 X16.6971 Y-18.3950
G01 X16.7307 Y-18.3240
G01 X16.7461 Y-18.2934
G01 X16.7630 Y-18.2635
G01 X16.8124 Y-18.1816
G01 X16.8217 Y-18.1672
G01 X16.8415 Y-18.1392
G01 X16.8986 Y-18.0625
G01 X16.9204 Y-18.0359
G01 X16.9689 Y-17.9821
G01 X16.9689 Y-17.4936
G01 X14.6730 Y-19.7892
G01 X14.6313 Y-19.8273
G01 X14.6054 Y-19.8497
G01 X14.5783 Y-19.8708
G01 X14.5468 Y-19.8942
G01 X14.5187 Y-19.9139
G01 X14.4897 Y-19.9323
G01 X14.4561 Y-19.9525
G01 X14.4262 Y-19.9694
G01 X14.3956 Y-19.9848
G01 X14.3601 Y-20.0016
G01 X14.3287 Y-20.0155
G01 X14.2967 Y-20.0278
G01 X14.2597 Y-20.0411
G01 X14.2271 Y-20.0518
G01 X14.1941 Y-20.0610
G01 X14.1560 Y-20.0705
G01 X14.1225 Y-20.0780
G01 X14.0887 Y-20.0839
G01 X14.0498 Y-20.0897
G01 X14.0158 Y-20.0939
G01 X13.9816 Y-20.0964
G01 X13.9252 Y-20.0990
G01 X10.5617 Y-20.0992
G01 X11.2708 Y-20.8082
G01 X11.3159 Y-20.8062
G01 X11.3502 Y-20.8062
G01 X11.4629 Y-20.8118
G01 X11.4970 Y-20.8151
G01 X11.5917 Y-20.8290
G01 X11.6086 Y-20.8317
G01 X11.6423 Y-20.8384
G01 X11.7351 Y-20.8614
G01 X11.7682 Y-20.8706
G01 X11.8008 Y-20.8813
G01 X11.8747 Y-20.9078
G01 X11.9067 Y-20.9201
G01 X11.9225 Y-20.9269
G01 X12.0090 Y-20.9676
G01 X12.0397 Y-20.9830
G01 X12.0695 Y-20.9999
G01 X12.1515 Y-21.0493
G01 X12.1658 Y-21.0587
G01 X12.1939 Y-21.0784
G01 X12.2570 Y-21.1252
G01 X12.2840 Y-21.1463
G01 X12.3100 Y-21.1687
G01 X12.3807 Y-21.2331
G01 X12.3930 Y-21.2451
G01 X12.4167 Y-21.2699
G01 X12.4694 Y-21.3281
G01 X12.4918 Y-21.3541
G01 X12.5129 Y-21.3811
G01 X12.5697 Y-21.4581
G01 X12.5888 Y-21.4866
G01 X12.6031 Y-21.5100
G01 X12.6174 Y-21.4866
G01 X12.6364 Y-21.4581
G01 X12.6932 Y-21.3811
G01 X12.7143 Y-21.3541
G01 X12.7368 Y-21.3281
G01 X12.7895 Y-21.2699
G01 X12.8012 Y-21.2573
G01 X12.8254 Y-21.2331
G01 X12.9090 Y-21.1573
G01 X12.9355 Y-21.1356
G01 X12.9492 Y-21.1252
G01 X13.0122 Y-21.0784
G01 X13.0403 Y-21.0587
G01 X13.0693 Y-21.0403
G01 X13.1514 Y-20.9913
G01 X13.1817 Y-20.9751
G01 X13.1971 Y-20.9676
G01 X13.2681 Y-20.9340
G01 X13.2994 Y-20.9201
G01 X13.3314 Y-20.9078
G01 X13.4216 Y-20.8758
G01 X13.4379 Y-20.8706
G01 X13.4710 Y-20.8614
G01 X13.5472 Y-20.8423
G01 X13.5806 Y-20.8348
G01 X13.6144 Y-20.8290
G01 X13.6921 Y-20.8174
G01 X13.7091 Y-20.8151
G01 X13.7432 Y-20.8118
G01 X13.8388 Y-20.8069
G01 X13.8731 Y-20.8060
G01 X13.9074 Y-20.8069
G01 X14.0029 Y-20.8118
G01 X14.0370 Y-20.8151
G01 X14.0540 Y-20.8174
G01 X14.1317 Y-20.8290
G01 X14.1655 Y-20.8348
G01 X14.1990 Y-20.8423
G01 X14.2751 Y-20.8614
G01 X14.2917 Y-20.8658
G01 X14.3245 Y-20.8758
G01 X14.4147 Y-20.9078
G01 X14.4467 Y-20.9201
G01 X14.4781 Y-20.9340
G01 X14.5490 Y-20.9676
G01 X14.5797 Y-20.9830
G01 X14.5947 Y-20.9913
G01 X14.6915 Y-21.0493
G01 X14.7200 Y-21.0684
G01 X14.7339 Y-21.0784
G01 X14.7970 Y-21.1252
G01 X14.8240 Y-21.1463
G01 X14.8500 Y-21.1687
G01 X14.9207 Y-21.2331
G01 X14.9330 Y-21.2451
G01 X14.9567 Y-21.2699
G01 X15.0094 Y-21.3281
G01 X15.0318 Y-21.3541
G01 X15.0529 Y-21.3811
G01 X15.1097 Y-21.4581
G01 X15.1288 Y-21.4866
G01 X15.1431 Y-21.5100
G00 Z1.0000
G00 X19.7049 Y-24.4008
G01 F60.00
G01 Z-0.0900
G01 F500.00
G01 X20.7412 Y-24.4008
G01 X20.6893 Y-24.3697
G01 X20.6603 Y-24.3513
G01 X20.6322 Y-24.3316
G01 X20.5692 Y-24.2848
G01 X20.5555 Y-24.2744
G01 X20.5290 Y-24.2527
G01 X20.4454 Y-24.1769
G01 X20.4331 Y-24.1649
G01 X20.4095 Y-24.1401
G01 X20.3568 Y-24.0819
G01 X20.3343 Y-24.0559
G01 X20.3132 Y-24.0289
G01 X20.2564 Y-23.9519
G01 X20.2374 Y-23.9234
G01 X20.2231 Y-23.9000
G01 X20.2088 Y-23.9234
G01 X20.1897 Y-23.9519
G01 X20.1329 Y-24.0289
G01 X20.1118 Y-24.0559
G01 X20.0894 Y-24.0819
G01 X20.0367 Y-24.1401
G01 X20.0130 Y-24.1649
G01 X20.0007 Y-24.1769
G01 X19.9171 Y-24.2527
G01 X19.8906 Y-24.2744
G01 X19.8770 Y-24.2848
G01 X19.8139 Y-24.3316
G01 X19.7858 Y-24.3513
G01 X19.7569 Y-24.3697
G01 X19.7049 Y-24.4008
G00 Z1.0000
G00 X20.5466 Y-22.2043
G01 F60.00
G01 Z-0.0900
G01 F500.00
G01 X20.5451 Y-22.2191
G01 X20.5411 Y-22.3050
G01 X20.5411 Y-23.1050
G01 X20.5457 Y-23.1983
G01 X20.5587 Y-23.2870
G01 X20.5610 Y-23.2980
G01 X20.5801 Y-23.3741
G01 X20.5844 Y-23.3884
G01 X20.6136 Y-23.4693
G01 X20.6535 Y-23.5537
G01 X20.7015 Y-23.6339
G01 X20.7526 Y-23.7030
G01 X20.7621 Y-23.7146
G01 X20.8148 Y-23.7727
G01 X20.8226 Y-23.7807
G01 X20.8892 Y-23.8409
G01 X20.9642 Y-23.8965
G01 X21.0443 Y-23.9445
G01 X21.1288 Y-23.9845
G01 X21.2167 Y-24.0160
G01 X21.3073 Y-24.0387
G01 X21.3998 Y-24.0524
G01 X21.4931 Y-24.0569
G01 X21.5864 Y-24.0524
G01 X21.6788 Y-24.0387
G01 X21.7694 Y-24.0160
G01 X21.8574 Y-23.9845
G01 X21.9418 Y-23.9445
G01 X22.0219 Y-23.8965
G01 X22.0970 Y-23.8409
G01 X22.1608 Y-23.7833
G01 X22.1688 Y-23.7755
G01 X22.2289 Y-23.7089
G01 X22.2803 Y-23.6400
G01 X22.2886 Y-23.6276
G01 X22.3326 Y-23.5537
G01 X22.3726 Y-23.4693
G01 X22.4017 Y-23.3884
G01 X22.4060 Y-23.3741
G01 X22.4267 Y-23.2907
G01 X22.4404 Y-23.1983
G01 X22.4450 Y-23.1087
G01 X22.4450 Y-22.3013
G01 X22.4410 Y-22.2191
G01 X22.4395 Y-22.2043
G01 X22.4267 Y-22.1193
G01 X22.4060 Y-22.0359
G01 X22.4017 Y-22.0216
G01 X22.3726 Y-21.9407
G01 X22.3343 Y-21.8596
G01 X22.3289 Y-21.8498
G01 X22.2846 Y-21.7761
G01 X22.2335 Y-21.7070
G01 X22.2265 Y-21.6982
G01 X22.1713 Y-21.6373
G01 X22.1608 Y-21.6267
G01 X22.0970 Y-21.5691
G01 X22.0452 Y-21.5305
G01 X22.0452 Y-16.6437
G01 X23.9646 Y-14.7243
G01 X25.5061 Y-14.7243
G01 X25.5061 Y-15.1721
G01 X25.5065 Y-15.1833
G01 X25.5084 Y-15.1981
G01 X25.5107 Y-15.2091
G01 X25.5127 Y-15.2163
G01 X25.5163 Y-15.2268
G01 X25.5207 Y-15.2371
G01 X25.5241 Y-15.2438
G01 X25.5297 Y-15.2534
G01 X25.5360 Y-15.2627
G01 X25.5430 Y-15.2714
G01 X25.5506 Y-15.2796
G01 X25.5560 Y-15.2847
G01 X25.5646 Y-15.2919
G01 X25.5706 Y-15.2964
G01 X25.5768 Y-15.3005
G01 X25.5864 Y-15.3062
G01 X25.5965 Y-15.3111
G01 X25.6069 Y-15.3152
G01 X25.6175 Y-15.3186
G01 X25.6321 Y-15.3219
G01 X25.6432 Y-15.3234
G01 X25.6581 Y-15.3241
G01 X27.5061 Y-15.3241
G01 X27.5061 Y-15.8443
G01 X27.5065 Y-15.8555
G01 X27.5078 Y-15.8666
G01 X27.5090 Y-15.8739
G01 X27.5116 Y-15.8848
G01 X27.5150 Y-15.8955
G01 X27.5191 Y-15.9059
G01 X27.5223 Y-15.9126
G01 X27.5277 Y-15.9224
G01 X27.5338 Y-15.9318
G01 X27.5383 Y-15.9378
G01 X27.5455 Y-15.9463
G01 X27.5506 Y-15.9517
G01 X27.5560 Y-15.9569
G01 X27.5646 Y-15.9641
G01 X27.5706 Y-15.9685
G01 X27.5799 Y-15.9746
G01 X27.5897 Y-15.9800
G01 X27.5965 Y-15.9832
G01 X27.6104 Y-15.9886
G01 X27.6211 Y-15.9917
G01 X27.6284 Y-15.9933
G01 X27.6432 Y-15.9955
G01 X27.6581 Y-15.9962
G01 X29.0292 Y-15.9962
G01 X31.2560 Y-18.2230
G01 X31.2935 Y-18.2568
G01 X31.3309 Y-18.2848
G01 X31.3433 Y-18.2931
G01 X31.3835 Y-18.3170
G01 X31.4257 Y-18.3371
G01 X31.4394 Y-18.3428
G01 X31.4835 Y-18.3584
G01 X31.5324 Y-18.3708
G01 X31.5434 Y-18.3728
G01 X31.5897 Y-18.3795
G01 X31.6438 Y-18.3821
G01 X34.3836 Y-18.3821
G01 X34.4222 Y-18.4339
G01 X34.4823 Y-18.5005
G01 X34.4903 Y-18.5083
G01 X34.5485 Y-18.5610
G01 X34.5571 Y-18.5682
G01 X34.6292 Y-18.6215
G01 X34.7028 Y-18.6659
G01 X34.7160 Y-18.6729
G01 X34.7869 Y-18.7065
G01 X34.7972 Y-18.7109
G01 X34.8817 Y-18.7410
G01 X34.9651 Y-18.7620
G01 X34.9797 Y-18.7649
G01 X35.0648 Y-18.7774
G01 X35.1506 Y-18.7818
G01 X35.1655 Y-18.7818
G01 X35.2514 Y-18.7774
G01 X35.3401 Y-18.7643
G01 X35.3511 Y-18.7620
G01 X35.4344 Y-18.7410
G01 X35.5224 Y-18.7095
G01 X35.6068 Y-18.6695
G01 X35.6869 Y-18.6215
G01 X35.7620 Y-18.5659
G01 X35.8312 Y-18.5031
G01 X35.8939 Y-18.4339
G01 X35.9453 Y-18.3650
G01 X35.9536 Y-18.3526
G01 X35.9976 Y-18.2787
G01 X36.0345 Y-18.2011
G01 X36.0402 Y-18.1873
G01 X36.0667 Y-18.1134
G01 X36.0710 Y-18.0991
G01 X36.0917 Y-18.0157
G01 X36.1045 Y-17.9307
G01 X36.1060 Y-17.9159
G01 X36.1100 Y-17.8300
G01 X36.1054 Y-17.7367
G01 X36.0917 Y-17.6443
G01 X36.0690 Y-17.5537
G01 X36.0402 Y-17.4727
G01 X36.0345 Y-17.4589
G01 X35.9976 Y-17.3813
G01 X35.9496 Y-17.3011
G01 X35.8985 Y-17.2320
G01 X35.8891 Y-17.2204
G01 X35.8312 Y-17.1569
G01 X35.7620 Y-17.0941
G01 X35.6930 Y-17.0428
G01 X35.6806 Y-17.0345
G01 X35.6068 Y-16.9905
G01 X35.5224 Y-16.9505
G01 X35.4344 Y-16.9190
G01 X35.3511 Y-16.8980
G01 X35.3364 Y-16.8951
G01 X35.2588 Y-16.8835
G01 X35.2477 Y-16.8823
G01 X35.1655 Y-16.8782
G01 X35.1506 Y-16.8782
G01 X35.0648 Y-16.8826
G01 X34.9797 Y-16.8951
G01 X34.9651 Y-16.8980
G01 X34.8817 Y-16.9190
G01 X34.8007 Y-16.9478
G01 X34.7903 Y-16.9520
G01 X34.7093 Y-16.9905
G01 X34.6355 Y-17.0345
G01 X34.6231 Y-17.0428
G01 X34.5542 Y-17.0941
G01 X34.4903 Y-17.1517
G01 X34.4798 Y-17.1623
G01 X34.4222 Y-17.2261
G01 X34.3836 Y-17.2778
G01 X31.8725 Y-17.2779
G01 X29.8100 Y-15.2154
G01 X29.8098 Y-13.8368
G01 X29.8089 Y-13.8257
G01 X29.8078 Y-13.8183
G01 X29.8063 Y-13.8110
G01 X29.8035 Y-13.8002
G01 X29.8011 Y-13.7931
G01 X29.7970 Y-13.7827
G01 X29.7903 Y-13.7694
G01 X29.7864 Y-13.7630
G01 X29.7801 Y-13.7538
G01 X29.7707 Y-13.7422
G01 X29.7628 Y-13.7342
G01 X29.7573 Y-13.7292
G01 X29.7486 Y-13.7222
G01 X29.7425 Y-13.7179
G01 X29.7330 Y-13.7121
G01 X29.7230 Y-13.7069
G01 X29.7127 Y-13.7025
G01 X29.7022 Y-13.6989
G01 X29.6914 Y-13.6960
G01 X29.6840 Y-13.6946
G01 X29.6730 Y-13.6931
G01 X29.6618 Y-13.6924
G01 X27.8100 Y-13.6923
G01 X27.8100 Y-13.1721
G01 X27.8093 Y-13.1573
G01 X27.8071 Y-13.1425
G01 X27.8045 Y-13.1316
G01 X27.7998 Y-13.1175
G01 X27.7954 Y-13.1072
G01 X27.7903 Y-13.0972
G01 X27.7844 Y-13.0877
G01 X27.7779 Y-13.0787
G01 X27.7707 Y-13.0701
G01 X27.7628 Y-13.0621
G01 X27.7545 Y-13.0547
G01 X27.7456 Y-13.0479
G01 X27.7362 Y-13.0418
G01 X27.7264 Y-13.0364
G01 X27.7162 Y-13.0318
G01 X27.7057 Y-13.0279
G01 X27.6950 Y-13.0247
G01 X27.6840 Y-13.0224
G01 X27.6692 Y-13.0206
G01 X27.6581 Y-13.0202
G01 X25.6581 Y-13.0202
G01 X25.6469 Y-13.0206
G01 X25.6358 Y-13.0218
G01 X25.6248 Y-13.0239
G01 X25.6140 Y-13.0267
G01 X25.6069 Y-13.0291
G01 X25.5965 Y-13.0332
G01 X25.5864 Y-13.0381
G01 X25.5768 Y-13.0438
G01 X25.5675 Y-13.0501
G01 X25.5588 Y-13.0571
G01 X25.5506 Y-13.0647
G01 X25.5430 Y-13.0729
G01 X25.5360 Y-13.0816
G01 X25.5297 Y-13.0909
G01 X25.5241 Y-13.1005
G01 X25.5207 Y-13.1072
G01 X25.5163 Y-13.1175
G01 X25.5127 Y-13.1280
G01 X25.5107 Y-13.1352
G01 X25.5084 Y-13.1462
G01 X25.5068 Y-13.1573
G01 X25.5061 Y-13.1721
G01 X25.5061 Y-13.6200
G01 X23.7285 Y-13.6202
G01 X23.6818 Y-13.6227
G01 X23.6355 Y-13.6293
G01 X23.6209 Y-13.6322
G01 X23.5756 Y-13.6438
G01 X23.5316 Y-13.6593
G01 X23.5178 Y-13.6650
G01 X23.4756 Y-13.6852
G01 X23.4292 Y-13.7130
G01 X23.3856 Y-13.7453
G01 X23.3455 Y-13.7817
G01 X21.1026 Y-16.0246
G01 X21.0711 Y-16.0591
G01 X21.0617 Y-16.0706
G01 X21.0340 Y-16.1082
G01 X21.0079 Y-16.1515
G01 X21.0028 Y-16.1614
G01 X20.9829 Y-16.2037
G01 X20.9670 Y-16.2476
G01 X20.9627 Y-16.2619
G01 X20.9515 Y-16.3073
G01 X20.9445 Y-16.3535
G01 X20.9430 Y-16.3683
G01 X20.9410 Y-16.4113
G01 X20.9409 Y-21.5305
G01 X20.8892 Y-21.5691
G01 X20.8253 Y-21.6267
G01 X20.8148 Y-21.6373
G01 X20.7621 Y-21.6954
G01 X20.7526 Y-21.7070
G01 X20.7015 Y-21.7761
G01 X20.6572 Y-21.8498
G01 X20.6502 Y-21.8629
G01 X20.6136 Y-21.9407
G01 X20.5821 Y-22.0287
G01 X20.5594 Y-22.1193
G01 X20.5466 Y-22.2043
G00 Z1.0000
G00 X19.6522 Y-28.5992
G01 F60.00
G01 Z-0.0900
G01 F500.00
G01 X19.6747 Y-28.6113
G01 X19.6895 Y-28.6199
G01 X19.7569 Y-28.6603
G01 X19.7858 Y-28.6787
G01 X19.8139 Y-28.6984
G01 X19.8770 Y-28.7452
G01 X19.9040 Y-28.7663
G01 X19.9300 Y-28.7887
G01 X20.0007 Y-28.8531
G01 X20.0130 Y-28.8651
G01 X20.0367 Y-28.8899
G01 X20.0894 Y-28.9481
G01 X20.1118 Y-28.9741
G01 X20.1329 Y-29.0011
G01 X20.1897 Y-29.0781
G01 X20.2088 Y-29.1066
G01 X20.2231 Y-29.1300
G01 X20.2374 Y-29.1066
G01 X20.2564 Y-29.0781
G01 X20.3132 Y-29.0011
G01 X20.3343 Y-28.9741
G01 X20.3568 Y-28.9481
G01 X20.4095 Y-28.8899
G01 X20.4331 Y-28.8651
G01 X20.4454 Y-28.8531
G01 X20.5161 Y-28.7887
G01 X20.5421 Y-28.7663
G01 X20.5692 Y-28.7452
G01 X20.6322 Y-28.6984
G01 X20.6603 Y-28.6787
G01 X20.6893 Y-28.6603
G01 X20.7566 Y-28.6199
G01 X20.7714 Y-28.6113
G01 X20.7939 Y-28.5992
G01 X19.6522 Y-28.5992
G00 Z1.0000
G00 X17.1122 Y-28.5992
G01 F60.00
G01 Z-0.0900
G01 F500.00
G01 X17.1347 Y-28.6113
G01 X17.1495 Y-28.6199
G01 X17.2169 Y-28.6603
G01 X17.2458 Y-28.6787
G01 X17.2739 Y-28.6984
G01 X17.3370 Y-28.7452
G01 X17.3640 Y-28.7663
G01 X17.3900 Y-28.7887
G01 X17.4607 Y-28.8531
G01 X17.4850 Y-28.8773
G01 X17.4967 Y-28.8899
G01 X17.5494 Y-28.9481
G01 X17.5718 Y-28.9741
G01 X17.5929 Y-29.0011
G01 X17.6497 Y-29.0781
G01 X17.6688 Y-29.1066
G01 X17.6831 Y-29.1300
G01 X17.6974 Y-29.1066
G01 X17.7164 Y-29.0781
G01 X17.7732 Y-29.0011
G01 X17.7943 Y-28.9741
G01 X17.8168 Y-28.9481
G01 X17.8695 Y-28.8899
G01 X17.8931 Y-28.8651
G01 X17.9054 Y-28.8531
G01 X17.9761 Y-28.7887
G01 X18.0021 Y-28.7663
G01 X18.0292 Y-28.7452
G01 X18.0922 Y-28.6984
G01 X18.1203 Y-28.6787
G01 X18.1493 Y-28.6603
G01 X18.2166 Y-28.6199
G01 X18.2314 Y-28.6113
G01 X18.2539 Y-28.5992
G01 X17.1122 Y-28.5992
G00 Z1.0000
G00 X14.5722 Y-28.5992
G01 F60.00
G01 Z-0.0900
G01 F500.00
G01 X14.5947 Y-28.6113
G01 X14.6095 Y-28.6199
G01 X14.6769 Y-28.6603
G01 X14.7058 Y-28.6787
G01 X14.7339 Y-28.6984
G01 X14.7970 Y-28.7452
G01 X14.8240 Y-28.7663
G01 X14.8500 Y-28.7887
G01 X14.9207 Y-28.8531
G01 X14.9330 Y-28.8651
G01 X14.9567 Y-28.8899
G01 X15.0094 Y-28.9481
G01 X15.0318 Y-28.9741
G01 X15.0529 Y-29.0011
G01 X15.1097 Y-29.0781
G01 X15.1288 Y-29.1066
G01 X15.1431 Y-29.1300
G01 X15.1574 Y-29.1066
G01 X15.1764 Y-29.0781
G01 X15.2332 Y-29.0011
G01 X15.2543 Y-28.9741
G01 X15.2768 Y-28.9481
G01 X15.3295 Y-28.8899
G01 X15.3412 Y-28.8773
G01 X15.3654 Y-28.8531
G01 X15.4361 Y-28.7887
G01 X15.4621 Y-28.7663
G01 X15.4892 Y-28.7452
G01 X15.5522 Y-28.6984
G01 X15.5803 Y-28.6787
G01 X15.6093 Y-28.6603
G01 X15.6766 Y-28.6199
G01 X15.6914 Y-28.6113
G01 X15.7139 Y-28.5992
G01 X14.5722 Y-28.5992
G00 Z1.0000
G00 X12.0322 Y-28.5992
G01 F60.00
G01 Z-0.0900
G01 F500.00
G01 X12.0547 Y-28.6113
G01 X12.0695 Y-28.6199
G01 X12.1369 Y-28.6603
G01 X12.1658 Y-28.6787
G01 X12.1939 Y-28.6984
G01 X12.2570 Y-28.7452
G01 X12.2840 Y-28.7663
G01 X12.3100 Y-28.7887
G01 X12.3807 Y-28.8531
G01 X12.3930 Y-28.8651
G01 X12.4167 Y-28.8899
G01 X12.4694 Y-28.9481
G01 X12.4918 Y-28.9741
G01 X12.5129 Y-29.0011
G01 X12.5697 Y-29.0781
G01 X12.5888 Y-29.1066
G01 X12.6031 Y-29.1300
G01 X12.6174 Y-29.1066
G01 X12.6364 Y-29.0781
G01 X12.6932 Y-29.0011
G01 X12.7143 Y-28.9741
G01 X12.7368 Y-28.9481
G01 X12.7895 Y-28.8899
G01 X12.8012 Y-28.8773
G01 X12.8254 Y-28.8531
G01 X12.8961 Y-28.7887
G01 X12.9221 Y-28.7663
G01 X12.9492 Y-28.7452
G01 X13.0122 Y-28.6984
G01 X13.0403 Y-28.6787
G01 X13.0693 Y-28.6603
G01 X13.1366 Y-28.6199
G01 X13.1514 Y-28.6113
G01 X13.1739 Y-28.5992
G01 X12.0322 Y-28.5992
G00 Z1.0000
G00 X11.4232 Y-28.7035
G01 F60.00
G01 Z-0.0900
G01 F500.00
G01 X11.4428 Y-28.7045
G01 X11.4636 Y-28.7066
G01 X11.5516 Y-28.7195
G01 X11.5721 Y-28.7231
G01 X11.5925 Y-28.7277
G01 X11.6687 Y-28.7467
G01 X11.6888 Y-28.7523
G01 X11.7086 Y-28.7589
G01 X11.7825 Y-28.7853
G01 X11.8020 Y-28.7928
G01 X11.8211 Y-28.8013
G01 X11.8921 Y-28.8349
G01 X11.9107 Y-28.8442
G01 X11.9289 Y-28.8545
G01 X11.9962 Y-28.8949
G01 X12.0139 Y-28.9061
G01 X12.0225 Y-28.9120
G01 X12.0940 Y-28.9649
G01 X12.1105 Y-28.9777
G01 X12.1263 Y-28.9913
G01 X12.1845 Y-29.0441
G01 X12.1996 Y-29.0585
G01 X12.2140 Y-29.0736
G01 X12.2667 Y-29.1318
G01 X12.2804 Y-29.1476
G01 X12.2932 Y-29.1640
G01 X12.3400 Y-29.2271
G01 X12.3520 Y-29.2442
G01 X12.3632 Y-29.2618
G01 X12.4035 Y-29.3292
G01 X12.4138 Y-29.3473
G01 X12.4232 Y-29.3660
G01 X12.4568 Y-29.4369
G01 X12.4652 Y-29.4560
G01 X12.4728 Y-29.4755
G01 X12.4992 Y-29.5494
G01 X12.5058 Y-29.5693
G01 X12.5113 Y-29.5894
G01 X12.5304 Y-29.6655
G01 X12.5350 Y-29.6859
G01 X12.5385 Y-29.7065
G01 X12.5501 Y-29.7842
G01 X12.5515 Y-29.7945
G01 X12.5535 Y-29.8153
G01 X12.5580 Y-29.9041
G01 X12.5585 Y-29.9250
G01 X12.5585 Y-30.7250
G01 X12.5580 Y-30.7459
G01 X12.5542 Y-30.8243
G01 X12.5526 Y-30.8451
G01 X12.5501 Y-30.8658
G01 X12.5385 Y-30.9435
G01 X12.5350 Y-30.9641
G01 X12.5304 Y-30.9845
G01 X12.5113 Y-31.0606
G01 X12.5058 Y-31.0807
G01 X12.4992 Y-31.1006
G01 X12.4728 Y-31.1745
G01 X12.4691 Y-31.1843
G01 X12.4611 Y-31.2036
G01 X12.4232 Y-31.2840
G01 X12.4138 Y-31.3027
G01 X12.4088 Y-31.3118
G01 X12.3577 Y-31.3971
G01 X12.3520 Y-31.4058
G01 X12.3400 Y-31.4229
G01 X12.2932 Y-31.4860
G01 X12.2804 Y-31.5024
G01 X12.2667 Y-31.5182
G01 X12.2140 Y-31.5764
G01 X12.1996 Y-31.5915
G01 X12.1921 Y-31.5988
G01 X12.1263 Y-31.6587
G01 X12.1105 Y-31.6723
G01 X12.0940 Y-31.6851
G01 X12.0310 Y-31.7319
G01 X12.0139 Y-31.7439
G01 X12.0051 Y-31.7496
G01 X11.9289 Y-31.7955
G01 X11.9107 Y-31.8058
G01 X11.8921 Y-31.8151
G01 X11.8211 Y-31.8487
G01 X11.8020 Y-31.8572
G01 X11.7825 Y-31.8647
G01 X11.7086 Y-31.8911
G01 X11.6888 Y-31.8977
G01 X11.6687 Y-31.9033
G01 X11.5824 Y-31.9248
G01 X11.5619 Y-31.9288
G01 X11.5347 Y-31.9330
G01 X10.6088 Y-32.8588
G01 X10.5937 Y-32.8732
G01 X10.5646 Y-32.8996
G01 X10.5488 Y-32.9132
G01 X10.5323 Y-32.9261
G01 X10.5008 Y-32.9495
G01 X10.4837 Y-32.9615
G01 X10.4750 Y-32.9672
G01 X10.4234 Y-32.9981
G01 X10.4142 Y-33.0032
G01 X10.3956 Y-33.0126
G01 X10.3601 Y-33.0293
G01 X10.3410 Y-33.0378
G01 X10.3215 Y-33.0453
G01 X10.2845 Y-33.0586
G01 X10.2746 Y-33.0620
G01 X10.2546 Y-33.0680
G01 X10.1963 Y-33.0826
G01 X10.1758 Y-33.0867
G01 X10.1163 Y-33.0955
G01 X10.1059 Y-33.0967
G01 X10.0851 Y-33.0982
G01 X10.0459 Y-33.1001
G01 X10.0250 Y-33.1007
G01 X9.3292 Y-33.1007
G01 X9.3495 Y-33.1191
G01 X9.3646 Y-33.1335
G01 X9.3790 Y-33.1486
G01 X9.4023 Y-33.1743
G01 X10.6580 Y-33.1743
G01 X12.7135 Y-31.1189
G01 X12.7035 Y-31.0907
G01 X12.6975 Y-31.0707
G01 X12.6757 Y-30.9845
G01 X12.6733 Y-30.9743
G01 X12.6692 Y-30.9538
G01 X12.6561 Y-30.8658
G01 X12.6535 Y-30.8451
G01 X12.6520 Y-30.8243
G01 X12.6481 Y-30.7459
G01 X12.6476 Y-30.7250
G01 X12.6476 Y-29.9250
G01 X12.6481 Y-29.9041
G01 X12.6520 Y-29.8257
G01 X12.6535 Y-29.8049
G01 X12.6561 Y-29.7842
G01 X12.6676 Y-29.7065
G01 X12.6711 Y-29.6859
G01 X12.6757 Y-29.6655
G01 X12.6948 Y-29.5894
G01 X12.7004 Y-29.5693
G01 X12.7069 Y-29.5494
G01 X12.7334 Y-29.4755
G01 X12.7409 Y-29.4560
G01 X12.7493 Y-29.4369
G01 X12.7829 Y-29.3660
G01 X12.7923 Y-29.3473
G01 X12.8026 Y-29.3292
G01 X12.8430 Y-29.2618
G01 X12.8541 Y-29.2442
G01 X12.8662 Y-29.2271
G01 X12.9129 Y-29.1640
G01 X12.9258 Y-29.1476
G01 X12.9394 Y-29.1318
G01 X12.9921 Y-29.0736
G01 X13.0065 Y-29.0585
G01 X13.0217 Y-29.0441
G01 X13.0798 Y-28.9913
G01 X13.0876 Y-28.9844
G01 X13.1038 Y-28.9712
G01 X13.1752 Y-28.9181
G01 X13.1922 Y-28.9061
G01 X13.2099 Y-28.8949
G01 X13.2772 Y-28.8545
G01 X13.2954 Y-28.8442
G01 X13.3140 Y-28.8349
G01 X13.3850 Y-28.8013
G01 X13.4041 Y-28.7928
G01 X13.4236 Y-28.7853
G01 X13.4975 Y-28.7589
G01 X13.5173 Y-28.7523
G01 X13.5375 Y-28.7467
G01 X13.6136 Y-28.7277
G01 X13.6340 Y-28.7231
G01 X13.6546 Y-28.7195
G01 X13.7322 Y-28.7080
G01 X13.7529 Y-28.7054
G01 X13.7738 Y-28.7039
G01 X13.8522 Y-28.7001
G01 X13.8731 Y-28.6995
G01 X13.8939 Y-28.7001
G01 X13.9724 Y-28.7039
G01 X13.9932 Y-28.7054
G01 X14.0139 Y-28.7080
G01 X14.0916 Y-28.7195
G01 X14.1121 Y-28.7231
G01 X14.1325 Y-28.7277
G01 X14.2087 Y-28.7467
G01 X14.2288 Y-28.7523
G01 X14.2486 Y-28.7589
G01 X14.3323 Y-28.7889
G01 X14.3516 Y-28.7969
G01 X14.3611 Y-28.8013
G01 X14.4321 Y-28.8349
G01 X14.4507 Y-28.8442
G01 X14.4689 Y-28.8545
G01 X14.5362 Y-28.8949
G01 X14.5539 Y-28.9061
G01 X14.5710 Y-28.9181
G01 X14.6340 Y-28.9649
G01 X14.6505 Y-28.9777
G01 X14.6663 Y-28.9913
G01 X14.7245 Y-29.0441
G01 X14.7321 Y-29.0512
G01 X14.7469 Y-29.0659
G01 X14.8067 Y-29.1318
G01 X14.8204 Y-29.1476
G01 X14.8332 Y-29.1640
G01 X14.8800 Y-29.2271
G01 X14.8920 Y-29.2442
G01 X14.8977 Y-29.2529
G01 X14.9435 Y-29.3292
G01 X14.9488 Y-29.3382
G01 X14.9586 Y-29.3566
G01 X15.0011 Y-29.4464
G01 X15.0091 Y-29.4657
G01 X15.0213 Y-29.4993
G01 X15.2648 Y-29.4993
G01 X15.2770 Y-29.4657
G01 X15.2850 Y-29.4464
G01 X15.3229 Y-29.3660
G01 X15.3275 Y-29.3566
G01 X15.3373 Y-29.3382
G01 X15.3830 Y-29.2618
G01 X15.3941 Y-29.2442
G01 X15.4062 Y-29.2271
G01 X15.4529 Y-29.1640
G01 X15.4592 Y-29.1557
G01 X15.4725 Y-29.1396
G01 X15.5321 Y-29.0736
G01 X15.5465 Y-29.0585
G01 X15.5617 Y-29.0441
G01 X15.6198 Y-28.9913
G01 X15.6356 Y-28.9777
G01 X15.6521 Y-28.9649
G01 X15.7152 Y-28.9181
G01 X15.7322 Y-28.9061
G01 X15.7499 Y-28.8949
G01 X15.8262 Y-28.8493
G01 X15.8354 Y-28.8442
G01 X15.8540 Y-28.8349
G01 X15.9250 Y-28.8013
G01 X15.9441 Y-28.7928
G01 X15.9636 Y-28.7853
G01 X16.0375 Y-28.7589
G01 X16.0573 Y-28.7523
G01 X16.0775 Y-28.7467
G01 X16.1638 Y-28.7252
G01 X16.1740 Y-28.7231
G01 X16.1946 Y-28.7195
G01 X16.2722 Y-28.7080
G01 X16.2929 Y-28.7054
G01 X16.3138 Y-28.7039
G01 X16.3922 Y-28.7001
G01 X16.4131 Y-28.6995
G01 X16.4339 Y-28.7001
G01 X16.5124 Y-28.7039
G01 X16.5332 Y-28.7054
G01 X16.5539 Y-28.7080
G01 X16.6316 Y-28.7195
G01 X16.6419 Y-28.7212
G01 X16.6624 Y-28.7252
G01 X16.7487 Y-28.7467
G01 X16.7688 Y-28.7523
G01 X16.7886 Y-28.7589
G01 X16.8625 Y-28.7853
G01 X16.8820 Y-28.7928
G01 X16.9011 Y-28.8013
G01 X16.9721 Y-28.8349
G01 X16.9907 Y-28.8442
G01 X17.0089 Y-28.8545
G01 X17.0762 Y-28.8949
G01 X17.0939 Y-28.9061
G01 X17.1110 Y-28.9181
G01 X17.1740 Y-28.9649
G01 X17.1905 Y-28.9777
G01 X17.2063 Y-28.9913
G01 X17.2645 Y-29.0441
G01 X17.2796 Y-29.0585
G01 X17.2940 Y-29.0736
G01 X17.3467 Y-29.1318
G01 X17.3604 Y-29.1476
G01 X17.3732 Y-29.1640
G01 X17.4200 Y-29.2271
G01 X17.4320 Y-29.2442
G01 X17.4432 Y-29.2618
G01 X17.4835 Y-29.3292
G01 X17.4938 Y-29.3473
G01 X17.5032 Y-29.3660
G01 X17.5368 Y-29.4369
G01 X17.5452 Y-29.4560
G01 X17.5528 Y-29.4755
G01 X17.5792 Y-29.5494
G01 X17.5858 Y-29.5693
G01 X17.5913 Y-29.5894
G01 X17.6104 Y-29.6655
G01 X17.6150 Y-29.6859
G01 X17.6185 Y-29.7065
G01 X17.6301 Y-29.7842
G01 X17.6326 Y-29.8049
G01 X17.6342 Y-29.8257
G01 X17.6384 Y-29.9146
G01 X17.6385 Y-30.7250
G01 X17.6380 Y-30.7459
G01 X17.6342 Y-30.8243
G01 X17.6326 Y-30.8451
G01 X17.6301 Y-30.8658
G01 X17.6185 Y-30.9435
G01 X17.6150 Y-30.9641
G01 X17.6104 Y-30.9845
G01 X17.5913 Y-31.0606
G01 X17.5858 Y-31.0807
G01 X17.5792 Y-31.1006
G01 X17.5528 Y-31.1745
G01 X17.5452 Y-31.1940
G01 X17.5368 Y-31.2131
G01 X17.5032 Y-31.2840
G01 X17.4938 Y-31.3027
G01 X17.4835 Y-31.3208
G01 X17.4432 Y-31.3882
G01 X17.4320 Y-31.4058
G01 X17.4200 Y-31.4229
G01 X17.3732 Y-31.4860
G01 X17.3604 Y-31.5024
G01 X17.3467 Y-31.5182
G01 X17.2940 Y-31.5764
G01 X17.2796 Y-31.5915
G01 X17.2645 Y-31.6059
G01 X17.2063 Y-31.6587
G01 X17.1905 Y-31.6723
G01 X17.1740 Y-31.6851
G01 X17.1025 Y-31.7380
G01 X17.0851 Y-31.7496
G01 X17.0762 Y-31.7551
G01 X17.0089 Y-31.7955
G01 X16.9907 Y-31.8058
G01 X16.9721 Y-31.8151
G01 X16.9011 Y-31.8487
G01 X16.8820 Y-31.8572
G01 X16.8625 Y-31.8647
G01 X16.7886 Y-31.8911
G01 X16.7688 Y-31.8977
G01 X16.7487 Y-31.9033
G01 X16.6725 Y-31.9223
G01 X16.6521 Y-31.9269
G01 X16.6316 Y-31.9305
G01 X16.5539 Y-31.9420
G01 X16.5332 Y-31.9446
G01 X16.5124 Y-31.9461
G01 X16.4339 Y-31.9499
G01 X16.4235 Y-31.9503
G01 X16.4026 Y-31.9503
G01 X16.3138 Y-31.9461
G01 X16.3034 Y-31.9455
G01 X16.2826 Y-31.9434
G01 X16.1843 Y-31.9288
G01 X16.1638 Y-31.9248
G01 X16.1536 Y-31.9223
G01 X16.0674 Y-31.9006
G01 X16.0573 Y-31.8977
G01 X16.0375 Y-31.8911
G01 X15.9636 Y-31.8647
G01 X15.9441 Y-31.8572
G01 X15.9250 Y-31.8487
G01 X15.8540 Y-31.8151
G01 X15.8354 Y-31.8058
G01 X15.8172 Y-31.7955
G01 X15.7499 Y-31.7551
G01 X15.7322 Y-31.7439
G01 X15.7152 Y-31.7319
G01 X15.6521 Y-31.6851
G01 X15.6356 Y-31.6723
G01 X15.6276 Y-31.6656
G01 X15.5540 Y-31.5988
G01 X15.5465 Y-31.5915
G01 X15.5321 Y-31.5764
G01 X15.4794 Y-31.5182
G01 X15.4658 Y-31.5024
G01 X15.4529 Y-31.4860
G01 X15.4062 Y-31.4229
G01 X15.4000 Y-31.4144
G01 X15.3884 Y-31.3971
G01 X15.3426 Y-31.3208
G01 X15.3373 Y-31.3118
G01 X15.3275 Y-31.2934
G01 X15.2850 Y-31.2036
G01 X15.2770 Y-31.1843
G01 X15.2648 Y-31.1507
G01 X15.0213 Y-31.1507
G01 X15.0091 Y-31.1843
G01 X15.0011 Y-31.2036
G01 X14.9586 Y-31.2934
G01 X14.9538 Y-31.3027
G01 X14.9435 Y-31.3208
G01 X14.8977 Y-31.3971
G01 X14.8920 Y-31.4058
G01 X14.8800 Y-31.4229
G01 X14.8332 Y-31.4860
G01 X14.8204 Y-31.5024
G01 X14.8067 Y-31.5182
G01 X14.7540 Y-31.5764
G01 X14.7396 Y-31.5915
G01 X14.7245 Y-31.6059
G01 X14.6663 Y-31.6587
G01 X14.6505 Y-31.6723
G01 X14.6340 Y-31.6851
G01 X14.5710 Y-31.7319
G01 X14.5539 Y-31.7439
G01 X14.5451 Y-31.7496
G01 X14.4689 Y-31.7955
G01 X14.4599 Y-31.8007
G01 X14.4415 Y-31.8106
G01 X14.3516 Y-31.8531
G01 X14.3323 Y-31.8611
G01 X14.2921 Y-31.8756
G01 X11.5838 Y-34.5838
G01 X11.5687 Y-34.5982
G01 X11.5396 Y-34.6246
G01 X11.5238 Y-34.6382
G01 X11.5073 Y-34.6511
G01 X11.4673 Y-34.6806
G01 X11.4587 Y-34.6865
G01 X11.4411 Y-34.6977
G01 X11.4074 Y-34.7179
G01 X11.3892 Y-34.7282
G01 X11.3706 Y-34.7376
G01 X11.3351 Y-34.7543
G01 X11.3160 Y-34.7628
G01 X11.3063 Y-34.7667
G01 X11.2595 Y-34.7836
G01 X11.2397 Y-34.7901
G01 X11.2196 Y-34.7957
G01 X11.1815 Y-34.8052
G01 X11.1713 Y-34.8076
G01 X11.1508 Y-34.8117
G01 X11.1017 Y-34.8191
G01 X11.0809 Y-34.8217
G01 X11.0601 Y-34.8232
G01 X11.0104 Y-34.8255
G01 X10.4914 Y-34.8257
G01 X10.5063 Y-34.8413
G01 X10.5327 Y-34.8704
G01 X10.5463 Y-34.8862
G01 X10.5592 Y-34.9027
G01 X10.5825 Y-34.9342
G01 X10.5946 Y-34.9513
G01 X10.6057 Y-34.9689
G01 X10.6259 Y-35.0026
G01 X10.6362 Y-35.0208
G01 X10.6456 Y-35.0394
G01 X10.6624 Y-35.0749
G01 X10.6709 Y-35.0940
G01 X10.6784 Y-35.1135
G01 X10.6916 Y-35.1505
G01 X10.6982 Y-35.1703
G01 X10.7037 Y-35.1904
G01 X10.7133 Y-35.2285
G01 X10.7179 Y-35.2489
G01 X10.7214 Y-35.2695
G01 X10.7272 Y-35.3083
G01 X10.7297 Y-35.3291
G01 X10.7313 Y-35.3499
G01 X10.7336 Y-35.3996
G01 X10.7337 Y-44.2580
G01 X15.4919 Y-49.0162
G01 X15.5063 Y-49.0313
G01 X15.5327 Y-49.0604
G01 X15.5463 Y-49.0762
G01 X15.5592 Y-49.0927
G01 X15.5825 Y-49.1242
G01 X15.5946 Y-49.1413
G01 X15.6057 Y-49.1589
G01 X15.6259 Y-49.1926
G01 X15.6362 Y-49.2108
G01 X15.6456 Y-49.2294
G01 X15.6624 Y-49.2649
G01 X15.6709 Y-49.2840
G01 X15.6784 Y-49.3035
G01 X15.6916 Y-49.3405
G01 X15.6982 Y-49.3603
G01 X15.7037 Y-49.3804
G01 X15.7133 Y-49.4185
G01 X15.7179 Y-49.4389
G01 X15.7198 Y-49.4492
G01 X15.7272 Y-49.4983
G01 X15.7297 Y-49.5191
G01 X15.7313 Y-49.5399
G01 X15.7336 Y-49.5896
G01 X15.7337 Y-49.9745
G01 X15.7581 Y-49.9745
G01 X15.7789 Y-49.9751
G01 X15.7894 Y-49.9757
G01 X15.8101 Y-49.9777
G01 X15.8205 Y-49.9791
G01 X15.8411 Y-49.9827
G01 X15.8614 Y-49.9873
G01 X15.8816 Y-49.9929
G01 X15.9014 Y-49.9994
G01 X15.9209 Y-50.0069
G01 X15.9400 Y-50.0154
G01 X15.9586 Y-50.0248
G01 X15.9768 Y-50.0351
G01 X15.9944 Y-50.0462
G01 X16.0115 Y-50.0583
G01 X16.0198 Y-50.0646
G01 X16.0360 Y-50.0778
G01 X16.0514 Y-50.0919
G01 X16.0662 Y-50.1066
G01 X16.0733 Y-50.1143
G01 X16.0869 Y-50.1301
G01 X16.0998 Y-50.1466
G01 X16.1118 Y-50.1636
G01 X16.1230 Y-50.1813
G01 X16.1333 Y-50.1994
G01 X16.1427 Y-50.2181
G01 X16.1511 Y-50.2372
G01 X16.1587 Y-50.2567
G01 X16.1652 Y-50.2765
G01 X16.1708 Y-50.2966
G01 X16.1732 Y-50.3068
G01 X16.1773 Y-50.3273
G01 X16.1803 Y-50.3479
G01 X16.1824 Y-50.3687
G01 X16.1830 Y-50.3791
G01 X16.1835 Y-50.4000
G01 X16.1834 Y-52.1104
G01 X16.1824 Y-52.1313
G01 X16.1803 Y-52.1521
G01 X16.1773 Y-52.1727
G01 X16.1732 Y-52.1932
G01 X16.1681 Y-52.2135
G01 X16.1620 Y-52.2335
G01 X16.1550 Y-52.2531
G01 X16.1461 Y-52.2743
G01 X17.0824 Y-52.2743
G01 X17.0824 Y-49.3420
G01 X13.3242 Y-45.5838
G01 X13.3098 Y-45.5687
G01 X13.2835 Y-45.5396
G01 X13.2698 Y-45.5238
G01 X13.2570 Y-45.5073
G01 X13.2336 Y-45.4758
G01 X13.2216 Y-45.4587
G01 X13.2104 Y-45.4411
G01 X13.1902 Y-45.4074
G01 X13.1799 Y-45.3892
G01 X13.1705 Y-45.3706
G01 X13.1537 Y-45.3351
G01 X13.1453 Y-45.3160
G01 X13.1414 Y-45.3063
G01 X13.1245 Y-45.2595
G01 X13.1180 Y-45.2397
G01 X13.1124 Y-45.2196
G01 X13.1028 Y-45.1815
G01 X13.0983 Y-45.1611
G01 X13.0947 Y-45.1405
G01 X13.0889 Y-45.1017
G01 X13.0864 Y-45.0809
G01 X13.0848 Y-45.0601
G01 X13.0829 Y-45.0209
G01 X13.0824 Y-45.0000
G01 X13.0824 Y-38.7500
G01 X13.0829 Y-38.7291
G01 X13.0848 Y-38.6899
G01 X13.0855 Y-38.6795
G01 X13.0875 Y-38.6587
G01 X13.0947 Y-38.6095
G01 X13.0983 Y-38.5889
G01 X13.1028 Y-38.5685
G01 X13.1150 Y-38.5204
G01 X13.1211 Y-38.5004
G01 X13.1377 Y-38.4535
G01 X13.1453 Y-38.4340
G01 X13.1537 Y-38.4149
G01 X13.1705 Y-38.3794
G01 X13.1799 Y-38.3608
G01 X13.1902 Y-38.3426
G01 X13.2104 Y-38.3089
G01 X13.2216 Y-38.2913
G01 X13.2336 Y-38.2742
G01 X13.2570 Y-38.2427
G01 X13.2698 Y-38.2262
G01 X13.2835 Y-38.2104
G01 X13.3169 Y-38.1736
G01 X17.4348 Y-34.0556
G01 X17.4327 Y-34.0104
G01 X17.4327 Y-33.9896
G01 X17.4376 Y-33.8903
G01 X17.4397 Y-33.8695
G01 X17.4411 Y-33.8592
G01 X17.4526 Y-33.7815
G01 X17.4542 Y-33.7712
G01 X17.4583 Y-33.7507
G01 X17.4798 Y-33.6644
G01 X17.4854 Y-33.6443
G01 X17.4919 Y-33.6244
G01 X17.5220 Y-33.5407
G01 X17.5300 Y-33.5214
G01 X17.5343 Y-33.5119
G01 X17.5679 Y-33.4410
G01 X17.5773 Y-33.4223
G01 X17.5876 Y-33.4042
G01 X17.6280 Y-33.3368
G01 X17.6391 Y-33.3192
G01 X17.6512 Y-33.3021
G01 X17.6979 Y-33.2390
G01 X17.7108 Y-33.2226
G01 X17.7244 Y-33.2068
G01 X17.7771 Y-33.1486
G01 X17.7842 Y-33.1409
G01 X17.7990 Y-33.1262
G01 X17.8648 Y-33.0663
G01 X17.8806 Y-33.0527
G01 X17.8971 Y-33.0399
G01 X17.9686 Y-32.9870
G01 X17.9860 Y-32.9754
G01 X17.9949 Y-32.9699
G01 X18.0712 Y-32.9243
G01 X18.0897 Y-32.9144
G01 X18.1274 Y-32.8964
G01 X18.1274 Y-31.6293
G01 X18.0940 Y-31.5988
G01 X18.0792 Y-31.5841
G01 X18.0194 Y-31.5182
G01 X18.0125 Y-31.5104
G01 X17.9992 Y-31.4943
G01 X17.9462 Y-31.4229
G01 X17.9341 Y-31.4058
G01 X17.9230 Y-31.3882
G01 X17.8826 Y-31.3208
G01 X17.8723 Y-31.3027
G01 X17.8675 Y-31.2934
G01 X17.8293 Y-31.2131
G01 X17.8209 Y-31.1940
G01 X17.8134 Y-31.1745
G01 X17.7869 Y-31.1006
G01 X17.7804 Y-31.0807
G01 X17.7748 Y-31.0606
G01 X17.7557 Y-30.9845
G01 X17.7511 Y-30.9641
G01 X17.7476 Y-30.9435
G01 X17.7347 Y-30.8555
G01 X17.7335 Y-30.8451
G01 X17.7320 Y-30.8243
G01 X17.7281 Y-30.7459
G01 X17.7276 Y-30.7250
G01 X17.7277 Y-29.9146
G01 X17.7320 Y-29.8257
G01 X17.7335 Y-29.8049
G01 X17.7361 Y-29.7842
G01 X17.7492 Y-29.6962
G01 X17.7511 Y-29.6859
G01 X17.7557 Y-29.6655
G01 X17.7748 Y-29.5894
G01 X17.7804 Y-29.5693
G01 X17.7869 Y-29.5494
G01 X17.8134 Y-29.4755
G01 X17.8209 Y-29.4560
G01 X17.8293 Y-29.4369
G01 X17.8629 Y-29.3660
G01 X17.8723 Y-29.3473
G01 X17.8826 Y-29.3292
G01 X17.9230 Y-29.2618
G01 X17.9341 Y-29.2442
G01 X17.9462 Y-29.2271
G01 X17.9929 Y-29.1640
G01 X17.9992 Y-29.1557
