(G-CODE GENERATED BY FLATCAM v8.994 - www.flatcam.org - Version Date: 2020/11/7)

(Name: SolarModular-PTH.drl_edit_cnc)
(Type: G-code from Geometry)
(Units: MM)

(Created on Tuesday, 11 June 2024 at 17:43)

(This preprocessor is the default preprocessor used by FlatCAM.)
(It is made to work with MACH3 compatible motion controllers.)


(TOOLS DIAMETER: )
(Tool: 1 -> Dia: 0.8)
(Tool: 2 -> Dia: 3.0)

(FEEDRATE Z: )
(Tool: 1 -> Feedrate: 300)
(Tool: 2 -> Feedrate: 300)

(FEEDRATE RAPIDS: )
(Tool: 1 -> Feedrate Rapids: 1500)
(Tool: 2 -> Feedrate Rapids: 1500)

(Z_CUT: )
(Tool: 1 -> Z_Cut: -1.7)
(Tool: 2 -> Z_Cut: -1.7)

(Tools Offset: )
(Tool: 2 -> Offset Z: 0.0)

(Z_MOVE: )
(Tool: 1 -> Z_Move: 2)
(Tool: 2 -> Z_Move: 2)

(Z Toolchange: 15 mm)
(X,Y Toolchange: 0.0000, 0.0000 mm)
(Z Start: None mm)
(Z End: 0.5 mm)
(X,Y End: None mm)
(Steps per circle: 64)
(Preprocessor Excellon: default)

(X range:    1.7580 ...  121.5880  mm)
(Y range:  -51.6500 ...   -3.1000  mm)

(Spindle Speed: 0 RPM)
G21
G90
G94

G01 F300.00

M5
G00 Z15.0000
T2
G00 X0.0000 Y0.0000                
M6
(MSG, Change to Tool Dia = 3.0000 ||| Total drills for tool T2 = 14)
M0
G00 Z15.0000

G01 F300.00
M03
G00 X29.6580 Y-40.5300
G01 Z-1.7000
G01 Z0
G00 Z2.0000
G00 X42.1580 Y-40.5300
G01 Z-1.7000
G01 Z0
G00 Z2.0000
G00 X62.6880 Y-33.0800
G01 Z-1.7000
G01 Z0
G00 Z2.0000
G00 X62.6880 Y-22.0800
G01 Z-1.7000
G01 Z0
G00 Z2.0000
G00 X62.6880 Y-9.5800
G01 Z-1.7000
G01 Z0
G00 Z2.0000
G00 X90.1880 Y-21.5000
G01 Z-1.7000
G01 Z0
G00 Z2.0000
G00 X90.1880 Y-9.0000
G01 Z-1.7000
G01 Z0
G00 Z2.0000
G00 X116.1880 Y-9.2500
G01 Z-1.7000
G01 Z0
G00 Z2.0000
G00 X116.1880 Y-21.7500
G01 Z-1.7000
G01 Z0
G00 Z2.0000
G00 X116.2630 Y-32.7500
G01 Z-1.7000
G01 Z0
G00 Z2.0000
G00 X116.2630 Y-45.2500
G01 Z-1.7000
G01 Z0
G00 Z2.0000
G00 X90.4080 Y-45.5000
G01 Z-1.7000
G01 Z0
G00 Z2.0000
G00 X90.4080 Y-33.0000
G01 Z-1.7000
G01 Z0
G00 Z2.0000
G00 X62.6880 Y-45.5800
G01 Z-1.7000
G01 Z0
G00 Z2.0000
M05
G00 Z0.50


