(G-CODE GENERATED BY FLATCAM v8.994 - www.flatcam.org - Version Date: 2020/11/7)

(Name: SolarAmp-F_Cu.gbr_panelized_iso_combined_cnc)
(Type: G-code from Geometry)
(Units: MM)

(Created on Monday, 01 July 2024 at 18:06)

(This preprocessor is the default preprocessor used by FlatCAM.)
(It is made to work with MACH3 compatible motion controllers.)

(TOOL DIAMETER: 0.3039 mm)
(Feedrate_XY: 500.0 mm/min)
(Feedrate_Z: 60.0 mm/min)
(Feedrate rapids 1500.0 mm/min)

(Z_Cut: -0.09 mm)
(Z_Move: 1.0 mm)
(Z Start: None mm)
(Z End: 15.0 mm)
(X,Y End: None mm)
(Steps per circle: 64)
(Preprocessor Geometry: default)

(X range:    1.2010 ...   99.9990  mm)
(Y range:  -83.9890 ...   -1.2010  mm)

(Spindle Speed: 15000.0 RPM)
G21
G90
G94

G01 F500.00

M5
G00 Z15.0000
G00 X0.0000 Y0.0000
T2
M6    
(MSG, Change to Tool Dia = 0.3039)
M0
G00 Z15.0000

M03 S15000.0
G01 F500.00
G00 X4.7360 Y-3.3021
G01 F60.00
G01 Z-0.0900
G01 F500.00
G01 X10.0143 Y-3.3026
G01 X10.0212 Y-3.3127
G01 X10.0755 Y-3.3856
G01 X10.1364 Y-3.4530
G01 X10.1469 Y-3.4636
G01 X10.2144 Y-3.5244
G01 X10.2872 Y-3.5787
G01 X10.2996 Y-3.5870
G01 X10.3777 Y-3.6336
G01 X10.4666 Y-3.6756
G01 X10.5521 Y-3.7064
G01 X10.5663 Y-3.7107
G01 X10.6545 Y-3.7326
G01 X10.7444 Y-3.7461
G01 X10.7592 Y-3.7476
G01 X10.8500 Y-3.7519
G01 X11.1500 Y-3.7519
G01 X11.2482 Y-3.7471
G01 X11.3381 Y-3.7339
G01 X11.3527 Y-3.7310
G01 X11.4409 Y-3.7087
G01 X11.5300 Y-3.6770
G01 X11.5402 Y-3.6726
G01 X11.6157 Y-3.6369
G01 X11.6288 Y-3.6299
G01 X11.7067 Y-3.5830
G01 X11.7856 Y-3.5244
G01 X11.8585 Y-3.4584
G01 X11.9196 Y-3.3912
G01 X11.9291 Y-3.3797
G01 X11.9788 Y-3.3127
G01 X11.9860 Y-3.3021
G01 X17.2643 Y-3.3026
G01 X17.2712 Y-3.3127
G01 X17.3209 Y-3.3797
G01 X17.3304 Y-3.3912
G01 X17.3915 Y-3.4584
G01 X17.4644 Y-3.5244
G01 X17.5433 Y-3.5830
G01 X17.6212 Y-3.6299
G01 X17.6343 Y-3.6369
G01 X17.7098 Y-3.6726
G01 X17.7200 Y-3.6770
G01 X17.8091 Y-3.7087
G01 X17.8973 Y-3.7310
G01 X17.9119 Y-3.7339
G01 X18.0018 Y-3.7471
G01 X18.1000 Y-3.7519
G01 X18.4000 Y-3.7519
G01 X18.4982 Y-3.7471
G01 X18.5881 Y-3.7339
G01 X18.6027 Y-3.7310
G01 X18.6909 Y-3.7087
G01 X18.7765 Y-3.6783
G01 X18.7902 Y-3.6726
G01 X18.8723 Y-3.6336
G01 X18.9504 Y-3.5870
G01 X18.9628 Y-3.5787
G01 X19.0356 Y-3.5244
G01 X19.1031 Y-3.4636
G01 X19.1136 Y-3.4530
G01 X19.1745 Y-3.3856
G01 X19.2288 Y-3.3127
G01 X19.2360 Y-3.3021
G01 X27.6731 Y-3.3021
G01 X27.6731 Y-3.6037
G01 X27.6735 Y-3.6111
G01 X27.6747 Y-3.6222
G01 X27.6776 Y-3.6368
G01 X27.6807 Y-3.6476
G01 X27.6832 Y-3.6546
G01 X27.6876 Y-3.6649
G01 X27.6928 Y-3.6748
G01 X27.6987 Y-3.6843
G01 X27.7052 Y-3.6934
G01 X27.7124 Y-3.7020
G01 X27.7176 Y-3.7074
G01 X27.7258 Y-3.7150
G01 X27.7345 Y-3.7220
G01 X27.7406 Y-3.7263
G01 X27.7501 Y-3.7321
G01 X27.7567 Y-3.7357
G01 X27.7669 Y-3.7403
G01 X27.7773 Y-3.7442
G01 X27.7881 Y-3.7473
G01 X27.7990 Y-3.7496
G01 X27.8064 Y-3.7507
G01 X27.8175 Y-3.7517
G01 X27.8250 Y-3.7519
G01 X29.5250 Y-3.7519
G01 X29.5399 Y-3.7511
G01 X29.5510 Y-3.7496
G01 X29.5619 Y-3.7473
G01 X29.5727 Y-3.7442
G01 X29.5831 Y-3.7403
G01 X29.5966 Y-3.7339
G01 X29.6063 Y-3.7283
G01 X29.6155 Y-3.7220
G01 X29.6270 Y-3.7125
G01 X29.6350 Y-3.7047
G01 X29.6425 Y-3.6963
G01 X29.6492 Y-3.6874
G01 X29.6553 Y-3.6780
G01 X29.6607 Y-3.6682
G01 X29.6654 Y-3.6581
G01 X29.6693 Y-3.6476
G01 X29.6724 Y-3.6368
G01 X29.6747 Y-3.6259
G01 X29.6762 Y-3.6148
G01 X29.6769 Y-3.6037
G01 X29.6769 Y-3.3021
G01 X34.7133 Y-3.3021
G01 X40.2014 Y-8.7902
G01 X40.2113 Y-8.8556
G01 X40.2321 Y-8.9391
G01 X40.2364 Y-8.9533
G01 X40.2628 Y-9.0273
G01 X40.2685 Y-9.0410
G01 X40.3055 Y-9.1187
G01 X40.3514 Y-9.1957
G01 X40.3578 Y-9.2049
G01 X40.4091 Y-9.2738
G01 X40.4719 Y-9.3431
G01 X40.5411 Y-9.4058
G01 X40.6161 Y-9.4614
G01 X40.6898 Y-9.5058
G01 X40.7029 Y-9.5128
G01 X40.7807 Y-9.5494
G01 X40.8616 Y-9.5785
G01 X40.8759 Y-9.5829
G01 X40.9593 Y-9.6036
G01 X41.0443 Y-9.6164
G01 X41.0554 Y-9.6176
G01 X41.1450 Y-9.6219
G01 X41.9487 Y-9.6218
G01 X42.0383 Y-9.6173
G01 X42.1234 Y-9.6049
G01 X42.1380 Y-9.6019
G01 X42.2213 Y-9.5809
G01 X42.3093 Y-9.5494
G01 X42.3871 Y-9.5128
G01 X42.4002 Y-9.5058
G01 X42.4739 Y-9.4614
G01 X42.5430 Y-9.4104
G01 X42.5546 Y-9.4009
G01 X42.6181 Y-9.3431
G01 X42.6809 Y-9.2738
G01 X42.7365 Y-9.1988
G01 X42.7809 Y-9.1252
G01 X42.7879 Y-9.1120
G01 X42.8245 Y-9.0342
G01 X42.8536 Y-8.9533
G01 X42.8579 Y-8.9391
G01 X42.8787 Y-8.8556
G01 X42.8915 Y-8.7706
G01 X42.8929 Y-8.7558
G01 X42.8968 Y-8.6774
G01 X42.8968 Y-8.6625
G01 X42.8924 Y-8.5766
G01 X42.8787 Y-8.4842
G01 X42.8560 Y-8.3936
G01 X42.8272 Y-8.3126
G01 X42.8215 Y-8.2988
G01 X42.7879 Y-8.2278
G01 X42.7809 Y-8.2147
G01 X42.7365 Y-8.1411
G01 X42.6809 Y-8.0660
G01 X42.6181 Y-7.9968
G01 X42.5546 Y-7.9389
G01 X42.5430 Y-7.9295
G01 X42.4800 Y-7.8827
G01 X42.4676 Y-7.8744
G01 X42.3937 Y-7.8304
G01 X42.3161 Y-7.7935
G01 X42.3023 Y-7.7878
G01 X42.2284 Y-7.7613
G01 X42.2141 Y-7.7570
G01 X42.1307 Y-7.7363
G01 X42.0457 Y-7.7235
G01 X42.0346 Y-7.7222
G01 X41.9450 Y-7.7180
G01 X41.1450 Y-7.7180
G01 X41.0517 Y-7.7226
G01 X40.9593 Y-7.7363
G01 X40.8687 Y-7.7590
G01 X40.7877 Y-7.7878
G01 X40.7773 Y-7.7919
G01 X40.7688 Y-7.7958
G01 X35.3298 Y-2.3569
G01 X35.2923 Y-2.3231
G01 X35.2549 Y-2.2951
G01 X35.2457 Y-2.2888
G01 X35.2088 Y-2.2666
G01 X35.1957 Y-2.2596
G01 X35.1534 Y-2.2398
G01 X35.1023 Y-2.2216
G01 X35.0498 Y-2.2084
G01 X35.0036 Y-2.2013
G01 X34.9887 Y-2.1999
G01 X34.9421 Y-2.1978
G01 X29.6769 Y-2.1978
G01 X29.6769 Y-1.8962
G01 X29.6762 Y-1.8850
G01 X29.6747 Y-1.8739
G01 X29.6724 Y-1.8630
G01 X29.6693 Y-1.8523
G01 X29.6639 Y-1.8383
G01 X29.6590 Y-1.8283
G01 X29.6534 Y-1.8186
G01 X29.6470 Y-1.8094
G01 X29.6401 Y-1.8007
G01 X29.6324 Y-1.7925
G01 X29.6242 Y-1.7849
G01 X29.6125 Y-1.7757
G01 X29.6031 Y-1.7696
G01 X29.5933 Y-1.7642
G01 X29.5831 Y-1.7595
G01 X29.5691 Y-1.7545
G01 X29.5583 Y-1.7517
G01 X29.5473 Y-1.7496
G01 X29.5362 Y-1.7484
G01 X29.5250 Y-1.7480
G01 X27.8250 Y-1.7480
G01 X27.8175 Y-1.7482
G01 X27.8064 Y-1.7491
G01 X27.7990 Y-1.7502
G01 X27.7881 Y-1.7525
G01 X27.7773 Y-1.7556
G01 X27.7669 Y-1.7595
G01 X27.7567 Y-1.7642
G01 X27.7501 Y-1.7677
G01 X27.7406 Y-1.7736
G01 X27.7315 Y-1.7801
G01 X27.7230 Y-1.7873
G01 X27.7176 Y-1.7925
G01 X27.7124 Y-1.7979
G01 X27.7052 Y-1.8064
G01 X27.6987 Y-1.8155
G01 X27.6928 Y-1.8250
G01 X27.6876 Y-1.8350
G01 X27.6846 Y-1.8418
G01 X27.6807 Y-1.8523
G01 X27.6776 Y-1.8630
G01 X27.6747 Y-1.8776
G01 X27.6735 Y-1.8887
G01 X27.6731 Y-1.8962
G01 X27.6731 Y-2.1978
G01 X19.2357 Y-2.1973
G01 X19.2288 Y-2.1872
G01 X19.1745 Y-2.1143
G01 X19.1136 Y-2.0468
G01 X19.1031 Y-2.0363
G01 X19.0356 Y-1.9754
G01 X18.9628 Y-1.9211
G01 X18.9504 Y-1.9128
G01 X18.8723 Y-1.8663
G01 X18.7834 Y-1.8242
G01 X18.6979 Y-1.7935
G01 X18.6837 Y-1.7891
G01 X18.5955 Y-1.7672
G01 X18.5056 Y-1.7537
G01 X18.4908 Y-1.7523
G01 X18.4000 Y-1.7480
G01 X18.1000 Y-1.7480
G01 X18.0018 Y-1.7528
G01 X17.9119 Y-1.7660
G01 X17.8973 Y-1.7689
G01 X17.8091 Y-1.7911
G01 X17.7200 Y-1.8229
G01 X17.7098 Y-1.8273
G01 X17.6343 Y-1.8629
G01 X17.6212 Y-1.8700
G01 X17.5433 Y-1.9168
G01 X17.4644 Y-1.9754
G01 X17.3915 Y-2.0414
G01 X17.3304 Y-2.1086
G01 X17.3209 Y-2.1202
G01 X17.2712 Y-2.1872
G01 X17.2640 Y-2.1978
G01 X11.9857 Y-2.1973
G01 X11.9788 Y-2.1872
G01 X11.9291 Y-2.1202
G01 X11.9196 Y-2.1086
G01 X11.8585 Y-2.0414
G01 X11.7856 Y-1.9754
G01 X11.7067 Y-1.9168
G01 X11.6288 Y-1.8700
G01 X11.6157 Y-1.8629
G01 X11.5402 Y-1.8273
G01 X11.5300 Y-1.8229
G01 X11.4409 Y-1.7911
G01 X11.3527 Y-1.7689
G01 X11.3381 Y-1.7660
G01 X11.2482 Y-1.7528
G01 X11.1500 Y-1.7480
G01 X10.8500 Y-1.7480
G01 X10.7518 Y-1.7528
G01 X10.6619 Y-1.7660
G01 X10.6473 Y-1.7689
G01 X10.5591 Y-1.7911
G01 X10.4735 Y-1.8216
G01 X10.4598 Y-1.8273
G01 X10.3777 Y-1.8663
G01 X10.2996 Y-1.9128
G01 X10.2872 Y-1.9211
G01 X10.2144 Y-1.9754
G01 X10.1469 Y-2.0363
G01 X10.1364 Y-2.0468
G01 X10.0755 Y-2.1143
G01 X10.0212 Y-2.1872
G01 X10.0140 Y-2.1978
G01 X4.7360 Y-2.1978
G01 X4.7288 Y-2.1872
G01 X4.6791 Y-2.1202
G01 X4.6696 Y-2.1086
G01 X4.6085 Y-2.0414
G01 X4.5356 Y-1.9754
G01 X4.4567 Y-1.9168
G01 X4.3788 Y-1.8700
G01 X4.3657 Y-1.8629
G01 X4.2902 Y-1.8273
G01 X4.2800 Y-1.8229
G01 X4.1909 Y-1.7911
G01 X4.1027 Y-1.7689
G01 X4.0881 Y-1.7660
G01 X3.9982 Y-1.7528
G01 X3.9000 Y-1.7480
G01 X3.6000 Y-1.7480
G01 X3.5092 Y-1.7523
G01 X3.4944 Y-1.7537
G01 X3.4045 Y-1.7672
G01 X3.3091 Y-1.7911
G01 X3.2235 Y-1.8216
G01 X3.2098 Y-1.8273
G01 X3.1277 Y-1.8663
G01 X3.0496 Y-1.9128
G01 X3.0372 Y-1.9211
G01 X2.9644 Y-1.9754
G01 X2.8969 Y-2.0363
G01 X2.8864 Y-2.0468
G01 X2.8255 Y-2.1143
G01 X2.7712 Y-2.1872
G01 X2.7629 Y-2.1996
G01 X2.7200 Y-2.2711
G01 X2.7146 Y-2.2809
G01 X2.6743 Y-2.3665
G01 X2.6412 Y-2.4591
G01 X2.6173 Y-2.5545
G01 X2.6029 Y-2.6517
G01 X2.5981 Y-2.7499
G01 X2.6029 Y-2.8481
G01 X2.6173 Y-2.9454
G01 X2.6412 Y-3.0408
G01 X2.6743 Y-3.1334
G01 X2.7164 Y-3.2222
G01 X2.7669 Y-3.3066
G01 X2.8255 Y-3.3856
G01 X2.8915 Y-3.4584
G01 X2.9644 Y-3.5244
G01 X3.0433 Y-3.5830
G01 X3.1212 Y-3.6299
G01 X3.1310 Y-3.6353
G01 X3.2166 Y-3.6756
G01 X3.3091 Y-3.7087
G01 X3.4045 Y-3.7326
G01 X3.5018 Y-3.7471
G01 X3.6000 Y-3.7519
G01 X3.9037 Y-3.7518
G01 X3.9982 Y-3.7471
G01 X4.0955 Y-3.7326
G01 X4.1909 Y-3.7087
G01 X4.2834 Y-3.6756
G01 X4.3723 Y-3.6336
G01 X4.4567 Y-3.5830
G01 X4.5356 Y-3.5244
G01 X4.6085 Y-3.4584
G01 X4.6745 Y-3.3856
G01 X4.7288 Y-3.3127
G01 X4.7360 Y-3.3021
G00 Z1.0000
G00 X5.0089 Y-3.8491
G01 F60.00
G01 Z-0.0900
G01 F500.00
G01 X5.0272 Y-3.8609
G01 X5.0414 Y-3.8706
G01 X5.0750 Y-3.8953
G01 X5.1020 Y-3.9164
G01 X5.1151 Y-3.9274
G01 X5.1462 Y-3.9552
G01 X5.1710 Y-3.9789
G01 X5.1830 Y-3.9912
G01 X5.2112 Y-4.0219
G01 X5.2336 Y-4.0479
G01 X5.2443 Y-4.0613
G01 X5.2793 Y-4.1086
G01 X5.2890 Y-4.1227
G01 X5.3068 Y-4.1508
G01 X9.4432 Y-4.1508
G01 X9.4610 Y-4.1227
G01 X9.4707 Y-4.1086
G01 X9.5057 Y-4.0613
G01 X9.5275 Y-4.0348
G01 X9.5388 Y-4.0219
G01 X9.5670 Y-3.9912
G01 X9.5790 Y-3.9789
G01 X9.6038 Y-3.9552
G01 X9.6349 Y-3.9274
G01 X9.6480 Y-3.9164
G01 X9.6614 Y-3.9056
G01 X9.6947 Y-3.8806
G01 X9.7228 Y-3.8609
G01 X9.7404 Y-3.8496
G01 X5.0089 Y-3.8491
G00 Z1.0000
G00 X4.2561 Y-3.9745
G01 F60.00
G01 Z-0.0900
G01 F500.00
G01 X4.5104 Y-3.9746
G01 X4.5558 Y-3.9768
G01 X4.5766 Y-3.9789
G01 X4.6112 Y-3.9839
G01 X4.6318 Y-3.9874
G01 X4.6522 Y-3.9920
G01 X4.6759 Y-3.9980
G01 X4.6961 Y-4.0036
G01 X4.7159 Y-4.0101
G01 X4.7390 Y-4.0184
G01 X4.7585 Y-4.0259
G01 X4.7776 Y-4.0343
G01 X4.8091 Y-4.0494
G01 X4.8276 Y-4.0593
G01 X4.8665 Y-4.0826
G01 X4.8839 Y-4.0942
G01 X4.9204 Y-4.1213
G01 X4.9365 Y-4.1345
G01 X4.9701 Y-4.1650
G01 X4.9849 Y-4.1798
G01 X5.0154 Y-4.2134
G01 X5.0287 Y-4.2296
G01 X5.0557 Y-4.2660
G01 X5.0673 Y-4.2834
G01 X5.0907 Y-4.3224
G01 X5.1005 Y-4.3408
G01 X5.1199 Y-4.3818
G01 X5.1279 Y-4.4011
G01 X5.1363 Y-4.4243
G01 X9.6137 Y-4.4243
G01 X9.6221 Y-4.4011
G01 X9.6301 Y-4.3818
G01 X9.6495 Y-4.3408
G01 X9.6593 Y-4.3224
G01 X9.6827 Y-4.2834
G01 X9.6943 Y-4.2660
G01 X9.7213 Y-4.2296
G01 X9.7346 Y-4.2134
G01 X9.7651 Y-4.1798
G01 X9.7799 Y-4.1650
G01 X9.8135 Y-4.1345
G01 X9.8296 Y-4.1213
G01 X9.8661 Y-4.0942
G01 X9.8835 Y-4.0826
G01 X9.9224 Y-4.0593
G01 X9.9409 Y-4.0494
G01 X9.9724 Y-4.0343
G01 X9.9915 Y-4.0259
G01 X10.0110 Y-4.0184
G01 X10.0341 Y-4.0101
G01 X10.0539 Y-4.0036
G01 X10.0741 Y-3.9980
G01 X10.0978 Y-3.9920
G01 X10.1182 Y-3.9874
G01 X10.1388 Y-3.9839
G01 X10.1734 Y-3.9789
G01 X10.1942 Y-3.9768
G01 X10.2396 Y-3.9746
G01 X10.4939 Y-3.9745
G01 X10.4698 Y-3.9673
G01 X10.3814 Y-3.9358
G01 X10.3619 Y-3.9283
G01 X10.3428 Y-3.9198
G01 X10.2674 Y-3.8842
G01 X10.2488 Y-3.8748
G01 X10.2306 Y-3.8645
G01 X10.1501 Y-3.8161
G01 X10.1328 Y-3.8045
G01 X10.1243 Y-3.7984
G01 X10.0573 Y-3.7487
G01 X10.0409 Y-3.7359
G01 X10.0250 Y-3.7222
G01 X9.9632 Y-3.6662
G01 X9.9481 Y-3.6518
G01 X9.9337 Y-3.6367
G01 X9.8788 Y-3.5761
G01 X4.8716 Y-3.5756
G01 X4.8163 Y-3.6367
G01 X4.8019 Y-3.6518
G01 X4.7868 Y-3.6662
G01 X4.7250 Y-3.7222
G01 X4.7091 Y-3.7359
G01 X4.6927 Y-3.7487
G01 X4.6257 Y-3.7984
G01 X4.6086 Y-3.8104
G01 X4.5999 Y-3.8161
G01 X4.5194 Y-3.8645
G01 X4.5012 Y-3.8748
G01 X4.4826 Y-3.8842
G01 X4.4072 Y-3.9198
G01 X4.3881 Y-3.9283
G01 X4.3686 Y-3.9358
G01 X4.2802 Y-3.9673
G01 X4.2561 Y-3.9745
G00 Z1.0000
G00 X11.5061 Y-3.9745
G01 F60.00
G01 Z-0.0900
G01 F500.00
G01 X11.7604 Y-3.9746
G01 X11.8058 Y-3.9768
G01 X11.8266 Y-3.9789
G01 X11.8612 Y-3.9839
G01 X11.8818 Y-3.9874
G01 X11.9022 Y-3.9920
G01 X11.9259 Y-3.9980
G01 X11.9461 Y-4.0036
G01 X11.9659 Y-4.0101
G01 X11.9890 Y-4.0184
G01 X12.0085 Y-4.0259
G01 X12.0276 Y-4.0343
G01 X12.0591 Y-4.0494
G01 X12.0776 Y-4.0593
G01 X12.1165 Y-4.0826
G01 X12.1339 Y-4.0942
G01 X12.1704 Y-4.1213
G01 X12.1865 Y-4.1345
G01 X12.2201 Y-4.1650
G01 X12.2349 Y-4.1798
G01 X12.2654 Y-4.2134
G01 X12.2787 Y-4.2296
G01 X12.3057 Y-4.2660
G01 X12.3173 Y-4.2834
G01 X12.3407 Y-4.3224
G01 X12.3505 Y-4.3408
G01 X12.3699 Y-4.3818
G01 X12.3779 Y-4.4011
G01 X12.3863 Y-4.4243
G01 X16.8637 Y-4.4243
G01 X16.8721 Y-4.4011
G01 X16.8801 Y-4.3818
G01 X16.8995 Y-4.3408
G01 X16.9093 Y-4.3224
G01 X16.9327 Y-4.2834
G01 X16.9443 Y-4.2660
G01 X16.9713 Y-4.2296
G01 X16.9846 Y-4.2134
G01 X17.0151 Y-4.1798
G01 X17.0299 Y-4.1650
G01 X17.0635 Y-4.1345
G01 X17.0796 Y-4.1213
G01 X17.1161 Y-4.0942
G01 X17.1335 Y-4.0826
G01 X17.1724 Y-4.0593
G01 X17.1909 Y-4.0494
G01 X17.2224 Y-4.0343
G01 X17.2415 Y-4.0259
G01 X17.2610 Y-4.0184
G01 X17.2841 Y-4.0101
G01 X17.3039 Y-4.0036
G01 X17.3241 Y-3.9980
G01 X17.3478 Y-3.9920
G01 X17.3682 Y-3.9874
G01 X17.3888 Y-3.9839
G01 X17.4234 Y-3.9789
G01 X17.4442 Y-3.9768
G01 X17.4896 Y-3.9746
G01 X17.7439 Y-3.9745
G01 X17.7198 Y-3.9673
G01 X17.6314 Y-3.9358
G01 X17.6119 Y-3.9283
G01 X17.5928 Y-3.9198
G01 X17.5174 Y-3.8842
G01 X17.4988 Y-3.8748
G01 X17.4806 Y-3.8645
G01 X17.4001 Y-3.8161
G01 X17.3828 Y-3.8045
G01 X17.3743 Y-3.7984
G01 X17.3073 Y-3.7487
G01 X17.2909 Y-3.7359
G01 X17.2750 Y-3.7222
G01 X17.2132 Y-3.6662
G01 X17.1981 Y-3.6518
G01 X17.1837 Y-3.6367
G01 X17.1288 Y-3.5761
G01 X12.1216 Y-3.5756
G01 X12.0663 Y-3.6367
G01 X12.0519 Y-3.6518
G01 X12.0368 Y-3.6662
G01 X11.9750 Y-3.7222
G01 X11.9591 Y-3.7359
G01 X11.9427 Y-3.7487
G01 X11.8757 Y-3.7984
G01 X11.8586 Y-3.8104
G01 X11.8499 Y-3.8161
G01 X11.7694 Y-3.8645
G01 X11.7512 Y-3.8748
G01 X11.7326 Y-3.8842
G01 X11.6572 Y-3.9198
G01 X11.6381 Y-3.9283
G01 X11.6186 Y-3.9358
G01 X11.5302 Y-3.9673
G01 X11.5061 Y-3.9745
G00 Z1.0000
G00 X12.2589 Y-3.8491
G01 F60.00
G01 Z-0.0900
G01 F500.00
G01 X12.2772 Y-3.8609
G01 X12.2914 Y-3.8706
G01 X12.3250 Y-3.8953
G01 X12.3520 Y-3.9164
G01 X12.3651 Y-3.9274
G01 X12.3962 Y-3.9552
G01 X12.4210 Y-3.9789
G01 X12.4330 Y-3.9912
G01 X12.4612 Y-4.0219
G01 X12.4836 Y-4.0479
G01 X12.4943 Y-4.0613
G01 X12.5293 Y-4.1086
G01 X12.5390 Y-4.1227
G01 X12.5568 Y-4.1508
G01 X16.6932 Y-4.1508
G01 X16.7110 Y-4.1227
G01 X16.7207 Y-4.1086
G01 X16.7557 Y-4.0613
G01 X16.7775 Y-4.0348
G01 X16.7888 Y-4.0219
G01 X16.8170 Y-3.9912
G01 X16.8290 Y-3.9789
G01 X16.8538 Y-3.9552
G01 X16.8849 Y-3.9274
G01 X16.8980 Y-3.9164
G01 X16.9114 Y-3.9056
G01 X16.9447 Y-3.8806
G01 X16.9728 Y-3.8609
G01 X16.9904 Y-3.8496
G01 X12.2589 Y-3.8491
G00 Z1.0000
G00 X18.7561 Y-3.9745
G01 F60.00
G01 Z-0.0900
G01 F500.00
G01 X19.0104 Y-3.9746
G01 X19.0558 Y-3.9768
G01 X19.0766 Y-3.9789
G01 X19.1112 Y-3.9839
G01 X19.1318 Y-3.9874
G01 X19.1522 Y-3.9920
G01 X19.1759 Y-3.9980
G01 X19.1961 Y-4.0036
G01 X19.2159 Y-4.0101
G01 X19.2390 Y-4.0184
G01 X19.2585 Y-4.0259
G01 X19.2776 Y-4.0343
G01 X19.3091 Y-4.0494
G01 X19.3276 Y-4.0593
G01 X19.3665 Y-4.0826
G01 X19.3839 Y-4.0942
G01 X19.4204 Y-4.1213
G01 X19.4365 Y-4.1345
G01 X19.4701 Y-4.1650
G01 X19.4849 Y-4.1798
G01 X19.5154 Y-4.2134
G01 X19.5287 Y-4.2296
G01 X19.5557 Y-4.2660
G01 X19.5673 Y-4.2834
G01 X19.5907 Y-4.3224
G01 X19.6005 Y-4.3408
G01 X19.6199 Y-4.3818
G01 X19.6279 Y-4.4011
G01 X19.6363 Y-4.4243
G01 X22.0957 Y-4.4243
G01 X22.1262 Y-4.3909
G01 X22.1409 Y-4.3761
G01 X22.2146 Y-4.3094
G01 X22.2226 Y-4.3026
G01 X22.2390 Y-4.2898
G01 X22.3106 Y-4.2369
G01 X22.3279 Y-4.2253
G01 X22.3368 Y-4.2198
G01 X22.4042 Y-4.1795
G01 X22.4223 Y-4.1692
G01 X22.4410 Y-4.1598
G01 X22.5214 Y-4.1219
G01 X22.5407 Y-4.1139
G01 X22.5505 Y-4.1102
G01 X22.6244 Y-4.0838
G01 X22.6443 Y-4.0772
G01 X22.6644 Y-4.0717
G01 X22.7405 Y-4.0526
G01 X22.7609 Y-4.0480
G01 X22.7815 Y-4.0444
G01 X22.8592 Y-4.0329
G01 X22.8799 Y-4.0304
G01 X22.9007 Y-4.0288
G01 X22.9791 Y-4.0250
G01 X23.0000 Y-4.0245
G01 X23.0209 Y-4.0250
G01 X23.0993 Y-4.0288
G01 X23.1201 Y-4.0304
G01 X23.1408 Y-4.0329
G01 X23.2185 Y-4.0444
G01 X23.2391 Y-4.0480
G01 X23.2595 Y-4.0526
G01 X23.3356 Y-4.0717
G01 X23.3557 Y-4.0772
G01 X23.3756 Y-4.0838
G01 X23.4495 Y-4.1102
G01 X23.4690 Y-4.1177
G01 X23.4786 Y-4.1219
G01 X23.5590 Y-4.1598
G01 X23.5777 Y-4.1692
G01 X23.5958 Y-4.1795
G01 X23.6632 Y-4.2198
G01 X23.6721 Y-4.2253
G01 X23.6894 Y-4.2369
G01 X23.7610 Y-4.2898
G01 X23.7774 Y-4.3026
G01 X23.7854 Y-4.3094
G01 X23.8591 Y-4.3761
G01 X23.8738 Y-4.3909
G01 X23.9043 Y-4.4243
G01 X27.7033 Y-4.4243
G01 X27.7587 Y-4.3632
G01 X27.7731 Y-4.3480
G01 X27.7882 Y-4.3336
G01 X27.8500 Y-4.2776
G01 X27.8659 Y-4.2640
G01 X27.8823 Y-4.2511
G01 X27.9493 Y-4.2014
G01 X27.9578 Y-4.1953
G01 X27.9751 Y-4.1837
G01 X28.0556 Y-4.1354
G01 X28.0738 Y-4.1251
G01 X28.0924 Y-4.1157
G01 X28.1678 Y-4.0800
G01 X28.1869 Y-4.0716
G01 X28.2064 Y-4.0640
G01 X28.2948 Y-4.0325
G01 X28.3189 Y-4.0254
G01 X27.8250 Y-4.0254
G01 X27.8041 Y-4.0249
G01 X27.7937 Y-4.0242
G01 X27.7729 Y-4.0222
G01 X27.7523 Y-4.0191
G01 X27.7318 Y-4.0150
G01 X27.7115 Y-4.0100
G01 X27.6915 Y-4.0039
G01 X27.6719 Y-3.9969
G01 X27.6526 Y-3.9889
G01 X27.6337 Y-3.9800
G01 X27.6244 Y-3.9751
G01 X27.6063 Y-3.9649
G01 X27.5974 Y-3.9594
G01 X27.5800 Y-3.9478
G01 X27.5632 Y-3.9353
G01 X27.5551 Y-3.9288
G01 X27.5471 Y-3.9221
G01 X27.5316 Y-3.9081
G01 X27.5242 Y-3.9008
G01 X27.5098 Y-3.8856
G01 X27.5028 Y-3.8778
G01 X27.4896 Y-3.8617
G01 X27.4772 Y-3.8449
G01 X27.4712 Y-3.8363
G01 X27.4601 Y-3.8187
G01 X27.4548 Y-3.8096
G01 X27.4498 Y-3.8005
G01 X27.4404 Y-3.7818
G01 X27.4360 Y-3.7723
G01 X27.4280 Y-3.7530
G01 X27.4210 Y-3.7334
G01 X27.4179 Y-3.7234
G01 X27.4123 Y-3.7033
G01 X27.4099 Y-3.6931
G01 X27.4058 Y-3.6727
G01 X27.4027 Y-3.6520
G01 X27.4016 Y-3.6416
G01 X27.4007 Y-3.6312
G01 X27.3997 Y-3.6104
G01 X27.3995 Y-3.5756
G01 X19.3717 Y-3.5756
G01 X19.3163 Y-3.6367
G01 X19.3019 Y-3.6518
G01 X19.2868 Y-3.6662
G01 X19.2250 Y-3.7222
G01 X19.2091 Y-3.7359
G01 X19.1927 Y-3.7487
G01 X19.1257 Y-3.7984
G01 X19.1086 Y-3.8104
G01 X19.0999 Y-3.8161
G01 X19.0194 Y-3.8645
G01 X19.0012 Y-3.8748
G01 X18.9826 Y-3.8842
G01 X18.9072 Y-3.9198
G01 X18.8881 Y-3.9283
G01 X18.8686 Y-3.9358
G01 X18.7802 Y-3.9673
G01 X18.7561 Y-3.9745
G00 Z1.0000
G00 X19.5089 Y-3.8491
G01 F60.00
G01 Z-0.0900
G01 F500.00
G01 X19.5272 Y-3.8609
G01 X19.5414 Y-3.8706
G01 X19.5750 Y-3.8953
G01 X19.6020 Y-3.9164
G01 X19.6151 Y-3.9274
G01 X19.6462 Y-3.9552
G01 X19.6710 Y-3.9789
G01 X19.6830 Y-3.9912
G01 X19.7112 Y-4.0219
G01 X19.7225 Y-4.0348
G01 X19.7443 Y-4.0613
G01 X19.7793 Y-4.1086
G01 X19.7890 Y-4.1227
G01 X19.8068 Y-4.1508
G01 X21.9821 Y-4.1508
G01 X22.0359 Y-4.1023
G01 X22.0625 Y-4.0805
G01 X22.1392 Y-4.0233
G01 X22.1672 Y-4.0036
G01 X22.1816 Y-3.9942
G01 X22.2635 Y-3.9449
G01 X22.2784 Y-3.9362
G01 X22.3086 Y-3.9201
G01 X22.4106 Y-3.8718
G01 X22.4423 Y-3.8587
G01 X22.4685 Y-3.8491
G01 X19.5089 Y-3.8491
G00 Z1.0000
G00 X23.5315 Y-3.8491
G01 F60.00
G01 Z-0.0900
G01 F500.00
G01 X23.5577 Y-3.8587
G01 X23.5894 Y-3.8718
G01 X23.6914 Y-3.9201
G01 X23.7216 Y-3.9362
G01 X23.7365 Y-3.9449
G01 X23.8184 Y-3.9942
G01 X23.8328 Y-4.0036
G01 X23.8608 Y-4.0233
G01 X23.9375 Y-4.0805
G01 X23.9641 Y-4.1023
G01 X24.0179 Y-4.1508
G01 X27.3947 Y-4.1508
G01 X27.3685 Y-4.1292
G01 X27.3556 Y-4.1178
G01 X27.3430 Y-4.1062
G01 X27.3188 Y-4.0819
G01 X27.2957 Y-4.0565
G01 X27.2740 Y-4.0300
G01 X27.2636 Y-4.0163
G01 X27.2438 Y-3.9883
G01 X27.2345 Y-3.9739
G01 X27.2255 Y-3.9593
G01 X27.2086 Y-3.9294
G01 X27.1931 Y-3.8988
G01 X27.1860 Y-3.8832
G01 X27.1792 Y-3.8674
G01 X27.1720 Y-3.8491
G01 X23.5315 Y-3.8491
G00 Z1.0000
G00 X30.3463 Y-5.4991
G01 F60.00
G01 Z-0.0900
G01 F500.00
G01 X30.2029 Y-5.4991
G01 X30.1973 Y-5.5352
G01 X30.1907 Y-5.5689
G01 X30.1620 Y-5.6834
G01 X30.3463 Y-5.4991
G00 Z1.0000
G00 X27.8250 Y-9.7268
G01 F60.00
G01 Z-0.0900
G01 F500.00
G01 X29.5287 Y-9.7267
G01 X29.5399 Y-9.7260
G01 X29.5510 Y-9.7245
G01 X29.5619 Y-9.7222
G01 X29.5762 Y-9.7179
G01 X29.5900 Y-9.7122
G01 X29.5999 Y-9.7070
G01 X29.6094 Y-9.7012
G01 X29.6214 Y-9.6923
G01 X29.6324 Y-9.6823
G01 X29.6425 Y-9.6712
G01 X29.6513 Y-9.6592
G01 X29.6553 Y-9.6529
G01 X29.6607 Y-9.6431
G01 X29.6668 Y-9.6295
G01 X29.6714 Y-9.6153
G01 X29.6747 Y-9.6008
G01 X29.6762 Y-9.5897
G01 X29.6768 Y-9.5823
G01 X29.6769 Y-8.5037
G01 X31.4986 Y-6.6821
G01 X32.7505 Y-6.6821
G01 X32.7891 Y-6.7338
G01 X32.8467 Y-6.7977
G01 X32.8573 Y-6.8082
G01 X32.9154 Y-6.8609
G01 X32.9270 Y-6.8704
G01 X32.9961 Y-6.9214
G01 X33.0730 Y-6.9677
G01 X33.0829 Y-6.9728
G01 X33.1607 Y-7.0094
G01 X33.2487 Y-7.0409
G01 X33.3393 Y-7.0636
G01 X33.4317 Y-7.0773
G01 X33.5250 Y-7.0819
G01 X34.3250 Y-7.0819
G01 X34.4146 Y-7.0776
G01 X34.4257 Y-7.0764
G01 X34.5107 Y-7.0636
G01 X34.6013 Y-7.0409
G01 X34.6893 Y-7.0094
G01 X34.7671 Y-6.9728
G01 X34.7770 Y-6.9677
G01 X34.8539 Y-6.9214
G01 X34.9289 Y-6.8658
G01 X34.9981 Y-6.8031
G01 X35.0609 Y-6.7338
G01 X35.1165 Y-6.6588
G01 X35.1645 Y-6.5787
G01 X35.2045 Y-6.4942
G01 X35.2360 Y-6.4063
G01 X35.2587 Y-6.3156
G01 X35.2724 Y-6.2232
G01 X35.2769 Y-6.1299
G01 X35.2724 Y-6.0366
G01 X35.2587 Y-5.9442
G01 X35.2360 Y-5.8536
G01 X35.2045 Y-5.7656
G01 X35.1679 Y-5.6878
G01 X35.1627 Y-5.6779
G01 X35.1165 Y-5.6011
G01 X35.0655 Y-5.5319
G01 X35.0560 Y-5.5204
G01 X34.9981 Y-5.4568
G01 X34.9346 Y-5.3989
G01 X34.9230 Y-5.3895
G01 X34.8539 Y-5.3384
G01 X34.7802 Y-5.2941
G01 X34.7671 Y-5.2870
G01 X34.6893 Y-5.2504
G01 X34.6084 Y-5.2213
G01 X34.5941 Y-5.2170
G01 X34.5107 Y-5.1963
G01 X34.4257 Y-5.1835
G01 X34.4109 Y-5.1820
G01 X34.3250 Y-5.1780
G01 X33.5213 Y-5.1780
G01 X33.4391 Y-5.1820
G01 X33.4243 Y-5.1835
G01 X33.3393 Y-5.1963
G01 X33.2559 Y-5.2170
G01 X33.2416 Y-5.2213
G01 X33.1677 Y-5.2478
G01 X33.1539 Y-5.2535
G01 X33.0763 Y-5.2904
G01 X33.0024 Y-5.3344
G01 X32.9930 Y-5.3405
G01 X32.9211 Y-5.3941
G01 X32.8519 Y-5.4568
G01 X32.7891 Y-5.5260
G01 X32.7505 Y-5.5778
G01 X31.2624 Y-5.5780
G01 X31.2195 Y-5.5801
G01 X31.2084 Y-5.5813
G01 X31.1622 Y-5.5884
G01 X31.1168 Y-5.5996
G01 X31.1025 Y-5.6039
G01 X31.0586 Y-5.6198
G01 X31.0163 Y-5.6396
G01 X31.0063 Y-5.6448
G01 X30.9631 Y-5.6708
G01 X30.9255 Y-5.6985
G01 X30.9140 Y-5.7080
G01 X30.8795 Y-5.7395
G01 X28.8961 Y-7.7229
G01 X27.8175 Y-7.7230
G01 X27.8101 Y-7.7236
G01 X27.7990 Y-7.7251
G01 X27.7845 Y-7.7284
G01 X27.7773 Y-7.7305
G01 X27.7669 Y-7.7344
G01 X27.7534 Y-7.7408
G01 X27.7406 Y-7.7485
G01 X27.7286 Y-7.7574
G01 X27.7176 Y-7.7674
G01 X27.7099 Y-7.7756
G01 X27.7052 Y-7.7813
G01 X27.6987 Y-7.7904
G01 X27.6928 Y-7.7999
G01 X27.6876 Y-7.8098
G01 X27.6819 Y-7.8236
G01 X27.6776 Y-7.8379
G01 X27.6753 Y-7.8488
G01 X27.6738 Y-7.8599
G01 X27.6731 Y-7.8711
G01 X27.6731 Y-9.5748
G01 X27.6735 Y-9.5860
G01 X27.6753 Y-9.6008
G01 X27.6776 Y-9.6117
G01 X27.6819 Y-9.6260
G01 X27.6876 Y-9.6398
G01 X27.6947 Y-9.6529
G01 X27.7030 Y-9.6653
G01 X27.7124 Y-9.6769
G01 X27.7230 Y-9.6874
G01 X27.7345 Y-9.6969
G01 X27.7469 Y-9.7051
G01 X27.7567 Y-9.7105
G01 X27.7703 Y-9.7166
G01 X27.7845 Y-9.7213
G01 X27.7990 Y-9.7245
G01 X27.8138 Y-9.7264
G01 X27.8250 Y-9.7268
G00 Z1.0000
G00 X28.9349 Y-12.7511
G01 F60.00
G01 Z-0.0900
G01 F500.00
G01 X29.0672 Y-12.7512
G01 X29.1627 Y-12.7556
G01 X29.1969 Y-12.7582
G01 X29.2140 Y-12.7601
G01 X29.3086 Y-12.7739
G01 X29.3424 Y-12.7798
G01 X29.3759 Y-12.7873
G01 X29.4521 Y-12.8064
G01 X29.4851 Y-12.8155
G01 X29.5177 Y-12.8263
G01 X29.5916 Y-12.8527
G01 X29.6236 Y-12.8651
G01 X29.6550 Y-12.8790
G01 X29.7260 Y-12.9125
G01 X29.7414 Y-12.9201
G01 X29.7716 Y-12.9362
G01 X29.8684 Y-12.9942
G01 X29.8969 Y-13.0133
G01 X29.9108 Y-13.0233
G01 X29.9739 Y-13.0701
G01 X30.0009 Y-13.0912
G01 X30.0269 Y-13.1136
G01 X30.0679 Y-13.1508
G01 X30.2486 Y-13.1508
G01 X29.5792 Y-12.4814
G01 X29.5497 Y-12.5030
G01 X29.5212 Y-12.5221
G01 X29.4202 Y-12.5826
G01 X29.4052 Y-12.5909
G01 X29.3745 Y-12.6063
G01 X29.2991 Y-12.6420
G01 X29.2678 Y-12.6559
G01 X29.2358 Y-12.6682
G01 X29.1572 Y-12.6963
G01 X29.1246 Y-12.7071
G01 X29.1082 Y-12.7119
G01 X28.9940 Y-12.7405
G01 X28.9603 Y-12.7472
G01 X28.9349 Y-12.7511
G00 Z1.0000
G00 X28.9500 Y-15.2019
G01 F60.00
G01 Z-0.0900
G01 F500.00
G01 X29.0537 Y-15.2018
G01 X29.1359 Y-15.1978
G01 X29.1507 Y-15.1964
G01 X29.2284 Y-15.1849
G01 X29.2430 Y-15.1819
G01 X29.3263 Y-15.1609
G01 X29.4073 Y-15.1321
G01 X29.4177 Y-15.1279
G01 X29.4987 Y-15.0895
G01 X29.5726 Y-15.0454
G01 X29.5850 Y-15.0371
G01 X29.6539 Y-14.9858
G01 X29.7177 Y-14.9282
G01 X29.7283 Y-14.9177
G01 X29.7859 Y-14.8538
G01 X29.8245 Y-14.8021
G01 X30.7663 Y-14.8021
G01 X32.2872 Y-16.3230
G01 X32.3247 Y-16.3567
G01 X32.3682 Y-16.3890
G01 X32.4147 Y-16.4169
G01 X32.4603 Y-16.4386
G01 X32.4707 Y-16.4427
G01 X32.5147 Y-16.4583
G01 X32.5673 Y-16.4715
G01 X32.6209 Y-16.4794
G01 X32.6750 Y-16.4821
G01 X34.4287 Y-16.4820
G01 X34.4791 Y-16.4794
G01 X34.5254 Y-16.4727
G01 X34.5400 Y-16.4698
G01 X34.5853 Y-16.4583
G01 X34.6363 Y-16.4400
G01 X34.6786 Y-16.4202
G01 X34.6918 Y-16.4132
G01 X34.7318 Y-16.3890
G01 X34.7694 Y-16.3613
G01 X34.7809 Y-16.3519
G01 X34.8128 Y-16.3230
G01 X36.3154 Y-14.8204
G01 X36.3469 Y-14.7859
G01 X36.3564 Y-14.7743
G01 X36.3841 Y-14.7367
G01 X36.4120 Y-14.6902
G01 X36.4351 Y-14.6412
G01 X36.4510 Y-14.5973
G01 X36.4554 Y-14.5830
G01 X36.4665 Y-14.5376
G01 X36.4736 Y-14.4914
G01 X36.4750 Y-14.4766
G01 X36.4771 Y-14.4337
G01 X36.4771 Y-13.0835
G01 X36.4745 Y-13.0331
G01 X36.4678 Y-12.9868
G01 X36.4649 Y-12.9722
G01 X36.4534 Y-12.9269
G01 X36.4351 Y-12.8759
G01 X36.4153 Y-12.8336
G01 X36.4083 Y-12.8204
G01 X36.3841 Y-12.7804
G01 X36.3564 Y-12.7428
G01 X36.3469 Y-12.7313
G01 X36.3180 Y-12.6994
G01 X35.2009 Y-11.5822
G01 X35.2072 Y-11.5673
G01 X35.2336 Y-11.4933
G01 X35.2379 Y-11.4791
G01 X35.2587 Y-11.3956
G01 X35.2724 Y-11.3032
G01 X35.2769 Y-11.2099
G01 X35.2729 Y-11.1241
G01 X35.2715 Y-11.1092
G01 X35.2599 Y-11.0316
G01 X35.2570 Y-11.0169
G01 X35.2360 Y-10.9336
G01 X35.2045 Y-10.8456
G01 X35.1645 Y-10.7612
G01 X35.1205 Y-10.6874
G01 X35.1122 Y-10.6750
G01 X35.0655 Y-10.6119
G01 X35.0560 Y-10.6004
G01 X34.9981 Y-10.5368
G01 X34.9289 Y-10.4741
G01 X34.8539 Y-10.4184
G01 X34.7802 Y-10.3741
G01 X34.7671 Y-10.3670
G01 X34.6893 Y-10.3304
G01 X34.6084 Y-10.3013
G01 X34.5941 Y-10.2970
G01 X34.5107 Y-10.2763
G01 X34.4183 Y-10.2626
G01 X34.3250 Y-10.2580
G01 X33.5213 Y-10.2580
G01 X33.4317 Y-10.2626
G01 X33.3466 Y-10.2750
G01 X33.3320 Y-10.2779
G01 X33.2487 Y-10.2990
G01 X33.1607 Y-10.3304
G01 X33.0763 Y-10.3704
G01 X32.9961 Y-10.4184
G01 X32.9270 Y-10.4695
G01 X32.9154 Y-10.4789
G01 X32.8519 Y-10.5368
G01 X32.7940 Y-10.6004
G01 X32.7845 Y-10.6119
G01 X32.7378 Y-10.6750
G01 X32.7295 Y-10.6874
G01 X32.6855 Y-10.7612
G01 X32.6455 Y-10.8456
G01 X32.6140 Y-10.9336
G01 X32.5913 Y-11.0242
G01 X32.5776 Y-11.1166
G01 X32.5732 Y-11.2025
G01 X32.5732 Y-11.2174
G01 X32.5776 Y-11.3032
G01 X32.5901 Y-11.3883
G01 X32.5930 Y-11.4029
G01 X32.6121 Y-11.4791
G01 X32.6164 Y-11.4933
G01 X32.6455 Y-11.5742
G01 X32.6855 Y-11.6587
G01 X32.7335 Y-11.7388
G01 X32.7891 Y-11.8138
G01 X32.8519 Y-11.8831
G01 X32.9211 Y-11.9458
G01 X32.9961 Y-12.0014
G01 X33.0763 Y-12.0495
G01 X33.1607 Y-12.0894
G01 X33.2451 Y-12.1198
G01 X33.2559 Y-12.1229
G01 X33.3320 Y-12.1419
G01 X33.3466 Y-12.1449
G01 X33.4317 Y-12.1573
G01 X33.5175 Y-12.1617
G01 X34.2188 Y-12.1619
G01 X35.3729 Y-13.3159
G01 X35.3728 Y-14.2012
G01 X34.1963 Y-15.3778
G01 X32.9037 Y-15.3778
G01 X31.3854 Y-13.8595
G01 X31.3453 Y-13.8231
G01 X31.3079 Y-13.7951
G01 X31.2955 Y-13.7868
G01 X31.2618 Y-13.7666
G01 X31.2520 Y-13.7613
G01 X31.2063 Y-13.7398
G01 X31.1624 Y-13.7239
G01 X31.1481 Y-13.7196
G01 X31.1027 Y-13.7084
G01 X31.0565 Y-13.7013
G01 X31.0454 Y-13.7001
G01 X31.0025 Y-13.6980
G01 X29.8245 Y-13.6978
G01 X29.7859 Y-13.6460
G01 X29.7257 Y-13.5795
G01 X29.7177 Y-13.5717
G01 X29.6596 Y-13.5189
G01 X29.6510 Y-13.5117
G01 X29.5789 Y-13.4584
G01 X29.5052 Y-13.4141
G01 X29.4921 Y-13.4070
G01 X29.4211 Y-13.3735
G01 X29.4073 Y-13.3678
G01 X29.3263 Y-13.3390
G01 X29.2430 Y-13.3179
G01 X29.2284 Y-13.3150
G01 X29.1507 Y-13.3035
G01 X29.1396 Y-13.3022
G01 X29.0537 Y-13.2980
G01 X28.9463 Y-13.2980
G01 X28.8567 Y-13.3026
G01 X28.7716 Y-13.3150
G01 X28.7570 Y-13.3179
G01 X28.6809 Y-13.3370
G01 X28.6666 Y-13.3413
G01 X28.5857 Y-13.3704
G01 X28.5079 Y-13.4070
G01 X28.4948 Y-13.4141
G01 X28.4211 Y-13.4584
G01 X28.3461 Y-13.5141
G01 X28.2769 Y-13.5768
G01 X28.2190 Y-13.6404
G01 X28.2095 Y-13.6519
G01 X28.1585 Y-13.7211
G01 X28.1105 Y-13.8012
G01 X28.0705 Y-13.8856
G01 X28.0390 Y-13.9736
G01 X28.0163 Y-14.0642
G01 X28.0026 Y-14.1566
G01 X27.9981 Y-14.2499
G01 X28.0026 Y-14.3432
G01 X28.0163 Y-14.4356
G01 X28.0390 Y-14.5263
G01 X28.0705 Y-14.6142
G01 X28.1105 Y-14.6987
G01 X28.1585 Y-14.7788
G01 X28.2141 Y-14.8538
G01 X28.2769 Y-14.9231
G01 X28.3404 Y-14.9809
G01 X28.3520 Y-14.9904
G01 X28.4211 Y-15.0414
G01 X28.4948 Y-15.0858
G01 X28.5079 Y-15.0928
G01 X28.5789 Y-15.1264
G01 X28.5927 Y-15.1321
G01 X28.6737 Y-15.1609
G01 X28.7643 Y-15.1836
G01 X28.8567 Y-15.1973
G01 X28.9500 Y-15.2019
G00 Z1.0000
G00 X32.4883 Y-14.5756
G01 F60.00
G01 Z-0.0900
G01 F500.00
G01 X33.0170 Y-15.1043
G01 X34.0830 Y-15.1043
G01 X34.2119 Y-14.9754
G01 X33.5146 Y-14.9753
G01 X33.4257 Y-14.9710
G01 X33.4049 Y-14.9695
G01 X33.3842 Y-14.9669
G01 X33.3065 Y-14.9554
G01 X33.2962 Y-14.9537
G01 X33.2757 Y-14.9497
G01 X33.1894 Y-14.9282
G01 X33.1693 Y-14.9226
G01 X33.1494 Y-14.9161
G01 X33.0755 Y-14.8896
G01 X33.0560 Y-14.8821
G01 X33.0369 Y-14.8736
G01 X32.9660 Y-14.8401
G01 X32.9473 Y-14.8307
G01 X32.9382 Y-14.8256
G01 X32.8618 Y-14.7800
G01 X32.8442 Y-14.7689
G01 X32.8271 Y-14.7568
G01 X32.7557 Y-14.7037
G01 X32.7396 Y-14.6905
G01 X32.7318 Y-14.6836
G01 X32.6659 Y-14.6237
G01 X32.6512 Y-14.6090
G01 X32.6207 Y-14.5756
G01 X32.4883 Y-14.5756
G00 Z1.0000
G00 X32.7300 Y-12.4799
G01 F60.00
G01 Z-0.0900
G01 F500.00
G01 X32.7066 Y-12.4656
G01 X32.6781 Y-12.4466
G01 X32.6011 Y-12.3898
G01 X32.5806 Y-12.3739
G01 X32.7032 Y-12.4964
G01 X32.7300 Y-12.4799
G00 Z1.0000
G00 X32.3610 Y-12.1543
G01 F60.00
G01 Z-0.0900
G01 F500.00
G01 X32.3452 Y-12.1338
G01 X32.2984 Y-12.0708
G01 X32.2787 Y-12.0427
G01 X32.2603 Y-12.0137
G01 X32.2199 Y-11.9464
G01 X32.2030 Y-11.9165
G01 X32.1951 Y-11.9013
G01 X32.1540 Y-11.8149
G01 X32.1469 Y-11.7993
G01 X32.1338 Y-11.7676
G01 X32.0958 Y-11.6614
G01 X32.0906 Y-11.6451
G01 X32.0814 Y-11.6120
G01 X32.0584 Y-11.5191
G01 X32.0517 Y-11.4855
G01 X32.0490 Y-11.4686
G01 X32.0374 Y-11.3909
G01 X32.0332 Y-11.3569
G01 X32.0307 Y-11.3226
G01 X32.0269 Y-11.2442
G01 X32.0260 Y-11.2099
G01 X32.0262 Y-11.1928
G01 X32.0318 Y-11.0801
G01 X32.0332 Y-11.0630
G01 X32.0374 Y-11.0290
G01 X32.0517 Y-10.9344
G01 X32.0584 Y-10.9007
G01 X32.0623 Y-10.8840
G01 X32.0814 Y-10.8079
G01 X32.0906 Y-10.7748
G01 X32.1013 Y-10.7422
G01 X32.1278 Y-10.6683
G01 X32.1401 Y-10.6363
G01 X32.1540 Y-10.6049
G01 X32.1876 Y-10.5340
G01 X32.2030 Y-10.5033
G01 X32.2199 Y-10.4735
G01 X32.2603 Y-10.4061
G01 X32.2787 Y-10.3771
G01 X32.2984 Y-10.3491
G01 X32.3452 Y-10.2860
G01 X32.3663 Y-10.2590
G01 X32.3887 Y-10.2330
G01 X32.4414 Y-10.1748
G01 X32.4651 Y-10.1500
G01 X32.4773 Y-10.1380
G01 X32.5481 Y-10.0736
G01 X32.5741 Y-10.0512
G01 X32.5875 Y-10.0405
G01 X32.6781 Y-9.9733
G01 X32.7066 Y-9.9542
G01 X32.7300 Y-9.9399
G01 X32.7066 Y-9.9256
G01 X32.6781 Y-9.9066
G01 X32.6011 Y-9.8498
G01 X32.5741 Y-9.8286
G01 X32.5481 Y-9.8062
G01 X32.4773 Y-9.7418
G01 X32.4651 Y-9.7299
G01 X32.4414 Y-9.7050
G01 X32.3887 Y-9.6468
G01 X32.3663 Y-9.6209
G01 X32.3452 Y-9.5938
G01 X32.2884 Y-9.5169
G01 X32.2693 Y-9.4883
G01 X32.2199 Y-9.4064
G01 X32.2113 Y-9.3916
G01 X32.1951 Y-9.3613
G01 X32.1540 Y-9.2749
G01 X32.1401 Y-9.2436
G01 X32.1278 Y-9.2115
G01 X32.1013 Y-9.1376
G01 X32.0958 Y-9.1214
G01 X32.0858 Y-9.0886
G01 X32.0623 Y-8.9958
G01 X32.0548 Y-8.9624
G01 X32.0490 Y-8.9286
G01 X32.0351 Y-8.8339
G01 X32.0318 Y-8.7998
G01 X32.0307 Y-8.7826
G01 X32.0269 Y-8.7042
G01 X32.0260 Y-8.6699
G01 X32.0269 Y-8.6356
G01 X32.0318 Y-8.5401
G01 X32.0332 Y-8.5230
G01 X32.0374 Y-8.4890
G01 X32.0490 Y-8.4113
G01 X32.0548 Y-8.3775
G01 X32.0623 Y-8.3440
G01 X32.0814 Y-8.2679
G01 X32.0906 Y-8.2348
G01 X32.0958 Y-8.2184
G01 X32.1338 Y-8.1122
G01 X32.1469 Y-8.0805
G01 X32.1540 Y-8.0649
G01 X32.1876 Y-7.9940
G01 X32.2030 Y-7.9633
G01 X32.2199 Y-7.9335
G01 X32.2603 Y-7.8661
G01 X32.2693 Y-7.8515
G01 X32.2884 Y-7.8230
G01 X32.3556 Y-7.7324
G01 X32.3773 Y-7.7059
G01 X32.3887 Y-7.6930
G01 X32.4414 Y-7.6348
G01 X32.4651 Y-7.6100
G01 X32.4899 Y-7.5863
G01 X32.5481 Y-7.5336
G01 X32.5741 Y-7.5112
G01 X32.5875 Y-7.5005
G01 X32.6781 Y-7.4333
G01 X32.7066 Y-7.4142
G01 X32.7300 Y-7.3999
G01 X32.7066 Y-7.3856
G01 X32.6781 Y-7.3666
G01 X32.5875 Y-7.2994
G01 X32.5609 Y-7.2776
G01 X32.5071 Y-7.2291
G01 X31.7252 Y-7.2291
G01 X30.2240 Y-8.7303
G01 X30.2238 Y-9.5920
G01 X30.2221 Y-9.6262
G01 X30.2187 Y-9.6604
G01 X30.2164 Y-9.6774
G01 X30.2105 Y-9.7112
G01 X30.2030 Y-9.7446
G01 X30.1939 Y-9.7777
G01 X30.1831 Y-9.8103
G01 X30.1708 Y-9.8423
G01 X30.1569 Y-9.8737
G01 X30.1414 Y-9.9043
G01 X30.1332 Y-9.9193
G01 X30.1155 Y-9.9488
G01 X30.0965 Y-9.9773
G01 X30.0760 Y-10.0048
G01 X30.0653 Y-10.0182
G01 X30.0429 Y-10.0442
G01 X30.0192 Y-10.0691
G01 X29.9944 Y-10.0927
G01 X29.9684 Y-10.1151
G01 X29.9516 Y-10.1285
G01 X29.9848 Y-10.1309
G01 X30.0189 Y-10.1351
G01 X30.0747 Y-10.1436
G01 X30.1083 Y-10.1503
G01 X30.1631 Y-10.1638
G01 X30.1962 Y-10.1730
G01 X30.2287 Y-10.1837
G01 X30.2818 Y-10.2029
G01 X30.3135 Y-10.2161
G01 X30.3646 Y-10.2400
G01 X30.3952 Y-10.2554
G01 X30.4251 Y-10.2723
G01 X30.4734 Y-10.3015
G01 X30.5019 Y-10.3206
G01 X30.5473 Y-10.3540
G01 X30.5744 Y-10.3751
G01 X30.6004 Y-10.3976
G01 X30.6295 Y-10.4239
G01 X30.6543 Y-10.4476
G01 X32.3610 Y-12.1543
G00 Z1.0000
G00 X35.7886 Y-10.8880
G01 F60.00
G01 Z-0.0900
G01 F500.00
G01 X35.7952 Y-10.9175
G01 X35.7983 Y-10.9344
G01 X35.8149 Y-11.0460
G01 X35.8182 Y-11.0801
G01 X35.8231 Y-11.1756
G01 X35.8240 Y-11.2099
G01 X35.8238 Y-11.2271
G01 X35.8193 Y-11.3226
G01 X35.8182 Y-11.3398
G01 X35.8149 Y-11.3739
G01 X35.8088 Y-11.4165
G01 X36.0258 Y-11.6336
G01 X36.0258 Y-11.1252
G01 X35.7886 Y-10.8880
G00 Z1.0000
G00 X40.3707 Y-9.6197
G01 F60.00
G01 Z-0.0900
G01 F500.00
G01 X40.3707 Y-10.2602
G01 X40.3840 Y-10.2498
G01 X40.4471 Y-10.2030
G01 X40.4642 Y-10.1910
G01 X40.4818 Y-10.1798
G01 X40.5492 Y-10.1395
G01 X40.5673 Y-10.1292
G01 X40.5860 Y-10.1198
G01 X40.6569 Y-10.0862
G01 X40.6760 Y-10.0777
G01 X40.6955 Y-10.0702
G01 X40.7694 Y-10.0438
G01 X40.7893 Y-10.0372
G01 X40.8094 Y-10.0317
G01 X40.8855 Y-10.0126
G01 X40.8957 Y-10.0102
G01 X40.9162 Y-10.0061
G01 X41.0042 Y-9.9929
G01 X41.0249 Y-9.9904
G01 X41.0457 Y-9.9888
G01 X41.1346 Y-9.9846
G01 X41.9554 Y-9.9846
G01 X42.0443 Y-9.9888
G01 X42.0651 Y-9.9904
G01 X42.0858 Y-9.9929
G01 X42.1635 Y-10.0044
G01 X42.1738 Y-10.0061
G01 X42.1943 Y-10.0102
G01 X42.2806 Y-10.0317
G01 X42.3007 Y-10.0372
G01 X42.3107 Y-10.0404
G01 X42.4043 Y-10.0739
G01 X42.4140 Y-10.0777
G01 X42.4331 Y-10.0862
G01 X42.5134 Y-10.1244
G01 X42.5227 Y-10.1292
G01 X42.5408 Y-10.1395
G01 X42.6082 Y-10.1798
G01 X42.6258 Y-10.1910
G01 X42.6429 Y-10.2030
G01 X42.7060 Y-10.2498
G01 X42.7143 Y-10.2561
G01 X42.7304 Y-10.2694
G01 X42.8041 Y-10.3361
G01 X42.8188 Y-10.3509
G01 X42.8259 Y-10.3585
G01 X42.8854 Y-10.4243
G01 X45.1283 Y-10.4243
G01 X45.1837 Y-10.3632
G01 X45.1981 Y-10.3480
G01 X45.2132 Y-10.3336
G01 X45.2750 Y-10.2776
G01 X45.2909 Y-10.2640
G01 X45.3073 Y-10.2511
G01 X45.3743 Y-10.2014
G01 X45.3828 Y-10.1953
G01 X45.4001 Y-10.1837
G01 X45.4806 Y-10.1354
G01 X45.4988 Y-10.1251
G01 X45.5174 Y-10.1157
G01 X45.5928 Y-10.0800
G01 X45.6119 Y-10.0716
G01 X45.6314 Y-10.0640
G01 X45.7198 Y-10.0325
G01 X45.7439 Y-10.0254
G01 X45.5000 Y-10.0254
G01 X45.4791 Y-10.0249
G01 X45.4442 Y-10.0230
G01 X45.4338 Y-10.0221
G01 X45.4131 Y-10.0196
G01 X45.3888 Y-10.0160
G01 X45.3682 Y-10.0124
G01 X45.3478 Y-10.0078
G01 X45.3241 Y-10.0019
G01 X45.3140 Y-9.9992
G01 X45.2940 Y-9.9931
G01 X45.2610 Y-9.9815
G01 X45.2415 Y-9.9740
G01 X45.2224 Y-9.9655
G01 X45.1909 Y-9.9504
G01 X45.1724 Y-9.9406
G01 X45.1424 Y-9.9227
G01 X45.1335 Y-9.9172
G01 X45.1161 Y-9.9056
G01 X45.0880 Y-9.8849
G01 X45.0715 Y-9.8721
G01 X45.0557 Y-9.8584
G01 X45.0299 Y-9.8348
G01 X45.0151 Y-9.8201
G01 X45.0080 Y-9.8124
G01 X44.9846 Y-9.7864
G01 X44.9713 Y-9.7703
G01 X44.9504 Y-9.7423
G01 X44.9384 Y-9.7252
G01 X44.9272 Y-9.7075
G01 X44.9146 Y-9.6865
G01 X44.9043 Y-9.6683
G01 X44.8995 Y-9.6591
G01 X44.8844 Y-9.6275
G01 X44.8760 Y-9.6084
G01 X44.8684 Y-9.5889
G01 X44.8568 Y-9.5560
G01 X44.8536 Y-9.5460
G01 X44.8481 Y-9.5259
G01 X44.8421 Y-9.5021
G01 X44.8375 Y-9.4817
G01 X44.8339 Y-9.4611
G01 X44.8289 Y-9.4265
G01 X44.8269 Y-9.4057
G01 X44.8263 Y-9.3953
G01 X44.8251 Y-9.3708
G01 X44.8245 Y-9.3499
G01 X44.8245 Y-8.4921
G01 X43.2880 Y-6.9556
G01 X43.1697 Y-6.9556
G01 X43.1684 Y-6.9716
G01 X43.1659 Y-6.9924
G01 X43.1623 Y-7.0129
G01 X43.1601 Y-7.0231
G01 X43.1550 Y-7.0434
G01 X43.1490 Y-7.0634
G01 X43.1456 Y-7.0733
G01 X43.1381 Y-7.0927
G01 X43.1296 Y-7.1118
G01 X43.1202 Y-7.1305
G01 X43.1099 Y-7.1487
G01 X43.1045 Y-7.1575
G01 X43.0928 Y-7.1749
G01 X43.0867 Y-7.1834
G01 X43.0739 Y-7.1998
G01 X43.0602 Y-7.2156
G01 X43.0458 Y-7.2308
G01 X43.0384 Y-7.2381
G01 X43.0229 Y-7.2521
G01 X43.0068 Y-7.2653
G01 X42.9984 Y-7.2717
G01 X42.9814 Y-7.2837
G01 X42.9637 Y-7.2949
G01 X42.9456 Y-7.3051
G01 X42.9269 Y-7.3145
G01 X42.9078 Y-7.3230
G01 X42.8981 Y-7.3269
G01 X42.8785 Y-7.3339
G01 X42.8685 Y-7.3371
G01 X42.8484 Y-7.3426
G01 X42.8280 Y-7.3472
G01 X42.8074 Y-7.3508
G01 X42.7867 Y-7.3533
G01 X42.7763 Y-7.3542
G01 X42.7659 Y-7.3549
G01 X42.7450 Y-7.3554
G01 X40.7152 Y-7.3554
G01 X40.8430 Y-7.4832
G01 X40.8957 Y-7.4702
G01 X40.9162 Y-7.4661
G01 X41.0145 Y-7.4515
G01 X41.0353 Y-7.4495
G01 X41.0457 Y-7.4488
G01 X41.1241 Y-7.4450
G01 X41.1450 Y-7.4445
G01 X41.9554 Y-7.4446
G01 X42.0443 Y-7.4488
G01 X42.0651 Y-7.4504
G01 X42.0858 Y-7.4529
G01 X42.1635 Y-7.4644
G01 X42.1738 Y-7.4661
G01 X42.1943 Y-7.4702
G01 X42.2806 Y-7.4917
G01 X42.3007 Y-7.4972
G01 X42.3206 Y-7.5038
G01 X42.3945 Y-7.5302
G01 X42.4140 Y-7.5377
G01 X42.4331 Y-7.5462
G01 X42.5040 Y-7.5798
G01 X42.5227 Y-7.5892
G01 X42.5408 Y-7.5995
G01 X42.6082 Y-7.6398
G01 X42.6258 Y-7.6510
G01 X42.6429 Y-7.6630
G01 X42.7060 Y-7.7098
G01 X42.7224 Y-7.7226
G01 X42.7382 Y-7.7363
G01 X42.7964 Y-7.7890
G01 X42.8041 Y-7.7961
G01 X42.8188 Y-7.8109
G01 X42.8787 Y-7.8767
G01 X42.8923 Y-7.8925
G01 X42.9051 Y-7.9090
G01 X42.9519 Y-7.9720
G01 X42.9639 Y-7.9891
G01 X42.9751 Y-8.0067
G01 X43.0155 Y-8.0741
G01 X43.0258 Y-8.0922
G01 X43.0351 Y-8.1109
G01 X43.0687 Y-8.1819
G01 X43.0772 Y-8.2010
G01 X43.0847 Y-8.2204
G01 X43.1111 Y-8.2944
G01 X43.1177 Y-8.3142
G01 X43.1233 Y-8.3343
G01 X43.1423 Y-8.4105
G01 X43.1469 Y-8.4309
G01 X43.1505 Y-8.4514
G01 X43.1620 Y-8.5291
G01 X43.1646 Y-8.5498
G01 X43.1661 Y-8.5706
G01 X43.1699 Y-8.6490
G01 X43.1705 Y-8.6699
G01 X43.1703 Y-8.6804
G01 X43.1661 Y-8.7692
G01 X43.1646 Y-8.7900
G01 X43.1620 Y-8.8108
G01 X43.1505 Y-8.8884
G01 X43.1469 Y-8.9090
G01 X43.1423 Y-8.9294
G01 X43.1233 Y-9.0055
G01 X43.1177 Y-9.0257
G01 X43.1111 Y-9.0455
G01 X43.0847 Y-9.1194
G01 X43.0772 Y-9.1389
G01 X43.0731 Y-9.1485
G01 X43.0351 Y-9.2290
G01 X43.0258 Y-9.2476
G01 X43.0155 Y-9.2658
G01 X42.9751 Y-9.3331
G01 X42.9639 Y-9.3508
G01 X42.9580 Y-9.3594
G01 X42.9051 Y-9.4309
G01 X42.8988 Y-9.4392
G01 X42.8856 Y-9.4553
G01 X42.8188 Y-9.5290
G01 X42.8115 Y-9.5365
G01 X42.7964 Y-9.5509
G01 X42.7382 Y-9.6036
G01 X42.7224 Y-9.6172
G01 X42.7060 Y-9.6301
G01 X42.6429 Y-9.6768
G01 X42.6258 Y-9.6889
G01 X42.6082 Y-9.7000
G01 X42.5408 Y-9.7404
G01 X42.5227 Y-9.7507
G01 X42.5040 Y-9.7601
G01 X42.4331 Y-9.7936
G01 X42.4140 Y-9.8021
G01 X42.3945 Y-9.8096
G01 X42.3206 Y-9.8361
G01 X42.3007 Y-9.8426
G01 X42.2806 Y-9.8482
G01 X42.2045 Y-9.8673
G01 X42.1841 Y-9.8718
G01 X42.1635 Y-9.8754
G01 X42.0858 Y-9.8869
G01 X42.0651 Y-9.8895
G01 X42.0443 Y-9.8910
G01 X41.9554 Y-9.8953
G01 X41.1346 Y-9.8953
G01 X41.0457 Y-9.8910
G01 X41.0249 Y-9.8895
G01 X41.0042 Y-9.8869
G01 X40.9162 Y-9.8737
G01 X40.9059 Y-9.8718
G01 X40.8855 Y-9.8673
G01 X40.8094 Y-9.8482
G01 X40.7893 Y-9.8426
G01 X40.7694 Y-9.8361
G01 X40.6955 Y-9.8096
G01 X40.6760 Y-9.8021
G01 X40.6569 Y-9.7936
G01 X40.5860 Y-9.7601
G01 X40.5673 Y-9.7507
G01 X40.5492 Y-9.7404
G01 X40.4818 Y-9.7000
G01 X40.4642 Y-9.6889
G01 X40.4471 Y-9.6768
G01 X40.3840 Y-9.6301
G01 X40.3707 Y-9.6197
G00 Z1.0000
G00 X42.7400 Y-9.9399
G01 F60.00
G01 Z-0.0900
G01 F500.00
G01 X42.7634 Y-9.9542
G01 X42.7919 Y-9.9733
G01 X42.8825 Y-10.0405
G01 X42.9091 Y-10.0623
G01 X42.9219 Y-10.0736
G01 X42.9801 Y-10.1263
G01 X43.0057 Y-10.1508
G01 X44.9911 Y-10.1508
G01 X44.9728 Y-10.1390
G01 X44.9586 Y-10.1293
G01 X44.9114 Y-10.0942
G01 X44.8849 Y-10.0724
G01 X44.8538 Y-10.0446
G01 X44.8290 Y-10.0209
G01 X44.8053 Y-9.9961
G01 X44.7775 Y-9.9651
G01 X44.7557 Y-9.9386
G01 X44.7453 Y-9.9249
G01 X44.7207 Y-9.8913
G01 X44.7016 Y-9.8628
G01 X44.6714 Y-9.8123
G01 X44.6552 Y-9.7820
G01 X44.6300 Y-9.7288
G01 X44.6169 Y-9.6972
G01 X44.5971 Y-9.6418
G01 X44.5871 Y-9.6089
G01 X44.5768 Y-9.5685
G01 X44.5693 Y-9.5351
G01 X44.5661 Y-9.5182
G01 X44.5598 Y-9.4770
G01 X44.5556 Y-9.4429
G01 X44.5541 Y-9.4258
G01 X44.5512 Y-9.3671
G01 X44.5510 Y-8.6054
G01 X43.3002 Y-7.3545
G01 X43.2853 Y-7.3733
G01 X43.2743 Y-7.3865
G01 X43.2512 Y-7.4119
G01 X43.2392 Y-7.4242
G01 X43.2144 Y-7.4478
G01 X43.2015 Y-7.4592
G01 X43.1750 Y-7.4810
G01 X43.1614 Y-7.4913
G01 X43.1475 Y-7.5014
G01 X43.1189 Y-7.5205
G01 X43.0895 Y-7.5381
G01 X43.0745 Y-7.5464
G01 X43.0438 Y-7.5618
G01 X43.0283 Y-7.5689
G01 X43.0125 Y-7.5757
G01 X42.9815 Y-7.5877
G01 X43.0049 Y-7.6100
G01 X43.0169 Y-7.6223
G01 X43.0813 Y-7.6930
G01 X43.1037 Y-7.7190
G01 X43.1248 Y-7.7460
G01 X43.1816 Y-7.8230
G01 X43.2007 Y-7.8515
G01 X43.2097 Y-7.8661
G01 X43.2501 Y-7.9335
G01 X43.2670 Y-7.9633
G01 X43.2824 Y-7.9940
G01 X43.3160 Y-8.0649
G01 X43.3231 Y-8.0805
G01 X43.3362 Y-8.1122
G01 X43.3687 Y-8.2022
G01 X43.3794 Y-8.2348
G01 X43.3886 Y-8.2679
G01 X43.4116 Y-8.3607
G01 X43.4183 Y-8.3944
G01 X43.4210 Y-8.4113
G01 X43.4326 Y-8.4890
G01 X43.4368 Y-8.5230
G01 X43.4393 Y-8.5572
G01 X43.4431 Y-8.6356
G01 X43.4440 Y-8.6699
G01 X43.4438 Y-8.6871
G01 X43.4393 Y-8.7826
G01 X43.4368 Y-8.8169
G01 X43.4326 Y-8.8509
G01 X43.4210 Y-8.9286
G01 X43.4183 Y-8.9455
G01 X43.4116 Y-8.9791
G01 X43.3886 Y-9.0720
G01 X43.3794 Y-9.1051
G01 X43.3687 Y-9.1376
G01 X43.3422 Y-9.2115
G01 X43.3299 Y-9.2436
G01 X43.3160 Y-9.2749
G01 X43.2824 Y-9.3459
G01 X43.2670 Y-9.3765
G01 X43.2501 Y-9.4064
G01 X43.2097 Y-9.4737
G01 X43.2007 Y-9.4883
G01 X43.1816 Y-9.5169
G01 X43.1248 Y-9.5938
G01 X43.1037 Y-9.6209
G01 X43.0813 Y-9.6468
G01 X43.0286 Y-9.7050
G01 X43.0049 Y-9.7299
G01 X42.9927 Y-9.7418
G01 X42.9219 Y-9.8062
G01 X42.9091 Y-9.8176
G01 X42.8825 Y-9.8394
G01 X42.7919 Y-9.9066
G01 X42.7634 Y-9.9256
G01 X42.7400 Y-9.9399
G00 Z1.0000
G00 X41.1450 Y-12.1619
G01 F60.00
G01 Z-0.0900
G01 F500.00
G01 X41.9487 Y-12.1618
G01 X42.0383 Y-12.1573
G01 X42.1234 Y-12.1449
G01 X42.1344 Y-12.1428
G01 X42.2213 Y-12.1209
G01 X42.3093 Y-12.0894
G01 X42.3937 Y-12.0495
G01 X42.4676 Y-12.0054
G01 X42.4800 Y-11.9971
G01 X42.5489 Y-11.9458
G01 X42.6127 Y-11.8882
G01 X42.6233 Y-11.8777
G01 X42.6760 Y-11.8195
G01 X42.6832 Y-11.8109
G01 X42.6898 Y-11.8021
G01 X45.2643 Y-11.8025
G01 X45.2712 Y-11.8127
G01 X45.3255 Y-11.8856
G01 X45.3864 Y-11.9530
G01 X45.3969 Y-11.9636
G01 X45.4587 Y-12.0196
G01 X45.4702 Y-12.0290
G01 X45.5433 Y-12.0830
G01 X45.6277 Y-12.1336
G01 X45.7166 Y-12.1756
G01 X45.8056 Y-12.2076
G01 X45.8163 Y-12.2107
G01 X45.8973 Y-12.2310
G01 X45.9119 Y-12.2339
G01 X46.0018 Y-12.2471
G01 X46.0963 Y-12.2518
G01 X46.4075 Y-12.2517
G01 X46.4982 Y-12.2471
G01 X46.5918 Y-12.2333
G01 X46.6027 Y-12.2310
G01 X46.6909 Y-12.2087
G01 X46.7834 Y-12.1756
G01 X46.8723 Y-12.1336
G01 X46.9567 Y-12.0830
G01 X47.0356 Y-12.0244
G01 X47.1085 Y-11.9584
G01 X47.1745 Y-11.8856
G01 X47.2331 Y-11.8066
G01 X47.2836 Y-11.7222
G01 X47.3257 Y-11.6334
G01 X47.3588 Y-11.5408
G01 X47.3827 Y-11.4454
G01 X47.3971 Y-11.3481
G01 X47.4019 Y-11.2499
G01 X47.3971 Y-11.1517
G01 X47.3834 Y-11.0581
G01 X47.3811 Y-11.0472
G01 X47.3608 Y-10.9663
G01 X47.3565 Y-10.9520
G01 X47.3257 Y-10.8665
G01 X47.2836 Y-10.7776
G01 X47.2331 Y-10.6933
G01 X47.1791 Y-10.6202
G01 X47.1696 Y-10.6086
G01 X47.1136 Y-10.5468
G01 X47.1031 Y-10.5363
G01 X47.0356 Y-10.4754
G01 X46.9567 Y-10.4168
G01 X46.8723 Y-10.3663
G01 X46.7902 Y-10.3273
G01 X46.7765 Y-10.3216
G01 X46.6979 Y-10.2935
G01 X46.6837 Y-10.2891
G01 X46.5955 Y-10.2672
G01 X46.5019 Y-10.2532
G01 X46.4908 Y-10.2523
G01 X46.4000 Y-10.2480
G01 X46.1000 Y-10.2480
G01 X46.0018 Y-10.2528
G01 X45.9119 Y-10.2660
G01 X45.8973 Y-10.2689
G01 X45.8091 Y-10.2911
G01 X45.7235 Y-10.3216
G01 X45.7098 Y-10.3273
G01 X45.6343 Y-10.3629
G01 X45.6212 Y-10.3700
G01 X45.5433 Y-10.4168
G01 X45.4644 Y-10.4754
G01 X45.3915 Y-10.5414
G01 X45.3304 Y-10.6086
G01 X45.3209 Y-10.6202
G01 X45.2712 Y-10.6872
G01 X45.2640 Y-10.6978
G01 X42.7468 Y-10.6978
G01 X42.7344 Y-10.6780
G01 X42.6832 Y-10.6089
G01 X42.6760 Y-10.6004
G01 X42.6207 Y-10.5395
G01 X42.6127 Y-10.5317
G01 X42.5489 Y-10.4741
G01 X42.4770 Y-10.4205
G01 X42.4676 Y-10.4144
G01 X42.3937 Y-10.3704
G01 X42.3093 Y-10.3304
G01 X42.2213 Y-10.2990
G01 X42.1344 Y-10.2770
G01 X42.1234 Y-10.2750
G01 X42.0383 Y-10.2626
G01 X41.9450 Y-10.2580
G01 X41.1413 Y-10.2580
G01 X41.0517 Y-10.2626
G01 X40.9630 Y-10.2756
G01 X40.9520 Y-10.2779
G01 X40.8687 Y-10.2990
G01 X40.7807 Y-10.3304
G01 X40.6963 Y-10.3704
G01 X40.6224 Y-10.4144
G01 X40.6100 Y-10.4227
G01 X40.5470 Y-10.4695
G01 X40.5354 Y-10.4789
G01 X40.4719 Y-10.5368
G01 X40.4140 Y-10.6004
G01 X40.4045 Y-10.6119
G01 X40.3535 Y-10.6811
G01 X40.3055 Y-10.7612
G01 X40.2655 Y-10.8456
G01 X40.2340 Y-10.9336
G01 X40.2113 Y-11.0242
G01 X40.1976 Y-11.1166
G01 X40.1931 Y-11.2099
G01 X40.1976 Y-11.3032
G01 X40.2113 Y-11.3956
G01 X40.2340 Y-11.4863
G01 X40.2655 Y-11.5742
G01 X40.3055 Y-11.6587
G01 X40.3535 Y-11.7388
G01 X40.4091 Y-11.8138
G01 X40.4719 Y-11.8831
G01 X40.5354 Y-11.9409
G01 X40.5470 Y-11.9504
G01 X40.6161 Y-12.0014
G01 X40.6898 Y-12.0458
G01 X40.7029 Y-12.0528
G01 X40.7739 Y-12.0864
G01 X40.7877 Y-12.0921
G01 X40.8687 Y-12.1209
G01 X40.9593 Y-12.1436
G01 X41.0517 Y-12.1573
G01 X41.1450 Y-12.1619
G00 Z1.0000
G00 X40.3450 Y-7.0819
G01 F60.00
G01 Z-0.0900
G01 F500.00
G01 X42.7450 Y-7.0819
G01 X42.7525 Y-7.0817
G01 X42.7636 Y-7.0807
G01 X42.7746 Y-7.0790
G01 X42.7855 Y-7.0764
G01 X42.7927 Y-7.0742
G01 X42.8031 Y-7.0703
G01 X42.8133 Y-7.0657
G01 X42.8231 Y-7.0603
G01 X42.8325 Y-7.0542
G01 X42.8414 Y-7.0474
G01 X42.8498 Y-7.0400
G01 X42.8576 Y-7.0320
G01 X42.8625 Y-7.0263
G01 X42.8692 Y-7.0174
G01 X42.8753 Y-7.0080
G01 X42.8807 Y-6.9982
G01 X42.8854 Y-6.9881
G01 X42.8893 Y-6.9776
G01 X42.8924 Y-6.9668
G01 X42.8947 Y-6.9559
G01 X42.8962 Y-6.9448
G01 X42.8969 Y-6.9337
G01 X42.8969 Y-6.6821
G01 X43.4013 Y-6.6821
G01 X45.0981 Y-8.3788
G01 X45.0981 Y-9.3499
G01 X45.0994 Y-9.3819
G01 X45.1004 Y-9.3930
G01 X45.1045 Y-9.4210
G01 X45.1065 Y-9.4320
G01 X45.1143 Y-9.4630
G01 X45.1177 Y-9.4737
G01 X45.1286 Y-9.5037
G01 X45.1422 Y-9.5327
G01 X45.1473 Y-9.5427
G01 X45.1618 Y-9.5669
G01 X45.1679 Y-9.5763
G01 X45.1870 Y-9.6020
G01 X45.1942 Y-9.6106
G01 X45.2132 Y-9.6315
G01 X45.2212 Y-9.6393
G01 X45.2450 Y-9.6606
G01 X45.2736 Y-9.6820
G01 X45.2830 Y-9.6881
G01 X45.3040 Y-9.7007
G01 X45.3172 Y-9.7078
G01 X45.3462 Y-9.7213
G01 X45.3798 Y-9.7334
G01 X45.3905 Y-9.7366
G01 X45.4143 Y-9.7425
G01 X45.4252 Y-9.7448
G01 X45.4606 Y-9.7499
G01 X45.4925 Y-9.7517
G01 X47.0000 Y-9.7519
G01 X47.0394 Y-9.7499
G01 X47.0711 Y-9.7454
G01 X47.0857 Y-9.7425
G01 X47.1167 Y-9.7346
G01 X47.1538 Y-9.7213
G01 X47.1895 Y-9.7044
G01 X47.2170 Y-9.6881
G01 X47.2294 Y-9.6798
G01 X47.2550 Y-9.6606
G01 X47.2788 Y-9.6393
G01 X47.2894 Y-9.6287
G01 X47.3107 Y-9.6049
G01 X47.3342 Y-9.5732
G01 X47.3508 Y-9.5459
G01 X47.3578 Y-9.5327
G01 X47.3714 Y-9.5037
G01 X47.3835 Y-9.4702
G01 X47.3866 Y-9.4594
G01 X47.3926 Y-9.4356
G01 X47.3955 Y-9.4210
G01 X47.4000 Y-9.3893
G01 X47.4019 Y-9.3537
G01 X47.4019 Y-8.1499
G01 X47.4003 Y-8.1142
G01 X47.3991 Y-8.1031
G01 X47.3942 Y-8.0715
G01 X47.3857 Y-8.0368
G01 X47.3823 Y-8.0262
G01 X47.3727 Y-7.9996
G01 X47.3683 Y-7.9893
G01 X47.3578 Y-7.9671
G01 X47.3527 Y-7.9572
G01 X47.3382 Y-7.9329
G01 X47.3299 Y-7.9205
G01 X47.3153 Y-7.9008
G01 X47.3083 Y-7.8921
G01 X47.2894 Y-7.8711
G01 X47.2816 Y-7.8631
G01 X47.2550 Y-7.8392
G01 X47.2233 Y-7.8157
G01 X47.1895 Y-7.7954
G01 X47.1606 Y-7.7816
G01 X47.1469 Y-7.7759
G01 X47.1202 Y-7.7664
G01 X47.1095 Y-7.7633
G01 X47.0784 Y-7.7557
G01 X47.0394 Y-7.7499
G01 X47.0000 Y-7.7480
G01 X46.0289 Y-7.7480
G01 X44.0204 Y-5.7395
G01 X43.9859 Y-5.7080
G01 X43.9774 Y-5.7008
G01 X43.9368 Y-5.6708
G01 X43.8968 Y-5.6466
G01 X43.8836 Y-5.6396
G01 X43.8413 Y-5.6198
G01 X43.7974 Y-5.6039
G01 X43.7831 Y-5.5996
G01 X43.7377 Y-5.5884
G01 X43.6878 Y-5.5808
G01 X43.6767 Y-5.5799
G01 X43.6300 Y-5.5778
G01 X42.8969 Y-5.5778
G01 X42.8969 Y-5.3262
G01 X42.8965 Y-5.3187
G01 X42.8953 Y-5.3076
G01 X42.8933 Y-5.2966
G01 X42.8914 Y-5.2894
G01 X42.8893 Y-5.2823
G01 X42.8854 Y-5.2718
G01 X42.8807 Y-5.2616
G01 X42.8772 Y-5.2550
G01 X42.8734 Y-5.2486
G01 X42.8670 Y-5.2394
G01 X42.8625 Y-5.2335
G01 X42.8550 Y-5.2251
G01 X42.8498 Y-5.2199
G01 X42.8414 Y-5.2125
G01 X42.8355 Y-5.2079
G01 X42.8263 Y-5.2016
G01 X42.8199 Y-5.1977
G01 X42.8100 Y-5.1926
G01 X42.8031 Y-5.1895
G01 X42.7927 Y-5.1856
G01 X42.7819 Y-5.1825
G01 X42.7710 Y-5.1802
G01 X42.7562 Y-5.1784
G01 X42.7450 Y-5.1780
G01 X40.3450 Y-5.1780
G01 X40.3338 Y-5.1784
G01 X40.3227 Y-5.1796
G01 X40.3117 Y-5.1817
G01 X40.2973 Y-5.1856
G01 X40.2834 Y-5.1910
G01 X40.2734 Y-5.1959
G01 X40.2637 Y-5.2016
G01 X40.2515 Y-5.2101
G01 X40.2458 Y-5.2149
G01 X40.2376 Y-5.2225
G01 X40.2275 Y-5.2335
G01 X40.2230 Y-5.2394
G01 X40.2166 Y-5.2486
G01 X40.2093 Y-5.2616
G01 X40.2046 Y-5.2718
G01 X40.2019 Y-5.2787
G01 X40.1976 Y-5.2930
G01 X40.1953 Y-5.3039
G01 X40.1942 Y-5.3113
G01 X40.1931 Y-5.3262
G01 X40.1932 Y-6.9374
G01 X40.1947 Y-6.9522
G01 X40.1976 Y-6.9668
G01 X40.2007 Y-6.9776
G01 X40.2061 Y-6.9915
G01 X40.2128 Y-7.0048
G01 X40.2208 Y-7.0174
G01 X40.2299 Y-7.0292
G01 X40.2402 Y-7.0400
G01 X40.2515 Y-7.0497
G01 X40.2637 Y-7.0583
G01 X40.2767 Y-7.0657
G01 X40.2903 Y-7.0717
G01 X40.3045 Y-7.0764
G01 X40.3154 Y-7.0790
G01 X40.3301 Y-7.0811
G01 X40.3450 Y-7.0819
G00 Z1.0000
G00 X34.4017 Y-16.7556
G01 F60.00
G01 Z-0.0900
G01 F500.00
G01 X33.8598 Y-16.7556
G01 X33.9060 Y-16.7898
G01 X33.9224 Y-16.8026
G01 X33.9382 Y-16.8163
G01 X33.9802 Y-16.8543
G01 X34.3030 Y-16.8543
G01 X34.4017 Y-16.7556
G00 Z1.0000
G00 X24.5245 Y-18.3021
G01 F60.00
G01 Z-0.0900
G01 F500.00
G01 X32.2705 Y-18.3021
G01 X32.3091 Y-18.3538
G01 X32.3667 Y-18.4177
G01 X32.3773 Y-18.4282
G01 X32.4411 Y-18.4858
G01 X32.5100 Y-18.5371
G01 X32.5224 Y-18.5454
G01 X32.5963 Y-18.5895
G01 X32.6773 Y-18.6279
G01 X32.6877 Y-18.6321
G01 X32.7687 Y-18.6609
G01 X32.8520 Y-18.6819
G01 X32.8666 Y-18.6849
G01 X32.9443 Y-18.6964
G01 X32.9591 Y-18.6978
G01 X33.0413 Y-18.7018
G01 X33.1487 Y-18.7018
G01 X33.2309 Y-18.6978
G01 X33.2457 Y-18.6964
G01 X33.3307 Y-18.6836
G01 X33.4141 Y-18.6629
G01 X33.4284 Y-18.6585
G01 X33.5093 Y-18.6294
G01 X33.5871 Y-18.5928
G01 X33.5970 Y-18.5877
G01 X33.6739 Y-18.5414
G01 X33.7430 Y-18.4904
G01 X33.7546 Y-18.4809
G01 X33.8155 Y-18.4257
G01 X33.8233 Y-18.4177
G01 X33.8760 Y-18.3595
G01 X33.8832 Y-18.3509
G01 X33.9365 Y-18.2788
G01 X33.9647 Y-18.2321
G01 X34.6450 Y-18.2321
G01 X34.6991 Y-18.2294
G01 X34.7527 Y-18.2215
G01 X34.7981 Y-18.2103
G01 X34.8124 Y-18.2060
G01 X34.8563 Y-18.1900
G01 X34.8986 Y-18.1702
G01 X34.9085 Y-18.1651
G01 X34.9455 Y-18.1430
G01 X34.9579 Y-18.1347
G01 X34.9953 Y-18.1067
G01 X35.0354 Y-18.0704
G01 X37.5180 Y-15.5877
G01 X37.5518 Y-15.5502
G01 X37.5798 Y-15.5128
G01 X37.5881 Y-15.5004
G01 X37.6120 Y-15.4602
G01 X37.6321 Y-15.4180
G01 X37.6378 Y-15.4043
G01 X37.6522 Y-15.3638
G01 X37.6554 Y-15.3530
G01 X37.6649 Y-15.3149
G01 X37.6678 Y-15.3003
G01 X37.6745 Y-15.2540
G01 X37.6771 Y-15.1999
G01 X37.6771 Y-10.6662
G01 X37.6745 Y-10.6158
G01 X37.6678 Y-10.5696
G01 X37.6649 Y-10.5549
G01 X37.6534 Y-10.5096
G01 X37.6378 Y-10.4656
G01 X37.6321 Y-10.4518
G01 X37.6120 Y-10.4096
G01 X37.5881 Y-10.3695
G01 X37.5798 Y-10.3571
G01 X37.5518 Y-10.3196
G01 X37.5154 Y-10.2795
G01 X35.5154 Y-8.2795
G01 X35.4809 Y-8.2480
G01 X35.4694 Y-8.2385
G01 X35.4318 Y-8.2108
G01 X35.3853 Y-8.1830
G01 X35.3363 Y-8.1598
G01 X35.2888 Y-8.1427
G01 X35.2781 Y-8.1396
G01 X35.2327 Y-8.1284
G01 X35.1828 Y-8.1208
G01 X35.1717 Y-8.1199
G01 X35.1325 Y-8.1180
G01 X35.0995 Y-8.1178
G01 X35.0609 Y-8.0660
G01 X35.0033 Y-8.0022
G01 X34.9927 Y-7.9917
G01 X34.9318 Y-7.9365
G01 X34.9230 Y-7.9295
G01 X34.8539 Y-7.8784
G01 X34.7737 Y-7.8304
G01 X34.6893 Y-7.7904
G01 X34.6013 Y-7.7590
G01 X34.5107 Y-7.7363
G01 X34.4183 Y-7.7226
G01 X34.3250 Y-7.7180
G01 X33.5213 Y-7.7180
G01 X33.4317 Y-7.7226
G01 X33.3466 Y-7.7350
G01 X33.3320 Y-7.7379
G01 X33.2487 Y-7.7590
G01 X33.1677 Y-7.7878
G01 X33.1539 Y-7.7935
G01 X33.0763 Y-7.8304
G01 X33.0024 Y-7.8744
G01 X32.9900 Y-7.8827
G01 X32.9211 Y-7.9341
G01 X32.8573 Y-7.9917
G01 X32.8467 Y-8.0022
G01 X32.7940 Y-8.0604
G01 X32.7845 Y-8.0719
G01 X32.7335 Y-8.1411
G01 X32.6891 Y-8.2147
G01 X32.6821 Y-8.2278
G01 X32.6455 Y-8.3056
G01 X32.6140 Y-8.3936
G01 X32.5913 Y-8.4842
G01 X32.5785 Y-8.5692
G01 X32.5771 Y-8.5841
G01 X32.5732 Y-8.6625
G01 X32.5732 Y-8.6774
G01 X32.5776 Y-8.7632
G01 X32.5901 Y-8.8483
G01 X32.5930 Y-8.8629
G01 X32.6140 Y-8.9463
G01 X32.6455 Y-9.0342
G01 X32.6855 Y-9.1187
G01 X32.7295 Y-9.1925
G01 X32.7378 Y-9.2049
G01 X32.7891 Y-9.2738
G01 X32.8467 Y-9.3377
G01 X32.8573 Y-9.3482
G01 X32.9182 Y-9.4034
G01 X32.9270 Y-9.4104
G01 X32.9900 Y-9.4571
G01 X33.0024 Y-9.4654
G01 X33.0763 Y-9.5095
G01 X33.1539 Y-9.5464
G01 X33.1677 Y-9.5521
G01 X33.2487 Y-9.5809
G01 X33.3320 Y-9.6019
G01 X33.3466 Y-9.6049
G01 X33.4317 Y-9.6173
G01 X33.5213 Y-9.6218
G01 X34.3287 Y-9.6218
G01 X34.4183 Y-9.6173
G01 X34.5107 Y-9.6036
G01 X34.6013 Y-9.5809
G01 X34.6893 Y-9.5494
G01 X34.7737 Y-9.5095
G01 X34.8539 Y-9.4614
G01 X34.9289 Y-9.4058
G01 X34.9927 Y-9.3482
G01 X35.0007 Y-9.3404
G01 X35.0074 Y-9.3331
G01 X36.5729 Y-10.8986
G01 X36.5728 Y-14.9712
G01 X34.4163 Y-17.1278
G01 X33.8646 Y-17.1278
G01 X33.8181 Y-17.0768
G01 X33.7546 Y-17.0189
G01 X33.7430 Y-17.0095
G01 X33.6800 Y-16.9627
G01 X33.6676 Y-16.9544
G01 X33.5937 Y-16.9104
G01 X33.5093 Y-16.8704
G01 X33.4213 Y-16.8390
G01 X33.3380 Y-16.8179
G01 X33.3234 Y-16.8150
G01 X33.2457 Y-16.8035
G01 X33.2309 Y-16.8020
G01 X33.1487 Y-16.7980
G01 X33.0450 Y-16.7980
G01 X32.9517 Y-16.8026
G01 X32.8666 Y-16.8150
G01 X32.8520 Y-16.8179
G01 X32.7687 Y-16.8390
G01 X32.6877 Y-16.8678
G01 X32.6739 Y-16.8735
G01 X32.5996 Y-16.9087
G01 X32.5898 Y-16.9141
G01 X32.5161 Y-16.9584
G01 X32.4470 Y-17.0095
G01 X32.4382 Y-17.0165
G01 X32.3773 Y-17.0717
G01 X32.3667 Y-17.0822
G01 X32.3091 Y-17.1460
G01 X32.2705 Y-17.1978
G01 X24.5245 Y-17.1978
G01 X24.4859 Y-17.1460
G01 X24.4283 Y-17.0822
G01 X24.4177 Y-17.0717
G01 X24.3568 Y-17.0165
G01 X24.3480 Y-17.0095
G01 X24.2789 Y-16.9584
G01 X24.2052 Y-16.9141
G01 X24.1954 Y-16.9087
G01 X24.1211 Y-16.8735
G01 X24.1073 Y-16.8678
G01 X24.0263 Y-16.8390
G01 X23.9430 Y-16.8179
G01 X23.9284 Y-16.8150
G01 X23.8433 Y-16.8026
G01 X23.7500 Y-16.7980
G01 X23.6641 Y-16.8020
G01 X23.6493 Y-16.8035
G01 X23.5643 Y-16.8163
G01 X23.4809 Y-16.8370
G01 X23.4666 Y-16.8413
G01 X23.3857 Y-16.8704
G01 X23.3013 Y-16.9104
G01 X23.2211 Y-16.9584
G01 X23.1520 Y-17.0095
G01 X23.1404 Y-17.0189
G01 X23.0769 Y-17.0768
G01 X23.0190 Y-17.1404
G01 X23.0095 Y-17.1519
G01 X22.9606 Y-17.2180
G01 X22.9545 Y-17.2274
G01 X22.9105 Y-17.3012
G01 X22.8705 Y-17.3856
G01 X22.8390 Y-17.4736
G01 X22.8163 Y-17.5642
G01 X22.8026 Y-17.6566
G01 X22.7981 Y-17.7499
G01 X22.8026 Y-17.8432
G01 X22.8163 Y-17.9356
G01 X22.8390 Y-18.0263
G01 X22.8705 Y-18.1142
G01 X22.9105 Y-18.1987
G01 X22.9585 Y-18.2788
G01 X23.0141 Y-18.3538
G01 X23.0769 Y-18.4231
G01 X23.1461 Y-18.4858
G01 X23.2180 Y-18.5393
G01 X23.2274 Y-18.5454
G01 X23.3013 Y-18.5895
G01 X23.3857 Y-18.6294
G01 X23.4737 Y-18.6609
G01 X23.5643 Y-18.6836
G01 X23.6567 Y-18.6973
G01 X23.7500 Y-18.7019
G01 X23.8433 Y-18.6973
G01 X23.9320 Y-18.6843
G01 X23.9430 Y-18.6819
G01 X24.0263 Y-18.6609
G01 X24.1143 Y-18.6294
G01 X24.1987 Y-18.5895
G01 X24.2757 Y-18.5435
G01 X24.2850 Y-18.5371
G01 X24.3539 Y-18.4858
G01 X24.4205 Y-18.4257
G01 X24.4283 Y-18.4177
G01 X24.4835 Y-18.3567
G01 X24.4905 Y-18.3480
G01 X24.5245 Y-18.3021
G00 Z1.0000
G00 X23.5315 Y-25.3991
G01 F60.00
G01 Z-0.0900
G01 F500.00
G01 X23.5577 Y-25.4087
G01 X23.5894 Y-25.4218
G01 X23.6914 Y-25.4701
G01 X23.7066 Y-25.4780
G01 X23.7365 Y-25.4949
G01 X23.8184 Y-25.5442
G01 X23.8328 Y-25.5536
G01 X23.8608 Y-25.5734
G01 X23.9375 Y-25.6305
G01 X23.9641 Y-25.6523
G01 X24.0179 Y-25.7008
G01 X27.3947 Y-25.7008
G01 X27.3685 Y-25.6792
G01 X27.3556 Y-25.6679
G01 X27.3308 Y-25.6442
G01 X27.3188 Y-25.6319
G01 X27.2957 Y-25.6065
G01 X27.2847 Y-25.5934
G01 X27.2636 Y-25.5663
G01 X27.2438 Y-25.5383
G01 X27.2345 Y-25.5239
G01 X27.2168 Y-25.4945
G01 X27.2086 Y-25.4794
G01 X27.2007 Y-25.4642
G01 X27.1860 Y-25.4332
G01 X27.1792 Y-25.4174
G01 X27.1720 Y-25.3991
G01 X23.5315 Y-25.3991
G00 Z1.0000
G00 X19.5089 Y-25.3991
G01 F60.00
G01 Z-0.0900
G01 F500.00
G01 X19.5272 Y-25.4109
G01 X19.5414 Y-25.4206
G01 X19.5750 Y-25.4453
G01 X19.6020 Y-25.4664
G01 X19.6151 Y-25.4774
G01 X19.6462 Y-25.5053
G01 X19.6710 Y-25.5289
G01 X19.6830 Y-25.5412
G01 X19.7112 Y-25.5720
G01 X19.7225 Y-25.5848
G01 X19.7443 Y-25.6113
G01 X19.7793 Y-25.6586
G01 X19.7890 Y-25.6727
G01 X19.8068 Y-25.7008
G01 X21.9821 Y-25.7008
G01 X22.0359 Y-25.6523
G01 X22.0625 Y-25.6305
G01 X22.1392 Y-25.5734
G01 X22.1672 Y-25.5536
G01 X22.1816 Y-25.5442
G01 X22.2635 Y-25.4949
G01 X22.2784 Y-25.4862
G01 X22.3086 Y-25.4701
G01 X22.4106 Y-25.4218
G01 X22.4423 Y-25.4087
G01 X22.4685 Y-25.3991
G01 X19.5089 Y-25.3991
G00 Z1.0000
G00 X18.7561 Y-25.5245
G01 F60.00
G01 Z-0.0900
G01 F500.00
G01 X19.0104 Y-25.5246
G01 X19.0558 Y-25.5268
G01 X19.0766 Y-25.5289
G01 X19.1112 Y-25.5339
G01 X19.1318 Y-25.5375
G01 X19.1522 Y-25.5420
G01 X19.1759 Y-25.5480
G01 X19.1961 Y-25.5536
G01 X19.2159 Y-25.5601
G01 X19.2390 Y-25.5684
G01 X19.2585 Y-25.5759
G01 X19.2776 Y-25.5844
G01 X19.3091 Y-25.5994
G01 X19.3276 Y-25.6093
G01 X19.3665 Y-25.6326
G01 X19.3839 Y-25.6442
G01 X19.4204 Y-25.6713
G01 X19.4365 Y-25.6845
G01 X19.4701 Y-25.7150
G01 X19.4849 Y-25.7298
G01 X19.5154 Y-25.7635
G01 X19.5287 Y-25.7796
G01 X19.5557 Y-25.8161
G01 X19.5673 Y-25.8334
G01 X19.5907 Y-25.8724
G01 X19.6005 Y-25.8908
G01 X19.6199 Y-25.9319
G01 X19.6279 Y-25.9512
G01 X19.6363 Y-25.9743
G01 X22.0957 Y-25.9743
G01 X22.1262 Y-25.9409
G01 X22.1409 Y-25.9261
G01 X22.2146 Y-25.8594
G01 X22.2307 Y-25.8461
G01 X22.2390 Y-25.8398
G01 X22.3106 Y-25.7869
G01 X22.3192 Y-25.7810
G01 X22.3368 Y-25.7698
G01 X22.4042 Y-25.7295
G01 X22.4223 Y-25.7192
G01 X22.4410 Y-25.7098
G01 X22.5214 Y-25.6719
G01 X22.5310 Y-25.6678
G01 X22.5505 Y-25.6603
G01 X22.6244 Y-25.6338
G01 X22.6443 Y-25.6273
G01 X22.6644 Y-25.6217
G01 X22.7405 Y-25.6026
G01 X22.7609 Y-25.5980
G01 X22.7815 Y-25.5945
G01 X22.8592 Y-25.5829
G01 X22.8799 Y-25.5804
G01 X22.9007 Y-25.5789
G01 X22.9791 Y-25.5750
G01 X23.0000 Y-25.5745
G01 X23.0209 Y-25.5750
G01 X23.0993 Y-25.5789
G01 X23.1201 Y-25.5804
G01 X23.1408 Y-25.5829
G01 X23.2185 Y-25.5945
G01 X23.2391 Y-25.5980
G01 X23.2595 Y-25.6026
G01 X23.3356 Y-25.6217
G01 X23.3557 Y-25.6273
G01 X23.3756 Y-25.6338
G01 X23.4495 Y-25.6603
G01 X23.4593 Y-25.6639
G01 X23.4786 Y-25.6719
G01 X23.5590 Y-25.7098
G01 X23.5777 Y-25.7192
G01 X23.5958 Y-25.7295
G01 X23.6632 Y-25.7698
G01 X23.6808 Y-25.7810
G01 X23.6894 Y-25.7869
G01 X23.7610 Y-25.8398
G01 X23.7774 Y-25.8527
G01 X23.7854 Y-25.8594
G01 X23.8591 Y-25.9261
G01 X23.8738 Y-25.9409
G01 X23.9043 Y-25.9743
G01 X27.7033 Y-25.9743
G01 X27.7587 Y-25.9132
G01 X27.7731 Y-25.8981
G01 X27.7882 Y-25.8837
G01 X27.8500 Y-25.8276
G01 X27.8659 Y-25.8140
G01 X27.8823 Y-25.8012
G01 X27.9493 Y-25.7515
G01 X27.9578 Y-25.7454
G01 X27.9751 Y-25.7337
G01 X28.0556 Y-25.6854
G01 X28.0738 Y-25.6751
G01 X28.0924 Y-25.6657
G01 X28.1678 Y-25.6300
G01 X28.1869 Y-25.6216
G01 X28.2064 Y-25.6141
G01 X28.2948 Y-25.5826
G01 X28.3189 Y-25.5754
G01 X27.8250 Y-25.5754
G01 X27.8146 Y-25.5753
G01 X27.7937 Y-25.5743
G01 X27.7729 Y-25.5722
G01 X27.7523 Y-25.5691
G01 X27.7318 Y-25.5651
G01 X27.7115 Y-25.5600
G01 X27.6915 Y-25.5539
G01 X27.6719 Y-25.5469
G01 X27.6526 Y-25.5389
G01 X27.6337 Y-25.5300
G01 X27.6244 Y-25.5252
G01 X27.6063 Y-25.5149
G01 X27.5974 Y-25.5094
G01 X27.5800 Y-25.4978
G01 X27.5716 Y-25.4917
G01 X27.5551 Y-25.4788
G01 X27.5471 Y-25.4721
G01 X27.5316 Y-25.4581
G01 X27.5169 Y-25.4433
G01 X27.5098 Y-25.4357
G01 X27.5028 Y-25.4278
G01 X27.4896 Y-25.4117
G01 X27.4772 Y-25.3949
G01 X27.4712 Y-25.3863
G01 X27.4655 Y-25.3776
G01 X27.4548 Y-25.3597
G01 X27.4498 Y-25.3505
G01 X27.4404 Y-25.3319
G01 X27.4360 Y-25.3224
G01 X27.4280 Y-25.3031
G01 X27.4244 Y-25.2933
G01 X27.4179 Y-25.2735
G01 X27.4123 Y-25.2533
G01 X27.4099 Y-25.2432
G01 X27.4058 Y-25.2227
G01 X27.4027 Y-25.2020
G01 X27.4016 Y-25.1917
G01 X27.4007 Y-25.1812
G01 X27.3997 Y-25.1604
G01 X27.3995 Y-25.1256
G01 X19.3717 Y-25.1256
G01 X19.3163 Y-25.1867
G01 X19.3019 Y-25.2018
G01 X19.2868 Y-25.2162
G01 X19.2250 Y-25.2723
G01 X19.2091 Y-25.2859
G01 X19.1927 Y-25.2987
G01 X19.1257 Y-25.3484
G01 X19.1086 Y-25.3605
G01 X19.0999 Y-25.3662
G01 X19.0194 Y-25.4145
G01 X19.0012 Y-25.4248
G01 X18.9826 Y-25.4342
G01 X18.9072 Y-25.4699
G01 X18.8881 Y-25.4783
G01 X18.8686 Y-25.4858
G01 X18.7802 Y-25.5173
G01 X18.7561 Y-25.5245
G00 Z1.0000
G00 X12.2589 Y-25.3992
G01 F60.00
G01 Z-0.0900
G01 F500.00
G01 X12.2772 Y-25.4109
G01 X12.2914 Y-25.4206
G01 X12.3250 Y-25.4453
G01 X12.3520 Y-25.4664
G01 X12.3651 Y-25.4774
G01 X12.3962 Y-25.5053
G01 X12.4210 Y-25.5289
G01 X12.4330 Y-25.5412
G01 X12.4612 Y-25.5720
G01 X12.4725 Y-25.5848
G01 X12.4943 Y-25.6113
G01 X12.5293 Y-25.6586
G01 X12.5390 Y-25.6727
G01 X12.5568 Y-25.7008
G01 X16.6932 Y-25.7008
G01 X16.7110 Y-25.6727
G01 X16.7207 Y-25.6586
G01 X16.7557 Y-25.6113
G01 X16.7664 Y-25.5979
G01 X16.7888 Y-25.5720
G01 X16.8170 Y-25.5412
G01 X16.8290 Y-25.5289
G01 X16.8538 Y-25.5053
G01 X16.8849 Y-25.4774
G01 X16.8980 Y-25.4664
G01 X16.9114 Y-25.4557
G01 X16.9447 Y-25.4307
G01 X16.9728 Y-25.4109
G01 X16.9904 Y-25.3996
G01 X12.2589 Y-25.3992
G00 Z1.0000
G00 X11.5061 Y-25.5245
G01 F60.00
G01 Z-0.0900
G01 F500.00
G01 X11.7604 Y-25.5246
G01 X11.8058 Y-25.5268
G01 X11.8266 Y-25.5289
G01 X11.8612 Y-25.5339
G01 X11.8818 Y-25.5375
G01 X11.9022 Y-25.5420
G01 X11.9259 Y-25.5480
G01 X11.9461 Y-25.5536
G01 X11.9659 Y-25.5601
G01 X11.9890 Y-25.5684
G01 X12.0085 Y-25.5759
G01 X12.0276 Y-25.5844
G01 X12.0591 Y-25.5994
G01 X12.0776 Y-25.6093
G01 X12.1165 Y-25.6326
G01 X12.1339 Y-25.6442
G01 X12.1704 Y-25.6713
G01 X12.1865 Y-25.6845
G01 X12.2201 Y-25.7150
G01 X12.2349 Y-25.7298
G01 X12.2654 Y-25.7635
G01 X12.2787 Y-25.7796
G01 X12.3057 Y-25.8161
G01 X12.3173 Y-25.8334
G01 X12.3407 Y-25.8724
G01 X12.3505 Y-25.8908
G01 X12.3699 Y-25.9319
G01 X12.3779 Y-25.9512
G01 X12.3863 Y-25.9743
G01 X16.8637 Y-25.9743
G01 X16.8721 Y-25.9512
G01 X16.8801 Y-25.9319
G01 X16.8995 Y-25.8908
G01 X16.9093 Y-25.8724
G01 X16.9327 Y-25.8334
G01 X16.9443 Y-25.8161
G01 X16.9713 Y-25.7796
G01 X16.9846 Y-25.7635
G01 X17.0151 Y-25.7298
G01 X17.0299 Y-25.7150
G01 X17.0635 Y-25.6845
G01 X17.0796 Y-25.6713
G01 X17.1161 Y-25.6442
G01 X17.1335 Y-25.6326
G01 X17.1724 Y-25.6093
G01 X17.1909 Y-25.5994
G01 X17.2224 Y-25.5844
G01 X17.2415 Y-25.5759
G01 X17.2610 Y-25.5684
G01 X17.2841 Y-25.5601
G01 X17.3039 Y-25.5536
G01 X17.3241 Y-25.5480
G01 X17.3478 Y-25.5420
G01 X17.3682 Y-25.5375
G01 X17.3888 Y-25.5339
G01 X17.4234 Y-25.5289
G01 X17.4442 Y-25.5268
G01 X17.4896 Y-25.5246
G01 X17.7439 Y-25.5245
G01 X17.7198 Y-25.5173
G01 X17.6314 Y-25.4858
G01 X17.6119 Y-25.4783
G01 X17.5928 Y-25.4699
G01 X17.5174 Y-25.4342
G01 X17.4988 Y-25.4248
G01 X17.4806 Y-25.4145
G01 X17.4001 Y-25.3662
G01 X17.3914 Y-25.3605
G01 X17.3743 Y-25.3484
G01 X17.3073 Y-25.2987
G01 X17.2909 Y-25.2859
G01 X17.2750 Y-25.2723
G01 X17.2132 Y-25.2162
G01 X17.1981 Y-25.2018
G01 X17.1837 Y-25.1867
G01 X17.1288 Y-25.1261
G01 X12.1216 Y-25.1256
G01 X12.0663 Y-25.1867
G01 X12.0519 Y-25.2018
G01 X12.0368 Y-25.2162
G01 X11.9750 Y-25.2723
G01 X11.9591 Y-25.2859
G01 X11.9427 Y-25.2987
G01 X11.8757 Y-25.3484
G01 X11.8672 Y-25.3545
G01 X11.8499 Y-25.3662
G01 X11.7694 Y-25.4145
G01 X11.7512 Y-25.4248
G01 X11.7326 Y-25.4342
G01 X11.6572 Y-25.4699
G01 X11.6381 Y-25.4783
G01 X11.6186 Y-25.4858
G01 X11.5302 Y-25.5173
G01 X11.5061 Y-25.5245
G00 Z1.0000
G00 X5.0089 Y-25.3992
G01 F60.00
G01 Z-0.0900
G01 F500.00
G01 X5.0272 Y-25.4109
G01 X5.0414 Y-25.4206
G01 X5.0750 Y-25.4453
G01 X5.1020 Y-25.4664
G01 X5.1151 Y-25.4774
G01 X5.1462 Y-25.5053
G01 X5.1710 Y-25.5289
G01 X5.1830 Y-25.5412
G01 X5.2112 Y-25.5720
G01 X5.2336 Y-25.5979
G01 X5.2443 Y-25.6113
G01 X5.2793 Y-25.6586
G01 X5.2890 Y-25.6727
G01 X5.3068 Y-25.7008
G01 X9.4432 Y-25.7008
G01 X9.4610 Y-25.6727
G01 X9.4707 Y-25.6586
G01 X9.5057 Y-25.6113
G01 X9.5164 Y-25.5979
G01 X9.5388 Y-25.5720
G01 X9.5670 Y-25.5412
G01 X9.5790 Y-25.5289
G01 X9.6038 Y-25.5053
G01 X9.6349 Y-25.4774
G01 X9.6480 Y-25.4664
G01 X9.6614 Y-25.4557
G01 X9.6947 Y-25.4307
G01 X9.7228 Y-25.4109
G01 X9.7404 Y-25.3996
G01 X5.0089 Y-25.3992
G00 Z1.0000
G00 X4.7360 Y-24.8521
G01 F60.00
G01 Z-0.0900
G01 F500.00
G01 X10.0143 Y-24.8526
G01 X10.0212 Y-24.8627
G01 X10.0755 Y-24.9356
G01 X10.1364 Y-25.0030
G01 X10.1469 Y-25.0136
G01 X10.2144 Y-25.0745
G01 X10.2872 Y-25.1287
G01 X10.2996 Y-25.1370
G01 X10.3777 Y-25.1836
G01 X10.4666 Y-25.2256
G01 X10.5521 Y-25.2564
G01 X10.5663 Y-25.2607
G01 X10.6545 Y-25.2826
G01 X10.7444 Y-25.2962
G01 X10.7592 Y-25.2976
G01 X10.8500 Y-25.3019
G01 X11.1500 Y-25.3019
G01 X11.2482 Y-25.2971
G01 X11.3381 Y-25.2839
G01 X11.3527 Y-25.2810
G01 X11.4409 Y-25.2588
G01 X11.5300 Y-25.2270
G01 X11.5402 Y-25.2226
G01 X11.6157 Y-25.1869
G01 X11.6288 Y-25.1799
G01 X11.7067 Y-25.1330
G01 X11.7856 Y-25.0745
G01 X11.8585 Y-25.0084
G01 X11.9196 Y-24.9412
G01 X11.9291 Y-24.9297
G01 X11.9788 Y-24.8627
G01 X11.9860 Y-24.8521
G01 X17.2643 Y-24.8526
G01 X17.2712 Y-24.8627
G01 X17.3209 Y-24.9297
G01 X17.3304 Y-24.9412
G01 X17.3915 Y-25.0084
G01 X17.4644 Y-25.0745
G01 X17.5433 Y-25.1330
G01 X17.6212 Y-25.1799
G01 X17.6343 Y-25.1869
G01 X17.7098 Y-25.2226
G01 X17.7200 Y-25.2270
G01 X17.8091 Y-25.2588
G01 X17.8973 Y-25.2810
G01 X17.9119 Y-25.2839
G01 X18.0018 Y-25.2971
G01 X18.1000 Y-25.3019
G01 X18.4000 Y-25.3019
G01 X18.4982 Y-25.2971
G01 X18.5881 Y-25.2839
G01 X18.6027 Y-25.2810
G01 X18.6909 Y-25.2588
G01 X18.7765 Y-25.2283
G01 X18.7902 Y-25.2226
G01 X18.8723 Y-25.1836
G01 X18.9504 Y-25.1370
G01 X18.9628 Y-25.1287
G01 X19.0356 Y-25.0745
G01 X19.1031 Y-25.0136
G01 X19.1136 Y-25.0030
G01 X19.1745 Y-24.9356
G01 X19.2288 Y-24.8627
G01 X19.2360 Y-24.8521
G01 X27.6731 Y-24.8521
G01 X27.6731 Y-25.1537
G01 X27.6738 Y-25.1648
G01 X27.6747 Y-25.1722
G01 X27.6776 Y-25.1869
G01 X27.6796 Y-25.1941
G01 X27.6832 Y-25.2046
G01 X27.6876 Y-25.2149
G01 X27.6928 Y-25.2248
G01 X27.6987 Y-25.2344
G01 X27.7052 Y-25.2434
G01 X27.7099 Y-25.2492
G01 X27.7176 Y-25.2574
G01 X27.7258 Y-25.2650
G01 X27.7315 Y-25.2697
G01 X27.7406 Y-25.2763
G01 X27.7501 Y-25.2822
G01 X27.7567 Y-25.2857
G01 X27.7669 Y-25.2903
G01 X27.7773 Y-25.2942
G01 X27.7881 Y-25.2973
G01 X27.7954 Y-25.2990
G01 X27.8064 Y-25.3008
G01 X27.8175 Y-25.3017
G01 X27.8250 Y-25.3019
G01 X29.5250 Y-25.3019
G01 X29.5362 Y-25.3015
G01 X29.5473 Y-25.3003
G01 X29.5619 Y-25.2973
G01 X29.5727 Y-25.2942
G01 X29.5831 Y-25.2903
G01 X29.5933 Y-25.2857
G01 X29.6031 Y-25.2803
G01 X29.6155 Y-25.2720
G01 X29.6242 Y-25.2650
G01 X29.6350 Y-25.2547
G01 X29.6425 Y-25.2463
G01 X29.6492 Y-25.2374
G01 X29.6553 Y-25.2281
G01 X29.6607 Y-25.2183
G01 X29.6654 Y-25.2081
G01 X29.6693 Y-25.1976
G01 X29.6724 Y-25.1869
G01 X29.6747 Y-25.1759
G01 X29.6762 Y-25.1648
G01 X29.6769 Y-25.1537
G01 X29.6769 Y-24.8521
G01 X34.7133 Y-24.8521
G01 X40.2014 Y-30.3402
G01 X40.2113 Y-30.4057
G01 X40.2321 Y-30.4891
G01 X40.2364 Y-30.5034
G01 X40.2628 Y-30.5773
G01 X40.2685 Y-30.5911
G01 X40.3055 Y-30.6687
G01 X40.3514 Y-30.7457
G01 X40.3578 Y-30.7549
G01 X40.4091 Y-30.8239
G01 X40.4719 Y-30.8931
G01 X40.5411 Y-30.9558
G01 X40.6161 Y-31.0115
G01 X40.6898 Y-31.0558
G01 X40.7029 Y-31.0628
G01 X40.7807 Y-31.0994
G01 X40.8616 Y-31.1286
G01 X40.8759 Y-31.1329
G01 X40.9593 Y-31.1536
G01 X41.0443 Y-31.1664
G01 X41.0554 Y-31.1676
G01 X41.1450 Y-31.1719
G01 X41.9487 Y-31.1719
G01 X42.0383 Y-31.1673
G01 X42.1234 Y-31.1549
G01 X42.1380 Y-31.1520
G01 X42.2213 Y-31.1309
G01 X42.3093 Y-31.0994
G01 X42.3871 Y-31.0628
G01 X42.4002 Y-31.0558
G01 X42.4739 Y-31.0115
G01 X42.5430 Y-30.9604
G01 X42.5546 Y-30.9509
G01 X42.6181 Y-30.8931
G01 X42.6809 Y-30.8239
G01 X42.7365 Y-30.7488
G01 X42.7809 Y-30.6752
G01 X42.7879 Y-30.6620
G01 X42.8245 Y-30.5842
G01 X42.8536 Y-30.5034
G01 X42.8579 Y-30.4891
G01 X42.8787 Y-30.4057
G01 X42.8915 Y-30.3207
G01 X42.8929 Y-30.3058
G01 X42.8968 Y-30.2274
G01 X42.8968 Y-30.2125
G01 X42.8924 Y-30.1266
G01 X42.8787 Y-30.0342
G01 X42.8560 Y-29.9436
G01 X42.8272 Y-29.8626
G01 X42.8215 Y-29.8488
G01 X42.7879 Y-29.7779
G01 X42.7809 Y-29.7647
G01 X42.7365 Y-29.6911
G01 X42.6809 Y-29.6160
G01 X42.6181 Y-29.5468
G01 X42.5546 Y-29.4890
G01 X42.5430 Y-29.4795
G01 X42.4800 Y-29.4327
G01 X42.4676 Y-29.4244
G01 X42.3937 Y-29.3804
G01 X42.3161 Y-29.3435
G01 X42.3023 Y-29.3378
G01 X42.2284 Y-29.3113
G01 X42.2141 Y-29.3070
G01 X42.1307 Y-29.2863
G01 X42.0457 Y-29.2735
G01 X42.0346 Y-29.2723
G01 X41.9450 Y-29.2680
G01 X41.1450 Y-29.2680
G01 X41.0517 Y-29.2726
G01 X40.9593 Y-29.2863
G01 X40.8687 Y-29.3090
G01 X40.7877 Y-29.3378
G01 X40.7773 Y-29.3419
G01 X40.7688 Y-29.3459
G01 X35.3298 Y-23.9069
G01 X35.2923 Y-23.8731
G01 X35.2549 Y-23.8451
G01 X35.2457 Y-23.8388
G01 X35.2088 Y-23.8167
G01 X35.1957 Y-23.8096
G01 X35.1534 Y-23.7898
G01 X35.1023 Y-23.7716
G01 X35.0498 Y-23.7584
G01 X35.0036 Y-23.7514
G01 X34.9887 Y-23.7499
G01 X34.9421 Y-23.7478
G01 X29.6769 Y-23.7478
G01 X29.6769 Y-23.4462
G01 X29.6762 Y-23.4351
G01 X29.6747 Y-23.4240
G01 X29.6724 Y-23.4130
G01 X29.6693 Y-23.4023
G01 X29.6654 Y-23.3918
G01 X29.6607 Y-23.3816
G01 X29.6534 Y-23.3687
G01 X29.6470 Y-23.3594
G01 X29.6401 Y-23.3507
G01 X29.6324 Y-23.3425
G01 X29.6242 Y-23.3349
G01 X29.6155 Y-23.3279
G01 X29.6063 Y-23.3216
G01 X29.5933 Y-23.3142
G01 X29.5831 Y-23.3096
G01 X29.5727 Y-23.3057
G01 X29.5583 Y-23.3017
G01 X29.5473 Y-23.2996
G01 X29.5362 Y-23.2984
G01 X29.5250 Y-23.2980
G01 X27.8250 Y-23.2980
G01 X27.8138 Y-23.2984
G01 X27.8064 Y-23.2991
G01 X27.7954 Y-23.3009
G01 X27.7881 Y-23.3026
G01 X27.7773 Y-23.3057
G01 X27.7669 Y-23.3096
G01 X27.7567 Y-23.3142
G01 X27.7501 Y-23.3177
G01 X27.7406 Y-23.3236
G01 X27.7345 Y-23.3279
G01 X27.7258 Y-23.3349
G01 X27.7176 Y-23.3425
G01 X27.7099 Y-23.3507
G01 X27.7030 Y-23.3594
G01 X27.6987 Y-23.3655
G01 X27.6928 Y-23.3751
G01 X27.6876 Y-23.3850
G01 X27.6846 Y-23.3918
G01 X27.6807 Y-23.4023
G01 X27.6776 Y-23.4130
G01 X27.6753 Y-23.4240
G01 X27.6742 Y-23.4314
G01 X27.6731 Y-23.4462
G01 X27.6731 Y-23.7478
G01 X19.2357 Y-23.7473
G01 X19.2288 Y-23.7372
G01 X19.1745 Y-23.6643
G01 X19.1136 Y-23.5969
G01 X19.1031 Y-23.5863
G01 X19.0356 Y-23.5254
G01 X18.9628 Y-23.4712
G01 X18.9504 Y-23.4629
G01 X18.8723 Y-23.4163
G01 X18.7834 Y-23.3743
G01 X18.6979 Y-23.3435
G01 X18.6837 Y-23.3392
G01 X18.5955 Y-23.3173
G01 X18.5056 Y-23.3037
G01 X18.4908 Y-23.3023
G01 X18.4000 Y-23.2980
G01 X18.1000 Y-23.2980
G01 X18.0018 Y-23.3028
G01 X17.9119 Y-23.3160
G01 X17.8973 Y-23.3189
G01 X17.8091 Y-23.3411
G01 X17.7200 Y-23.3729
G01 X17.7098 Y-23.3773
G01 X17.6343 Y-23.4130
G01 X17.6212 Y-23.4200
G01 X17.5433 Y-23.4669
G01 X17.4644 Y-23.5254
G01 X17.3915 Y-23.5915
G01 X17.3304 Y-23.6587
G01 X17.3209 Y-23.6702
G01 X17.2712 Y-23.7372
G01 X17.2640 Y-23.7478
G01 X11.9857 Y-23.7473
G01 X11.9788 Y-23.7372
G01 X11.9291 Y-23.6702
G01 X11.9196 Y-23.6587
G01 X11.8585 Y-23.5915
G01 X11.7856 Y-23.5254
G01 X11.7067 Y-23.4669
G01 X11.6288 Y-23.4200
G01 X11.6157 Y-23.4130
G01 X11.5402 Y-23.3773
G01 X11.5300 Y-23.3729
G01 X11.4409 Y-23.3411
G01 X11.3527 Y-23.3189
G01 X11.3381 Y-23.3160
G01 X11.2482 Y-23.3028
G01 X11.1500 Y-23.2980
G01 X10.8500 Y-23.2980
G01 X10.7518 Y-23.3028
G01 X10.6619 Y-23.3160
G01 X10.6473 Y-23.3189
G01 X10.5591 Y-23.3411
G01 X10.4735 Y-23.3716
G01 X10.4598 Y-23.3773
G01 X10.3777 Y-23.4163
G01 X10.2996 Y-23.4629
G01 X10.2872 Y-23.4712
G01 X10.2144 Y-23.5254
G01 X10.1469 Y-23.5863
G01 X10.1364 Y-23.5969
G01 X10.0755 Y-23.6643
G01 X10.0212 Y-23.7372
G01 X10.0140 Y-23.7478
G01 X4.7360 Y-23.7478
G01 X4.7288 Y-23.7372
G01 X4.6791 Y-23.6702
G01 X4.6696 Y-23.6587
G01 X4.6085 Y-23.5915
G01 X4.5356 Y-23.5254
G01 X4.4567 Y-23.4669
G01 X4.3788 Y-23.4200
G01 X4.3657 Y-23.4130
G01 X4.2902 Y-23.3773
G01 X4.2800 Y-23.3729
G01 X4.1909 Y-23.3411
G01 X4.1027 Y-23.3189
G01 X4.0881 Y-23.3160
G01 X3.9982 Y-23.3028
G01 X3.9000 Y-23.2980
G01 X3.6000 Y-23.2980
G01 X3.5092 Y-23.3023
G01 X3.4944 Y-23.3037
G01 X3.4045 Y-23.3173
G01 X3.3091 Y-23.3411
G01 X3.2235 Y-23.3716
G01 X3.2098 Y-23.3773
G01 X3.1277 Y-23.4163
G01 X3.0496 Y-23.4629
G01 X3.0372 Y-23.4712
G01 X2.9644 Y-23.5254
G01 X2.8969 Y-23.5863
G01 X2.8864 Y-23.5969
G01 X2.8255 Y-23.6643
G01 X2.7712 Y-23.7372
G01 X2.7629 Y-23.7496
G01 X2.7200 Y-23.8211
G01 X2.7146 Y-23.8309
G01 X2.6743 Y-23.9165
G01 X2.6412 Y-24.0091
G01 X2.6173 Y-24.1045
G01 X2.6029 Y-24.2017
G01 X2.5981 Y-24.3000
G01 X2.6029 Y-24.3982
G01 X2.6173 Y-24.4954
G01 X2.6412 Y-24.5908
G01 X2.6743 Y-24.6834
G01 X2.7164 Y-24.7723
G01 X2.7669 Y-24.8566
G01 X2.8255 Y-24.9356
G01 X2.8915 Y-25.0084
G01 X2.9644 Y-25.0745
G01 X3.0433 Y-25.1330
G01 X3.1212 Y-25.1799
G01 X3.1310 Y-25.1853
G01 X3.2166 Y-25.2256
G01 X3.3091 Y-25.2588
G01 X3.4045 Y-25.2826
G01 X3.5018 Y-25.2971
G01 X3.6000 Y-25.3019
G01 X3.9037 Y-25.3019
G01 X3.9982 Y-25.2971
G01 X4.0955 Y-25.2826
G01 X4.1909 Y-25.2588
G01 X4.2834 Y-25.2256
G01 X4.3723 Y-25.1836
G01 X4.4567 Y-25.1330
G01 X4.5356 Y-25.0745
G01 X4.6085 Y-25.0084
G01 X4.6745 Y-24.9356
G01 X4.7288 Y-24.8627
G01 X4.7360 Y-24.8521
G00 Z1.0000
G00 X4.2561 Y-25.5245
G01 F60.00
G01 Z-0.0900
G01 F500.00
G01 X4.5104 Y-25.5246
G01 X4.5558 Y-25.5268
G01 X4.5766 Y-25.5289
G01 X4.6112 Y-25.5339
G01 X4.6318 Y-25.5375
G01 X4.6522 Y-25.5420
G01 X4.6759 Y-25.5480
G01 X4.6961 Y-25.5536
G01 X4.7159 Y-25.5601
G01 X4.7390 Y-25.5684
G01 X4.7585 Y-25.5759
G01 X4.7776 Y-25.5844
G01 X4.8091 Y-25.5994
G01 X4.8276 Y-25.6093
G01 X4.8665 Y-25.6326
G01 X4.8839 Y-25.6442
G01 X4.9204 Y-25.6713
G01 X4.9365 Y-25.6845
G01 X4.9701 Y-25.7150
G01 X4.9849 Y-25.7298
G01 X5.0154 Y-25.7635
G01 X5.0287 Y-25.7796
G01 X5.0557 Y-25.8161
G01 X5.0673 Y-25.8334
G01 X5.0907 Y-25.8724
G01 X5.1005 Y-25.8908
G01 X5.1199 Y-25.9319
G01 X5.1279 Y-25.9512
G01 X5.1363 Y-25.9743
G01 X9.6137 Y-25.9743
G01 X9.6221 Y-25.9512
G01 X9.6301 Y-25.9319
G01 X9.6495 Y-25.8908
G01 X9.6593 Y-25.8724
G01 X9.6827 Y-25.8334
G01 X9.6943 Y-25.8161
G01 X9.7213 Y-25.7796
G01 X9.7346 Y-25.7635
G01 X9.7651 Y-25.7298
G01 X9.7799 Y-25.7150
G01 X9.8135 Y-25.6845
G01 X9.8296 Y-25.6713
G01 X9.8661 Y-25.6442
G01 X9.8835 Y-25.6326
G01 X9.9224 Y-25.6093
G01 X9.9409 Y-25.5994
G01 X9.9724 Y-25.5844
G01 X9.9915 Y-25.5759
G01 X10.0110 Y-25.5684
G01 X10.0341 Y-25.5601
G01 X10.0539 Y-25.5536
G01 X10.0741 Y-25.5480
G01 X10.0978 Y-25.5420
G01 X10.1182 Y-25.5375
G01 X10.1388 Y-25.5339
G01 X10.1734 Y-25.5289
G01 X10.1942 Y-25.5268
G01 X10.2396 Y-25.5246
G01 X10.4939 Y-25.5245
G01 X10.4698 Y-25.5173
G01 X10.3814 Y-25.4858
G01 X10.3619 Y-25.4783
G01 X10.3428 Y-25.4699
G01 X10.2674 Y-25.4342
G01 X10.2488 Y-25.4248
G01 X10.2306 Y-25.4145
G01 X10.1501 Y-25.3662
G01 X10.1328 Y-25.3545
G01 X10.1243 Y-25.3484
G01 X10.0573 Y-25.2987
G01 X10.0409 Y-25.2859
G01 X10.0250 Y-25.2723
G01 X9.9632 Y-25.2162
G01 X9.9481 Y-25.2018
G01 X9.9337 Y-25.1867
G01 X9.8788 Y-25.1261
G01 X4.8716 Y-25.1256
G01 X4.8163 Y-25.1867
G01 X4.8019 Y-25.2018
G01 X4.7868 Y-25.2162
G01 X4.7250 Y-25.2723
G01 X4.7091 Y-25.2859
G01 X4.6927 Y-25.2987
G01 X4.6257 Y-25.3484
G01 X4.6086 Y-25.3605
G01 X4.5999 Y-25.3662
G01 X4.5194 Y-25.4145
G01 X4.5012 Y-25.4248
G01 X4.4826 Y-25.4342
G01 X4.4072 Y-25.4699
G01 X4.3881 Y-25.4783
G01 X4.3686 Y-25.4858
G01 X4.2802 Y-25.5173
G01 X4.2561 Y-25.5245
G00 Z1.0000
G00 X2.7843 Y-19.3381
G01 F60.00
G01 Z-0.0900
G01 F500.00
G01 X2.8676 Y-19.3340
G01 X2.9018 Y-19.3314
G01 X2.9359 Y-19.3272
G01 X3.0184 Y-19.3150
G01 X3.0522 Y-19.3091
G01 X3.0857 Y-19.3016
G01 X3.1666 Y-19.2813
G01 X3.1996 Y-19.2722
G01 X3.2322 Y-19.2614
G01 X3.3108 Y-19.2333
G01 X3.3428 Y-19.2210
G01 X3.3741 Y-19.2071
G01 X3.4495 Y-19.1714
G01 X3.4802 Y-19.1560
G01 X3.5100 Y-19.1391
G01 X3.5816 Y-19.0962
G01 X3.6106 Y-19.0778
G01 X3.6386 Y-19.0581
G01 X3.7056 Y-19.0084
G01 X3.7327 Y-18.9873
G01 X3.7586 Y-18.9649
G01 X3.8204 Y-18.9089
G01 X3.8413 Y-18.8891
G01 X5.1219 Y-18.8891
G01 X5.1614 Y-18.9249
G01 X5.1873 Y-18.9473
G01 X5.2144 Y-18.9684
G01 X5.2953 Y-19.0281
G01 X5.3238 Y-19.0472
G01 X5.3384 Y-19.0562
G01 X5.4100 Y-19.0991
G01 X5.4398 Y-19.1160
G01 X5.4705 Y-19.1314
G01 X5.5615 Y-19.1742
G01 X5.5772 Y-19.1810
G01 X5.6092 Y-19.1933
G01 X5.6878 Y-19.2214
G01 X5.7204 Y-19.2322
G01 X5.7534 Y-19.2413
G01 X5.8343 Y-19.2616
G01 X5.8678 Y-19.2691
G01 X5.8847 Y-19.2723
G01 X5.9841 Y-19.2872
G01 X6.0182 Y-19.2914
G01 X6.0524 Y-19.2940
G01 X6.1357 Y-19.2981
G01 X6.1528 Y-19.2987
G01 X6.1872 Y-19.2987
G01 X6.3047 Y-19.2929
G01 X6.3218 Y-19.2914
G01 X6.3559 Y-19.2872
G01 X6.4384 Y-19.2750
G01 X6.4722 Y-19.2691
G01 X6.5057 Y-19.2616
G01 X6.5866 Y-19.2413
G01 X6.6196 Y-19.2322
G01 X6.6522 Y-19.2214
G01 X6.7468 Y-19.1874
G01 X6.7785 Y-19.1742
G01 X6.8695 Y-19.1314
G01 X6.9002 Y-19.1160
G01 X6.9300 Y-19.0991
G01 X7.0016 Y-19.0562
G01 X7.0306 Y-19.0378
G01 X7.0447 Y-19.0281
G01 X7.1256 Y-18.9684
G01 X7.1527 Y-18.9473
G01 X7.1786 Y-18.9249
G01 X7.2530 Y-18.8572
G01 X7.2773 Y-18.8329
G01 X7.2889 Y-18.8204
G01 X7.3450 Y-18.7586
G01 X7.3674 Y-18.7326
G01 X7.3885 Y-18.7055
G01 X7.4382 Y-18.6385
G01 X7.4579 Y-18.6105
G01 X7.4673 Y-18.5961
G01 X7.5192 Y-18.5100
G01 X7.5361 Y-18.4801
G01 X7.5515 Y-18.4495
G01 X7.5872 Y-18.3741
G01 X7.6011 Y-18.3427
G01 X7.6134 Y-18.3107
G01 X7.6415 Y-18.2321
G01 X7.6523 Y-18.1996
G01 X7.6570 Y-18.1831
G01 X7.6817 Y-18.0856
G01 X7.6892 Y-18.0521
G01 X7.6951 Y-18.0183
G01 X7.7073 Y-17.9358
G01 X7.7115 Y-17.9018
G01 X7.7140 Y-17.8675
G01 X7.7181 Y-17.7842
G01 X7.7190 Y-17.7499
G01 X7.7188 Y-17.7328
G01 X7.7140 Y-17.6323
G01 X7.7115 Y-17.5981
G01 X7.7073 Y-17.5641
G01 X7.6951 Y-17.4815
G01 X7.6892 Y-17.4477
G01 X7.6817 Y-17.4143
G01 X7.6614 Y-17.3333
G01 X7.6523 Y-17.3003
G01 X7.6415 Y-17.2677
G01 X7.6134 Y-17.1892
G01 X7.6011 Y-17.1572
G01 X7.5872 Y-17.1258
G01 X7.5515 Y-17.0504
G01 X7.5361 Y-17.0197
G01 X7.5192 Y-16.9899
G01 X7.4763 Y-16.9183
G01 X7.4579 Y-16.8894
G01 X7.4382 Y-16.8613
G01 X7.3885 Y-16.7943
G01 X7.3674 Y-16.7673
G01 X7.3450 Y-16.7413
G01 X7.2889 Y-16.6795
G01 X7.2653 Y-16.6546
G01 X7.2404 Y-16.6310
G01 X7.1786 Y-16.5750
G01 X7.1527 Y-16.5526
G01 X7.1393 Y-16.5418
G01 X7.0586 Y-16.4818
G01 X7.0306 Y-16.4620
G01 X7.0016 Y-16.4436
G01 X6.9152 Y-16.3921
G01 X6.8850 Y-16.3760
G01 X6.7941 Y-16.3328
G01 X6.7628 Y-16.3189
G01 X6.7468 Y-16.3125
G01 X6.6522 Y-16.2784
G01 X6.6196 Y-16.2677
G01 X6.5866 Y-16.2585
G01 X6.5057 Y-16.2382
G01 X6.4722 Y-16.2307
G01 X6.4553 Y-16.2276
G01 X6.3559 Y-16.2126
G01 X6.3218 Y-16.2084
G01 X6.2876 Y-16.2059
G01 X6.2043 Y-16.2018
G01 X6.1700 Y-16.2010
G01 X6.1357 Y-16.2018
G01 X6.0524 Y-16.2059
G01 X6.0182 Y-16.2084
G01 X5.9841 Y-16.2126
G01 X5.8847 Y-16.2276
G01 X5.8510 Y-16.2343
G01 X5.7534 Y-16.2585
G01 X5.7204 Y-16.2677
G01 X5.6878 Y-16.2784
G01 X5.6092 Y-16.3065
G01 X5.5772 Y-16.3189
G01 X5.5459 Y-16.3328
G01 X5.4550 Y-16.3760
G01 X5.4248 Y-16.3921
G01 X5.3384 Y-16.4436
G01 X5.3094 Y-16.4620
G01 X5.2814 Y-16.4818
G01 X5.2007 Y-16.5418
G01 X5.1873 Y-16.5526
G01 X5.1614 Y-16.5750
G01 X5.0870 Y-16.6427
G01 X5.0627 Y-16.6669
G01 X5.0409 Y-16.6907
G01 X3.8409 Y-16.6904
G01 X3.8204 Y-16.6710
G01 X3.7586 Y-16.6150
G01 X3.7327 Y-16.5926
G01 X3.7056 Y-16.5714
G01 X3.6361 Y-16.5199
G01 X3.7056 Y-16.4684
G01 X3.7327 Y-16.4473
G01 X3.7586 Y-16.4249
G01 X3.8204 Y-16.3689
G01 X3.8413 Y-16.3491
G01 X5.1700 Y-16.3491
G01 X5.2043 Y-16.3483
G01 X5.2606 Y-16.3453
G01 X5.2948 Y-16.3419
G01 X5.3676 Y-16.3311
G01 X5.4012 Y-16.3244
G01 X5.4726 Y-16.3065
G01 X5.5054 Y-16.2966
G01 X5.5747 Y-16.2718
G01 X5.6064 Y-16.2587
G01 X5.6729 Y-16.2272
G01 X5.6881 Y-16.2193
G01 X5.7180 Y-16.2024
G01 X5.7517 Y-16.1822
G01 X5.7807 Y-16.1639
G01 X5.8087 Y-16.1441
G01 X5.8403 Y-16.1207
G01 X5.8673 Y-16.0996
G01 X5.8804 Y-16.0886
G01 X5.9224 Y-16.0508
G01 X5.9469 Y-16.0275
G01 X6.1759 Y-15.7988
G01 X6.2043 Y-15.7981
G01 X6.2876 Y-15.7940
G01 X6.3218 Y-15.7914
G01 X6.3559 Y-15.7872
G01 X6.4384 Y-15.7750
G01 X6.4722 Y-15.7691
G01 X6.5057 Y-15.7616
G01 X6.5866 Y-15.7413
G01 X6.6196 Y-15.7322
G01 X6.6522 Y-15.7214
G01 X6.7308 Y-15.6933
G01 X6.7468 Y-15.6874
G01 X6.7785 Y-15.6742
G01 X6.8695 Y-15.6314
G01 X6.9002 Y-15.6160
G01 X6.9300 Y-15.5991
G01 X7.0016 Y-15.5562
G01 X7.0306 Y-15.5378
G01 X7.0586 Y-15.5181
G01 X7.1256 Y-15.4684
G01 X7.1527 Y-15.4473
G01 X7.1786 Y-15.4249
G01 X7.2404 Y-15.3689
G01 X7.2653 Y-15.3452
G01 X7.2889 Y-15.3204
G01 X7.3450 Y-15.2586
G01 X7.3674 Y-15.2326
G01 X7.3885 Y-15.2055
G01 X7.4382 Y-15.1385
G01 X7.4579 Y-15.1105
G01 X7.4763 Y-15.0815
G01 X7.5192 Y-15.0100
G01 X7.5361 Y-14.9801
G01 X7.5515 Y-14.9495
G01 X7.5943 Y-14.8585
G01 X7.6074 Y-14.8268
G01 X7.6134 Y-14.8107
G01 X7.6471 Y-14.7159
G01 X7.6570 Y-14.6831
G01 X7.6817 Y-14.5856
G01 X7.6892 Y-14.5521
G01 X7.6923 Y-14.5352
G01 X7.7096 Y-14.4188
G01 X7.7115 Y-14.4018
G01 X7.7140 Y-14.3675
G01 X7.7181 Y-14.2842
G01 X7.7190 Y-14.2499
G01 X7.7181 Y-14.2156
G01 X7.7130 Y-14.1152
G01 X7.7096 Y-14.0810
G01 X7.7073 Y-14.0641
G01 X7.6951 Y-13.9815
G01 X7.6892 Y-13.9477
G01 X7.6817 Y-13.9143
G01 X7.6570 Y-13.8168
G01 X7.6523 Y-13.8003
G01 X7.6415 Y-13.7677
G01 X7.6134 Y-13.6892
G01 X7.6011 Y-13.6572
G01 X7.5872 Y-13.6258
G01 X7.5515 Y-13.5504
G01 X7.5440 Y-13.5350
G01 X7.5278 Y-13.5047
G01 X7.4763 Y-13.4183
G01 X7.4579 Y-13.3894
G01 X7.4382 Y-13.3613
G01 X7.3781 Y-13.2807
G01 X7.3674 Y-13.2673
G01 X7.3450 Y-13.2413
G01 X7.2889 Y-13.1795
G01 X7.2653 Y-13.1546
G01 X7.2404 Y-13.1310
G01 X7.1786 Y-13.0750
G01 X7.1527 Y-13.0526
G01 X7.1393 Y-13.0418
G01 X7.0586 Y-12.9818
G01 X7.0306 Y-12.9620
G01 X7.0016 Y-12.9436
G01 X6.9152 Y-12.8921
G01 X6.8850 Y-12.8760
G01 X6.8695 Y-12.8684
G01 X6.7941 Y-12.8328
G01 X6.7628 Y-12.8189
G01 X6.7308 Y-12.8065
G01 X6.6522 Y-12.7784
G01 X6.6196 Y-12.7677
G01 X6.6032 Y-12.7629
G01 X6.5057 Y-12.7382
G01 X6.4722 Y-12.7307
G01 X6.4384 Y-12.7249
G01 X6.3389 Y-12.7103
G01 X6.3218 Y-12.7084
G01 X6.2876 Y-12.7059
G01 X6.2043 Y-12.7018
G01 X6.1700 Y-12.7010
G01 X6.1357 Y-12.7018
G01 X6.0524 Y-12.7059
G01 X6.0353 Y-12.7069
G01 X6.0011 Y-12.7103
G01 X5.9016 Y-12.7249
G01 X5.8678 Y-12.7307
G01 X5.8343 Y-12.7382
G01 X5.7534 Y-12.7585
G01 X5.7204 Y-12.7677
G01 X5.7008 Y-12.7739
G01 X6.1761 Y-12.2988
G01 X6.2043 Y-12.2981
G01 X6.2876 Y-12.2940
G01 X6.3218 Y-12.2914
G01 X6.3559 Y-12.2872
G01 X6.4384 Y-12.2750
G01 X6.4722 Y-12.2691
G01 X6.4890 Y-12.2656
G01 X6.5866 Y-12.2413
G01 X6.6196 Y-12.2322
G01 X6.6522 Y-12.2214
G01 X6.7308 Y-12.1933
G01 X6.7628 Y-12.1810
G01 X6.7941 Y-12.1671
G01 X6.8695 Y-12.1314
G01 X6.9002 Y-12.1160
G01 X6.9300 Y-12.0991
G01 X7.0162 Y-12.0472
G01 X7.0447 Y-12.0281
G01 X7.1393 Y-11.9580
G01 X7.1658 Y-11.9363
G01 X7.1786 Y-11.9249
G01 X7.2404 Y-11.8689
G01 X7.2653 Y-11.8452
G01 X7.2889 Y-11.8204
G01 X7.3450 Y-11.7586
G01 X7.3674 Y-11.7326
G01 X7.3781 Y-11.7192
G01 X7.4382 Y-11.6385
G01 X7.4579 Y-11.6105
G01 X7.4763 Y-11.5815
G01 X7.5192 Y-11.5100
G01 X7.5278 Y-11.4951
G01 X7.5440 Y-11.4649
G01 X7.5872 Y-11.3741
G01 X7.6011 Y-11.3427
G01 X7.6134 Y-11.3107
G01 X7.6471 Y-11.2159
G01 X7.6570 Y-11.1831
G01 X7.6817 Y-11.0856
G01 X7.6892 Y-11.0521
G01 X7.6951 Y-11.0183
G01 X7.7073 Y-10.9358
G01 X7.7115 Y-10.9018
G01 X7.7140 Y-10.8675
G01 X7.7181 Y-10.7842
G01 X7.7190 Y-10.7499
G01 X7.7181 Y-10.7156
G01 X7.7140 Y-10.6323
G01 X7.7115 Y-10.5981
G01 X7.7073 Y-10.5641
G01 X7.6951 Y-10.4815
G01 X7.6892 Y-10.4477
G01 X7.6857 Y-10.4310
G01 X7.6614 Y-10.3333
G01 X7.6523 Y-10.3003
G01 X7.6415 Y-10.2677
G01 X7.6134 Y-10.1892
G01 X7.6011 Y-10.1572
G01 X7.5872 Y-10.1258
G01 X7.5515 Y-10.0504
G01 X7.5361 Y-10.0197
G01 X7.5192 Y-9.9899
G01 X7.4673 Y-9.9037
G01 X7.4579 Y-9.8894
G01 X7.4382 Y-9.8613
G01 X7.3885 Y-9.7943
G01 X7.3674 Y-9.7673
G01 X7.3450 Y-9.7413
G01 X7.2889 Y-9.6795
G01 X7.2653 Y-9.6546
G01 X7.2404 Y-9.6310
G01 X7.1786 Y-9.5750
G01 X7.1527 Y-9.5526
G01 X7.1256 Y-9.5314
G01 X7.0586 Y-9.4818
G01 X7.0306 Y-9.4620
G01 X7.0162 Y-9.4526
G01 X6.9300 Y-9.4008
G01 X6.9002 Y-9.3839
G01 X6.8695 Y-9.3684
G01 X6.7941 Y-9.3328
G01 X6.7628 Y-9.3189
G01 X6.7308 Y-9.3065
G01 X6.6522 Y-9.2784
G01 X6.6196 Y-9.2677
G01 X6.5866 Y-9.2585
G01 X6.4890 Y-9.2343
G01 X6.4553 Y-9.2276
G01 X6.4384 Y-9.2249
G01 X6.3559 Y-9.2126
G01 X6.3218 Y-9.2084
G01 X6.2876 Y-9.2059
G01 X6.1872 Y-9.2012
G01 X6.1528 Y-9.2012
G01 X6.0524 Y-9.2059
G01 X6.0182 Y-9.2084
G01 X5.9841 Y-9.2126
G01 X5.9016 Y-9.2249
G01 X5.8678 Y-9.2307
G01 X5.8343 Y-9.2382
G01 X5.7534 Y-9.2585
G01 X5.7204 Y-9.2677
G01 X5.6878 Y-9.2784
G01 X5.6092 Y-9.3065
G01 X5.5772 Y-9.3189
G01 X5.5459 Y-9.3328
G01 X5.4705 Y-9.3684
G01 X5.4398 Y-9.3839
G01 X5.4248 Y-9.3921
G01 X5.3384 Y-9.4436
G01 X5.3094 Y-9.4620
G01 X5.2814 Y-9.4818
G01 X5.2144 Y-9.5314
G01 X5.2007 Y-9.5418
G01 X5.1742 Y-9.5636
G01 X5.0996 Y-9.6310
G01 X5.0747 Y-9.6546
G01 X5.0511 Y-9.6795
G01 X4.9950 Y-9.7413
G01 X4.9726 Y-9.7673
G01 X4.9619 Y-9.7807
G01 X4.8918 Y-9.8752
G01 X4.8727 Y-9.9037
G01 X4.8208 Y-9.9899
G01 X4.8039 Y-10.0197
G01 X4.7885 Y-10.0504
G01 X4.7528 Y-10.1258
G01 X4.7389 Y-10.1572
G01 X4.7266 Y-10.1892
G01 X4.6985 Y-10.2677
G01 X4.6877 Y-10.3003
G01 X4.6786 Y-10.3333
G01 X4.6543 Y-10.4310
G01 X4.6477 Y-10.4646
G01 X4.6449 Y-10.4815
G01 X4.6327 Y-10.5641
G01 X4.6285 Y-10.5981
G01 X4.6260 Y-10.6323
G01 X4.6219 Y-10.7156
G01 X4.6211 Y-10.7444
G01 X4.2973 Y-11.0682
G01 X4.2988 Y-11.0371
G01 X4.2990 Y-11.0199
G01 X4.2990 Y-9.3199
G01 X4.2981 Y-9.2856
G01 X4.2956 Y-9.2514
G01 X4.2914 Y-9.2174
G01 X4.2855 Y-9.1836
G01 X4.2780 Y-9.1501
G01 X4.2737 Y-9.1335
G01 X4.2637 Y-9.1007
G01 X4.2521 Y-9.0684
G01 X4.2458 Y-9.0524
G01 X4.2319 Y-9.0211
G01 X4.2243 Y-9.0057
G01 X4.2164 Y-8.9904
G01 X4.1995 Y-8.9606
G01 X4.1812 Y-8.9316
G01 X4.1614 Y-8.9035
G01 X4.1403 Y-8.8765
G01 X4.1293 Y-8.8634
G01 X4.1062 Y-8.8380
G01 X4.0820 Y-8.8137
G01 X4.0694 Y-8.8020
G01 X4.0434 Y-8.7796
G01 X4.0164 Y-8.7585
G01 X4.0025 Y-8.7485
G01 X3.9739 Y-8.7294
G01 X3.9445 Y-8.7118
G01 X3.9295 Y-8.7035
G01 X3.9143 Y-8.6956
G01 X3.8833 Y-8.6809
G01 X3.8675 Y-8.6742
G01 X3.8492 Y-8.6669
G01 X3.8492 Y-6.7989
G01 X4.5000 Y-6.7989
G01 X4.5343 Y-6.7981
G01 X4.5759 Y-6.7958
G01 X4.5930 Y-6.7943
G01 X4.6271 Y-6.7901
G01 X4.6683 Y-6.7838
G01 X4.7019 Y-6.7771
G01 X4.7186 Y-6.7731
G01 X4.7590 Y-6.7628
G01 X4.7755 Y-6.7580
G01 X4.8080 Y-6.7473
G01 X4.8472 Y-6.7330
G01 X4.8632 Y-6.7267
G01 X4.8789 Y-6.7199
G01 X4.9167 Y-6.7023
G01 X4.9473 Y-6.6868
G01 X4.9624 Y-6.6786
G01 X4.9982 Y-6.6573
G01 X5.0272 Y-6.6390
G01 X5.0553 Y-6.6192
G01 X5.0886 Y-6.5942
G01 X5.1151 Y-6.5724
G01 X5.1587 Y-6.5329
G01 X5.1830 Y-6.5087
G01 X5.2112 Y-6.4779
G01 X5.2336 Y-6.4519
G01 X5.2547 Y-6.4249
G01 X5.2793 Y-6.3913
G01 X5.2890 Y-6.3771
G01 X5.3068 Y-6.3491
G01 X9.4432 Y-6.3491
G01 X9.4610 Y-6.3771
G01 X9.4707 Y-6.3913
G01 X9.4953 Y-6.4249
G01 X9.5164 Y-6.4519
G01 X9.5275 Y-6.4651
G01 X9.5553 Y-6.4961
G01 X9.5790 Y-6.5209
G01 X9.5913 Y-6.5329
G01 X9.6220 Y-6.5611
G01 X9.6480 Y-6.5835
G01 X9.6614 Y-6.5942
G01 X9.6947 Y-6.6192
G01 X9.7086 Y-6.6293
G01 X9.7372 Y-6.6483
G01 X9.7876 Y-6.6786
G01 X9.8179 Y-6.6947
G01 X9.8333 Y-6.7023
G01 X9.8711 Y-6.7199
G01 X9.8868 Y-6.7267
G01 X9.9189 Y-6.7390
G01 X9.9582 Y-6.7529
G01 X9.9745 Y-6.7580
G01 X10.0076 Y-6.7672
G01 X10.0481 Y-6.7771
G01 X10.0649 Y-6.7807
G01 X10.0987 Y-6.7865
G01 X10.1399 Y-6.7924
G01 X10.1570 Y-6.7943
G01 X10.1912 Y-6.7968
G01 X10.2328 Y-6.7987
G01 X10.2500 Y-6.7989
G01 X11.7500 Y-6.7989
G01 X11.7672 Y-6.7987
G01 X11.8088 Y-6.7968
G01 X11.8430 Y-6.7943
G01 X11.8771 Y-6.7901
G01 X11.9183 Y-6.7838
G01 X11.9351 Y-6.7807
G01 X11.9686 Y-6.7731
G01 X12.0090 Y-6.7628
G01 X12.0255 Y-6.7580
G01 X12.0580 Y-6.7473
G01 X12.0972 Y-6.7330
G01 X12.1132 Y-6.7267
G01 X12.1289 Y-6.7199
G01 X12.1667 Y-6.7023
G01 X12.1973 Y-6.6868
G01 X12.2124 Y-6.6786
G01 X12.2482 Y-6.6573
G01 X12.2772 Y-6.6390
G01 X12.2914 Y-6.6293
G01 X12.3386 Y-6.5942
G01 X12.3651 Y-6.5724
G01 X12.4087 Y-6.5329
G01 X12.4330 Y-6.5087
G01 X12.4725 Y-6.4651
G01 X12.4943 Y-6.4386
G01 X12.5293 Y-6.3913
G01 X12.5390 Y-6.3771
G01 X12.5568 Y-6.3491
G01 X16.6932 Y-6.3491
G01 X16.7110 Y-6.3771
G01 X16.7307 Y-6.4052
G01 X16.7557 Y-6.4386
G01 X16.7775 Y-6.4651
G01 X16.8053 Y-6.4961
G01 X16.8290 Y-6.5209
G01 X16.8538 Y-6.5446
G01 X16.8849 Y-6.5724
G01 X16.9114 Y-6.5942
G01 X16.9447 Y-6.6192
G01 X16.9728 Y-6.6390
G01 X16.9872 Y-6.6483
G01 X17.0228 Y-6.6699
G01 X17.0527 Y-6.6868
G01 X17.0833 Y-6.7023
G01 X17.1211 Y-6.7199
G01 X17.1528 Y-6.7330
G01 X17.1689 Y-6.7390
G01 X17.2082 Y-6.7529
G01 X17.2410 Y-6.7628
G01 X17.2814 Y-6.7731
G01 X17.3149 Y-6.7807
G01 X17.3487 Y-6.7865
G01 X17.3899 Y-6.7924
G01 X17.4241 Y-6.7958
G01 X17.4828 Y-6.7987
G01 X17.7408 Y-6.7989
G01 X17.7406 Y-10.1229
G01 X17.7099 Y-10.0585
G01 X17.6937 Y-10.0283
G01 X17.6447 Y-9.9461
G01 X17.6357 Y-9.9315
G01 X17.6166 Y-9.9030
G01 X17.5598 Y-9.8260
G01 X17.5387 Y-9.7990
G01 X17.5163 Y-9.7730
G01 X17.4519 Y-9.7023
G01 X17.4277 Y-9.6780
G01 X17.3569 Y-9.6136
G01 X17.3309 Y-9.5912
G01 X17.3039 Y-9.5701
G01 X17.2269 Y-9.5133
G01 X17.1984 Y-9.4942
G01 X17.1165 Y-9.4449
G01 X17.1016 Y-9.4362
G01 X17.0714 Y-9.4201
G01 X16.9850 Y-9.3790
G01 X16.9536 Y-9.3651
G01 X16.9216 Y-9.3527
G01 X16.8477 Y-9.3263
G01 X16.8151 Y-9.3155
G01 X16.7821 Y-9.3064
G01 X16.7059 Y-9.2873
G01 X16.6724 Y-9.2798
G01 X16.6386 Y-9.2739
G01 X16.5610 Y-9.2624
G01 X16.5269 Y-9.2582
G01 X16.5098 Y-9.2567
G01 X16.4143 Y-9.2518
G01 X16.3800 Y-9.2510
G01 X16.2628 Y-9.2512
G01 X16.1673 Y-9.2556
G01 X16.1331 Y-9.2582
G01 X16.0990 Y-9.2624
G01 X16.0214 Y-9.2739
G01 X15.9876 Y-9.2798
G01 X15.9541 Y-9.2873
G01 X15.8613 Y-9.3107
G01 X15.8285 Y-9.3207
G01 X15.7384 Y-9.3527
G01 X15.7064 Y-9.3651
G01 X15.6750 Y-9.3790
G01 X15.6040 Y-9.4125
G01 X15.5734 Y-9.4280
G01 X15.5435 Y-9.4449
G01 X15.4762 Y-9.4852
G01 X15.4472 Y-9.5036
G01 X15.4192 Y-9.5233
G01 X15.3561 Y-9.5701
G01 X15.3291 Y-9.5912
G01 X15.3031 Y-9.6136
G01 X15.2323 Y-9.6780
G01 X15.2081 Y-9.7023
G01 X15.1437 Y-9.7730
G01 X15.1213 Y-9.7990
G01 X15.1002 Y-9.8260
G01 X15.0434 Y-9.9030
G01 X15.0243 Y-9.9315
G01 X14.9749 Y-10.0135
G01 X14.9580 Y-10.0433
G01 X14.9426 Y-10.0740
G01 X14.9090 Y-10.1449
G01 X14.8951 Y-10.1763
G01 X14.8828 Y-10.2083
G01 X14.8563 Y-10.2822
G01 X14.8456 Y-10.3148
G01 X14.8364 Y-10.3479
G01 X14.8173 Y-10.4240
G01 X14.8098 Y-10.4575
G01 X14.8040 Y-10.4913
G01 X14.7901 Y-10.5860
G01 X14.7882 Y-10.6030
G01 X14.7857 Y-10.6372
G01 X14.7819 Y-10.7156
G01 X14.7810 Y-10.7499
G01 X14.7819 Y-10.7842
G01 X14.7857 Y-10.8626
G01 X14.7882 Y-10.8969
G01 X14.7924 Y-10.9309
G01 X14.8040 Y-11.0086
G01 X14.8098 Y-11.0424
G01 X14.8173 Y-11.0758
G01 X14.8364 Y-11.1520
G01 X14.8456 Y-11.1851
G01 X14.8563 Y-11.2176
G01 X14.8828 Y-11.2915
G01 X14.8951 Y-11.3236
G01 X14.9090 Y-11.3549
G01 X14.9426 Y-11.4259
G01 X14.9580 Y-11.4565
G01 X14.9663 Y-11.4716
G01 X15.0153 Y-11.5537
G01 X15.0243 Y-11.5683
G01 X15.0434 Y-11.5969
G01 X15.1106 Y-11.6875
G01 X15.1323 Y-11.7140
G01 X15.1508 Y-11.7347
G01 X15.1508 Y-13.2651
G01 X15.1323 Y-13.2859
G01 X15.1213 Y-13.2990
G01 X15.1002 Y-13.3260
G01 X15.0434 Y-13.4030
G01 X15.0337 Y-13.4171
G01 X15.0153 Y-13.4461
G01 X14.9663 Y-13.5283
G01 X14.9501 Y-13.5585
G01 X14.9090 Y-13.6449
G01 X14.9019 Y-13.6605
G01 X14.8888 Y-13.6922
G01 X14.8563 Y-13.7822
G01 X14.8456 Y-13.8148
G01 X14.8364 Y-13.8479
G01 X14.8173 Y-13.9240
G01 X14.8098 Y-13.9575
G01 X14.8040 Y-13.9913
G01 X14.7924 Y-14.0690
G01 X14.7882 Y-14.1030
G01 X14.7857 Y-14.1372
G01 X14.7819 Y-14.2156
G01 X14.7810 Y-14.2499
G01 X14.7819 Y-14.2842
G01 X14.7857 Y-14.3626
G01 X14.7882 Y-14.3969
G01 X14.7924 Y-14.4309
G01 X14.8040 Y-14.5086
G01 X14.8098 Y-14.5424
G01 X14.8173 Y-14.5758
G01 X14.8364 Y-14.6520
G01 X14.8456 Y-14.6851
G01 X14.8563 Y-14.7176
G01 X14.8888 Y-14.8076
G01 X14.8951 Y-14.8236
G01 X14.9090 Y-14.8549
G01 X14.9501 Y-14.9413
G01 X14.9663 Y-14.9716
G01 X15.0153 Y-15.0537
G01 X15.0337 Y-15.0827
G01 X15.0434 Y-15.0969
G01 X15.1002 Y-15.1738
G01 X15.1213 Y-15.2009
G01 X15.1323 Y-15.2140
G01 X15.1508 Y-15.2347
G01 X15.1508 Y-16.7651
G01 X15.1323 Y-16.7859
G01 X15.1106 Y-16.8124
G01 X15.0434 Y-16.9030
G01 X15.0243 Y-16.9315
G01 X15.0153 Y-16.9461
G01 X14.9749 Y-17.0135
G01 X14.9580 Y-17.0433
G01 X14.9426 Y-17.0740
G01 X14.9090 Y-17.1449
G01 X14.8951 Y-17.1763
G01 X14.8828 Y-17.2083
G01 X14.8563 Y-17.2822
G01 X14.8456 Y-17.3148
G01 X14.8408 Y-17.3313
G01 X14.8134 Y-17.4407
G01 X14.8067 Y-17.4744
G01 X14.8040 Y-17.4913
G01 X14.7924 Y-17.5690
G01 X14.7882 Y-17.6030
G01 X14.7857 Y-17.6372
G01 X14.7819 Y-17.7156
G01 X14.7810 Y-17.7499
G01 X14.7812 Y-17.7671
G01 X14.7868 Y-17.8798
G01 X14.7882 Y-17.8969
G01 X14.7924 Y-17.9309
G01 X14.8067 Y-18.0255
G01 X14.8134 Y-18.0591
G01 X14.8173 Y-18.0758
G01 X14.8408 Y-18.1686
G01 X14.8508 Y-18.2014
G01 X14.8828 Y-18.2915
G01 X14.8951 Y-18.3236
G01 X14.9019 Y-18.3393
G01 X14.9426 Y-18.4259
G01 X14.9580 Y-18.4565
G01 X14.9749 Y-18.4864
G01 X15.0153 Y-18.5537
G01 X15.0337 Y-18.5827
G01 X15.0534 Y-18.6108
G01 X15.1002 Y-18.6738
G01 X15.1213 Y-18.7009
G01 X15.1437 Y-18.7268
G01 X15.1964 Y-18.7850
G01 X15.2201 Y-18.8099
G01 X15.2449 Y-18.8335
G01 X15.3031 Y-18.8862
G01 X15.3291 Y-18.9086
G01 X15.3561 Y-18.9298
G01 X15.4192 Y-18.9765
G01 X15.4472 Y-18.9963
G01 X15.4762 Y-19.0146
G01 X15.5584 Y-19.0636
G01 X15.5886 Y-19.0798
G01 X15.6750 Y-19.1209
G01 X15.7064 Y-19.1348
G01 X15.7384 Y-19.1471
G01 X15.8123 Y-19.1736
G01 X15.8449 Y-19.1844
G01 X15.8779 Y-19.1935
G01 X15.9541 Y-19.2126
G01 X15.9876 Y-19.2201
G01 X16.0214 Y-19.2260
G01 X16.0990 Y-19.2375
G01 X16.1331 Y-19.2417
G01 X16.1673 Y-19.2442
G01 X16.2628 Y-19.2487
G01 X16.3972 Y-19.2487
G01 X16.4927 Y-19.2442
G01 X16.5269 Y-19.2417
G01 X16.5440 Y-19.2398
G01 X16.6386 Y-19.2260
G01 X16.6724 Y-19.2201
G01 X16.6892 Y-19.2165
G01 X16.7987 Y-19.1891
G01 X16.8315 Y-19.1792
G01 X16.8477 Y-19.1736
G01 X16.9377 Y-19.1412
G01 X16.9694 Y-19.1280
G01 X17.0714 Y-19.0798
G01 X17.1016 Y-19.0636
G01 X17.1165 Y-19.0550
G01 X17.1984 Y-19.0056
G01 X17.2269 Y-18.9866
G01 X17.2408 Y-18.9765
G01 X17.3039 Y-18.9298
G01 X17.3309 Y-18.9086
G01 X17.3569 Y-18.8862
G01 X17.3979 Y-18.8491
G01 X17.7321 Y-18.8491
G01 X17.7731 Y-18.8862
G01 X17.7991 Y-18.9086
G01 X17.8261 Y-18.9298
G01 X17.9031 Y-18.9866
G01 X17.9316 Y-19.0056
G01 X18.0135 Y-19.0550
G01 X18.0434 Y-19.0719
G01 X18.0586 Y-19.0798
G01 X18.1450 Y-19.1209
G01 X18.1764 Y-19.1348
G01 X18.2084 Y-19.1471
G01 X18.2823 Y-19.1736
G01 X18.3149 Y-19.1844
G01 X18.3313 Y-19.1891
G01 X18.4241 Y-19.2126
G01 X18.4576 Y-19.2201
G01 X18.4914 Y-19.2260
G01 X18.5690 Y-19.2375
G01 X18.5860 Y-19.2398
G01 X18.6202 Y-19.2431
G01 X18.7328 Y-19.2487
G01 X18.7672 Y-19.2487
G01 X18.7843 Y-19.2481
G01 X18.8627 Y-19.2442
G01 X18.8969 Y-19.2417
G01 X18.9310 Y-19.2375
G01 X19.0086 Y-19.2260
G01 X19.0424 Y-19.2201
G01 X19.0592 Y-19.2165
G01 X19.1687 Y-19.1891
G01 X19.1851 Y-19.1844
G01 X19.2177 Y-19.1736
G01 X19.2916 Y-19.1471
G01 X19.3236 Y-19.1348
G01 X19.3550 Y-19.1209
G01 X19.4414 Y-19.0798
G01 X19.4716 Y-19.0636
G01 X19.4865 Y-19.0550
G01 X19.5538 Y-19.0146
G01 X19.5828 Y-18.9963
G01 X19.6108 Y-18.9765
G01 X19.6739 Y-18.9298
G01 X19.6875 Y-18.9194
G01 X19.7141 Y-18.8976
G01 X19.7851 Y-18.8335
G01 X19.8099 Y-18.8099
G01 X19.8336 Y-18.7850
G01 X19.8977 Y-18.7140
G01 X19.9194 Y-18.6875
G01 X19.9298 Y-18.6738
G01 X19.9766 Y-18.6108
G01 X19.9963 Y-18.5827
G01 X20.0147 Y-18.5537
G01 X20.0551 Y-18.4864
G01 X20.0720 Y-18.4565
G01 X20.0799 Y-18.4413
G01 X20.1210 Y-18.3549
G01 X20.1349 Y-18.3236
G01 X20.1472 Y-18.2915
G01 X20.1737 Y-18.2176
G01 X20.1792 Y-18.2014
G01 X20.1892 Y-18.1686
G01 X20.2127 Y-18.0758
G01 X20.2202 Y-18.0424
G01 X20.2260 Y-18.0086
G01 X20.2376 Y-17.9309
G01 X20.2418 Y-17.8969
G01 X20.2443 Y-17.8626
G01 X20.2481 Y-17.7842
G01 X20.2490 Y-17.7499
G01 X20.2481 Y-17.7156
G01 X20.2443 Y-17.6372
G01 X20.2418 Y-17.6030
G01 X20.2376 Y-17.5690
G01 X20.2233 Y-17.4744
G01 X20.2166 Y-17.4407
G01 X20.1936 Y-17.3479
G01 X20.1844 Y-17.3148
G01 X20.1737 Y-17.2822
G01 X20.1472 Y-17.2083
G01 X20.1349 Y-17.1763
G01 X20.1210 Y-17.1449
G01 X20.0874 Y-17.0740
G01 X20.0720 Y-17.0433
G01 X20.0551 Y-17.0135
G01 X20.0057 Y-16.9315
G01 X19.9866 Y-16.9030
G01 X19.9298 Y-16.8260
G01 X19.9087 Y-16.7990
G01 X19.8863 Y-16.7730
G01 X19.8336 Y-16.7148
G01 X19.8099 Y-16.6900
G01 X19.7851 Y-16.6663
G01 X19.7269 Y-16.6136
G01 X19.7009 Y-16.5912
G01 X19.6739 Y-16.5701
G01 X19.6108 Y-16.5233
G01 X19.5828 Y-16.5036
G01 X19.5538 Y-16.4852
G01 X19.4865 Y-16.4449
G01 X19.4566 Y-16.4280
G01 X19.4260 Y-16.4125
G01 X19.3550 Y-16.3790
G01 X19.3236 Y-16.3651
G01 X19.2916 Y-16.3527
G01 X19.2177 Y-16.3263
G01 X19.1851 Y-16.3155
G01 X19.1687 Y-16.3107
G01 X19.0759 Y-16.2873
G01 X19.0424 Y-16.2798
G01 X19.0086 Y-16.2739
G01 X18.9140 Y-16.2601
G01 X18.8969 Y-16.2582
G01 X18.8627 Y-16.2556
G01 X18.7843 Y-16.2518
G01 X18.7500 Y-16.2510
G01 X18.7157 Y-16.2518
G01 X18.6202 Y-16.2567
G01 X18.6031 Y-16.2582
G01 X18.5690 Y-16.2624
G01 X18.4744 Y-16.2766
G01 X18.4408 Y-16.2833
G01 X18.3479 Y-16.3064
G01 X18.3149 Y-16.3155
G01 X18.2823 Y-16.3263
G01 X18.1923 Y-16.3587
G01 X18.1606 Y-16.3718
G01 X18.0740 Y-16.4125
G01 X18.0434 Y-16.4280
G01 X18.0135 Y-16.4449
G01 X17.9462 Y-16.4852
G01 X17.9172 Y-16.5036
G01 X17.8892 Y-16.5233
G01 X17.8125 Y-16.5805
G01 X17.7859 Y-16.6023
G01 X17.7321 Y-16.6508
G01 X17.3979 Y-16.6508
G01 X17.3492 Y-16.6068
G01 X17.3492 Y-15.3931
G01 X17.4277 Y-15.3218
G01 X17.4519 Y-15.2976
G01 X17.5277 Y-15.2140
G01 X17.5494 Y-15.1875
G01 X17.5789 Y-15.1481
G01 X17.6215 Y-15.2055
G01 X17.6426 Y-15.2326
G01 X17.6650 Y-15.2586
G01 X17.7327 Y-15.3329
G01 X17.7570 Y-15.3572
G01 X17.8314 Y-15.4249
G01 X17.8573 Y-15.4473
G01 X17.8707 Y-15.4580
G01 X17.9514 Y-15.5181
G01 X17.9794 Y-15.5378
G01 X18.0084 Y-15.5562
G01 X18.0800 Y-15.5991
G01 X18.0948 Y-15.6077
G01 X18.1250 Y-15.6239
G01 X18.2159 Y-15.6671
G01 X18.2472 Y-15.6810
G01 X18.2792 Y-15.6933
G01 X18.3740 Y-15.7270
G01 X18.3904 Y-15.7322
G01 X18.4234 Y-15.7413
G01 X18.5043 Y-15.7616
G01 X18.5378 Y-15.7691
G01 X18.5716 Y-15.7750
G01 X18.6541 Y-15.7872
G01 X18.6882 Y-15.7914
G01 X18.7224 Y-15.7940
G01 X18.8228 Y-15.7987
G01 X18.8572 Y-15.7987
G01 X18.8743 Y-15.7981
G01 X18.9576 Y-15.7940
G01 X18.9918 Y-15.7914
G01 X19.0259 Y-15.7872
G01 X19.1253 Y-15.7723
G01 X19.1590 Y-15.7656
G01 X19.2566 Y-15.7413
G01 X19.2896 Y-15.7322
G01 X19.3222 Y-15.7214
G01 X19.4008 Y-15.6933
G01 X19.4328 Y-15.6810
G01 X19.4641 Y-15.6671
G01 X19.5550 Y-15.6239
G01 X19.5852 Y-15.6077
G01 X19.6716 Y-15.5562
G01 X19.7006 Y-15.5378
G01 X19.7147 Y-15.5281
G01 X19.7956 Y-15.4684
G01 X19.8227 Y-15.4473
G01 X19.8486 Y-15.4249
G01 X19.9104 Y-15.3689
G01 X19.9230 Y-15.3572
G01 X19.9473 Y-15.3329
G01 X20.0150 Y-15.2586
G01 X20.0374 Y-15.2326
G01 X20.0585 Y-15.2055
G01 X20.1182 Y-15.1246
G01 X20.1373 Y-15.0961
G01 X20.1463 Y-15.0815
G01 X20.1892 Y-15.0100
G01 X20.2061 Y-14.9801
G01 X20.2215 Y-14.9495
G01 X20.2643 Y-14.8585
G01 X20.2774 Y-14.8268
G01 X20.3115 Y-14.7321
G01 X20.3223 Y-14.6996
G01 X20.3314 Y-14.6665
G01 X20.3517 Y-14.5856
G01 X20.3592 Y-14.5521
G01 X20.3651 Y-14.5183
G01 X20.3773 Y-14.4358
G01 X20.3815 Y-14.4018
G01 X20.3830 Y-14.3847
G01 X20.3881 Y-14.2842
G01 X20.3890 Y-14.2499
G01 X20.3881 Y-14.2156
G01 X20.3830 Y-14.1152
G01 X20.3796 Y-14.0810
G01 X20.3773 Y-14.0641
G01 X20.3651 Y-13.9815
G01 X20.3592 Y-13.9477
G01 X20.3517 Y-13.9143
G01 X20.3314 Y-13.8333
G01 X20.3270 Y-13.8168
G01 X20.3171 Y-13.7839
G01 X20.2834 Y-13.6892
G01 X20.2711 Y-13.6572
G01 X20.2572 Y-13.6258
G01 X20.2215 Y-13.5504
G01 X20.2061 Y-13.5197
G01 X20.1978 Y-13.5047
G01 X20.1463 Y-13.4183
G01 X20.1279 Y-13.3894
G01 X20.1082 Y-13.3613
G01 X20.0585 Y-13.2943
G01 X20.0481 Y-13.2807
G01 X20.0263 Y-13.2541
G01 X19.9589 Y-13.1795
G01 X19.9392 Y-13.1586
G01 X19.9392 Y-6.3491
G01 X21.9821 Y-6.3491
G01 X22.0359 Y-6.3976
G01 X22.0625 Y-6.4194
G01 X22.1392 Y-6.4765
G01 X22.1672 Y-6.4963
G01 X22.1816 Y-6.5056
G01 X22.2635 Y-6.5550
