(G-CODE GENERATED BY FLATCAM v8.994 - www.flatcam.org - Version Date: 2020/11/7)

(Name: SolarAmp-Edge_Cuts.gbr_panelized_cutout_cnc)
(Type: G-code from Geometry)
(Units: MM)

(Created on Monday, 01 July 2024 at 18:30)

(This preprocessor is the default preprocessor used by FlatCAM.)
(It is made to work with MACH3 compatible motion controllers.)

(TOOL DIAMETER: 2.0 mm)
(Feedrate_XY: 120.0 mm/min)
(Feedrate_Z: 60.0 mm/min)
(Feedrate rapids 1500.0 mm/min)

(Z_Cut: -1.8 mm)
(DepthPerCut: 0.9 mm <=>2 passes)
(Z_Move: 1.0 mm)
(Z Start: None mm)
(Z End: 15.0 mm)
(X,Y End: None mm)
(Steps per circle: 64)
(Preprocessor Geometry: default)

(X range:   -1.1250 ...  103.1750  mm)
(Y range:  -85.2750 ...    1.1251  mm)

(Spindle Speed: 0.0 RPM)
G21
G90
G94

G01 F120.00

M5
G00 Z15.0000
G00 X0.0000 Y0.0000
T1
M6    
(MSG, Change to Tool Dia = 2.0000)
M0
G00 Z15.0000

M03
G01 F120.00
G00 X-1.1250 Y0.0001
G01 F60.00
G01 Z-0.9000
G01 F120.00
G01 X-1.1236 Y0.0565
G01 X-1.1130 Y0.1639
G01 X-1.0916 Y0.2722
G01 X-1.0596 Y0.3779
G01 X-1.0175 Y0.4800
G01 X-0.9656 Y0.5774
G01 X-0.9043 Y0.6692
G01 X-0.8344 Y0.7547
G01 X-0.7564 Y0.8328
G01 X-0.6711 Y0.9029
G01 X-0.5794 Y0.9644
G01 X-0.4821 Y1.0165
G01 X-0.3802 Y1.0589
G01 X-0.2745 Y1.0910
G01 X-0.1663 Y1.1127
G01 X-0.0564 Y1.1236
G01 X0.0000 Y1.1251
G01 X50.0000 Y1.1251
G01 X50.0564 Y1.1236
G01 X50.1663 Y1.1127
G01 X50.2745 Y1.0910
G01 X50.3802 Y1.0589
G01 X50.4799 Y1.0176
G01 X50.5773 Y0.9656
G01 X50.6711 Y0.9029
G01 X50.7546 Y0.8345
G01 X50.8327 Y0.7565
G01 X50.9043 Y0.6692
G01 X50.9643 Y0.5795
G01 X51.0164 Y0.4822
G01 X51.0596 Y0.3779
G01 X51.0916 Y0.2722
G01 X51.1126 Y0.1664
G01 X51.1237 Y0.0540
G01 X51.1250 Y0.0001
G01 X51.1250 Y-19.4999
G01 X51.1236 Y-19.5564
G01 X51.1126 Y-19.6662
G01 X51.0910 Y-19.7745
G01 X51.0588 Y-19.8801
G01 X51.0164 Y-19.9820
G01 X50.9656 Y-20.0772
G01 X50.9029 Y-20.1711
G01 X50.8344 Y-20.2545
G01 X50.7564 Y-20.3327
G01 X50.6692 Y-20.4043
G01 X50.5773 Y-20.4655
G01 X50.4821 Y-20.5164
G01 X50.3778 Y-20.5596
G01 X50.2745 Y-20.5909
G01 X50.1663 Y-20.6126
G01 X50.0564 Y-20.6235
G01 X50.0000 Y-20.6249
G01 X0.0000 Y-20.6249
G01 X-0.0564 Y-20.6235
G01 X-0.1663 Y-20.6126
G01 X-0.2745 Y-20.5909
G01 X-0.3802 Y-20.5587
G01 X-0.4821 Y-20.5164
G01 X-0.5773 Y-20.4655
G01 X-0.6711 Y-20.4028
G01 X-0.7546 Y-20.3343
G01 X-0.8327 Y-20.2563
G01 X-0.9043 Y-20.1691
G01 X-0.9643 Y-20.0793
G01 X-1.0164 Y-19.9820
G01 X-1.0596 Y-19.8778
G01 X-1.0910 Y-19.7745
G01 X-1.1126 Y-19.6662
G01 X-1.1237 Y-19.5539
G01 X-1.1250 Y-19.4999
G01 X-1.1250 Y0.0001
G00 X-1.1250 Y0.0001
G01 F60.00
G01 Z-1.8000
G01 F120.00
G01 X-1.1250 Y-19.4999
G01 X-1.1237 Y-19.5539
G01 X-1.1126 Y-19.6662
G01 X-1.0910 Y-19.7745
G01 X-1.0596 Y-19.8778
G01 X-1.0164 Y-19.9820
G01 X-0.9643 Y-20.0793
G01 X-0.9043 Y-20.1691
G01 X-0.8327 Y-20.2563
G01 X-0.7546 Y-20.3343
G01 X-0.6711 Y-20.4028
G01 X-0.5773 Y-20.4655
G01 X-0.4821 Y-20.5164
G01 X-0.3802 Y-20.5587
G01 X-0.2745 Y-20.5909
G01 X-0.1663 Y-20.6126
G01 X-0.0564 Y-20.6235
G01 X0.0000 Y-20.6249
G01 X50.0000 Y-20.6249
G01 X50.0564 Y-20.6235
G01 X50.1663 Y-20.6126
G01 X50.2745 Y-20.5909
G01 X50.3778 Y-20.5596
G01 X50.4821 Y-20.5164
G01 X50.5773 Y-20.4655
G01 X50.6692 Y-20.4043
G01 X50.7564 Y-20.3327
G01 X50.8344 Y-20.2545
G01 X50.9029 Y-20.1711
G01 X50.9656 Y-20.0772
G01 X51.0164 Y-19.9820
G01 X51.0588 Y-19.8801
G01 X51.0910 Y-19.7745
G01 X51.1126 Y-19.6662
G01 X51.1236 Y-19.5564
G01 X51.1250 Y-19.4999
G01 X51.1250 Y0.0001
G01 X51.1237 Y0.0540
G01 X51.1126 Y0.1664
G01 X51.0916 Y0.2722
G01 X51.0596 Y0.3779
G01 X51.0164 Y0.4822
G01 X50.9643 Y0.5795
G01 X50.9043 Y0.6692
G01 X50.8327 Y0.7565
G01 X50.7546 Y0.8345
G01 X50.6711 Y0.9029
G01 X50.5773 Y0.9656
G01 X50.4799 Y1.0176
G01 X50.3802 Y1.0589
G01 X50.2745 Y1.0910
G01 X50.1663 Y1.1127
G01 X50.0564 Y1.1236
G01 X50.0000 Y1.1251
G01 X0.0000 Y1.1251
G01 X-0.0564 Y1.1236
G01 X-0.1663 Y1.1127
G01 X-0.2745 Y1.0910
G01 X-0.3802 Y1.0589
G01 X-0.4821 Y1.0165
G01 X-0.5794 Y0.9644
G01 X-0.6711 Y0.9029
G01 X-0.7564 Y0.8328
G01 X-0.8344 Y0.7547
G01 X-0.9043 Y0.6692
G01 X-0.9656 Y0.5774
G01 X-1.0175 Y0.4800
G01 X-1.0596 Y0.3779
G01 X-1.0916 Y0.2722
G01 X-1.1130 Y0.1639
G01 X-1.1236 Y0.0565
G01 X-1.1250 Y0.0001
G00 Z1.0000
G00 X-1.1250 Y-21.5500
G01 F60.00
G01 Z-0.9000
G01 F120.00
G01 X-1.1236 Y-21.4935
G01 X-1.1130 Y-21.3861
G01 X-1.0916 Y-21.2778
G01 X-1.0596 Y-21.1721
G01 X-1.0175 Y-21.0701
G01 X-0.9656 Y-20.9726
G01 X-0.9043 Y-20.8808
G01 X-0.8344 Y-20.7954
G01 X-0.7564 Y-20.7172
G01 X-0.6711 Y-20.6471
G01 X-0.5794 Y-20.5857
G01 X-0.4821 Y-20.5335
G01 X-0.3802 Y-20.4911
G01 X-0.2745 Y-20.4590
G01 X-0.1663 Y-20.4373
G01 X-0.0564 Y-20.4264
G01 X0.0000 Y-20.4249
G01 X50.0000 Y-20.4249
G01 X50.0564 Y-20.4264
G01 X50.1663 Y-20.4373
G01 X50.2745 Y-20.4590
G01 X50.3802 Y-20.4911
G01 X50.4799 Y-20.5325
G01 X50.5773 Y-20.5844
G01 X50.6711 Y-20.6471
G01 X50.7564 Y-20.7172
G01 X50.8327 Y-20.7935
G01 X50.9043 Y-20.8808
G01 X50.9656 Y-20.9726
G01 X51.0164 Y-21.0678
G01 X51.0596 Y-21.1721
G01 X51.0916 Y-21.2778
G01 X51.1126 Y-21.3837
G01 X51.1237 Y-21.4960
G01 X51.1250 Y-21.5500
G01 X51.1250 Y-41.0500
G01 X51.1236 Y-41.1064
G01 X51.1126 Y-41.2162
G01 X51.0910 Y-41.3245
G01 X51.0588 Y-41.4301
G01 X51.0164 Y-41.5321
G01 X50.9656 Y-41.6273
G01 X50.9029 Y-41.7211
G01 X50.8327 Y-41.8064
G01 X50.7564 Y-41.8827
G01 X50.6692 Y-41.9543
G01 X50.5794 Y-42.0142
G01 X50.4821 Y-42.0664
G01 X50.3778 Y-42.1096
G01 X50.2745 Y-42.1409
G01 X50.1663 Y-42.1626
G01 X50.0564 Y-42.1735
G01 X50.0000 Y-42.1750
G01 X0.0000 Y-42.1750
G01 X-0.0564 Y-42.1735
G01 X-0.1663 Y-42.1626
G01 X-0.2745 Y-42.1409
G01 X-0.3802 Y-42.1088
G01 X-0.4799 Y-42.0674
G01 X-0.5773 Y-42.0155
G01 X-0.6711 Y-41.9528
G01 X-0.7564 Y-41.8827
G01 X-0.8327 Y-41.8064
G01 X-0.9043 Y-41.7191
G01 X-0.9643 Y-41.6294
G01 X-1.0164 Y-41.5321
G01 X-1.0596 Y-41.4278
G01 X-1.0916 Y-41.3221
G01 X-1.1126 Y-41.2162
G01 X-1.1237 Y-41.1039
G01 X-1.1250 Y-41.0500
G01 X-1.1250 Y-21.5500
G00 X-1.1250 Y-21.5500
G01 F60.00
G01 Z-1.8000
G01 F120.00
G01 X-1.1250 Y-41.0500
G01 X-1.1237 Y-41.1039
G01 X-1.1126 Y-41.2162
G01 X-1.0916 Y-41.3221
G01 X-1.0596 Y-41.4278
G01 X-1.0164 Y-41.5321
G01 X-0.9643 Y-41.6294
G01 X-0.9043 Y-41.7191
G01 X-0.8327 Y-41.8064
G01 X-0.7564 Y-41.8827
G01 X-0.6711 Y-41.9528
G01 X-0.5773 Y-42.0155
G01 X-0.4799 Y-42.0674
G01 X-0.3802 Y-42.1088
G01 X-0.2745 Y-42.1409
G01 X-0.1663 Y-42.1626
G01 X-0.0564 Y-42.1735
G01 X0.0000 Y-42.1750
G01 X50.0000 Y-42.1750
G01 X50.0564 Y-42.1735
G01 X50.1663 Y-42.1626
G01 X50.2745 Y-42.1409
G01 X50.3778 Y-42.1096
G01 X50.4821 Y-42.0664
G01 X50.5794 Y-42.0142
G01 X50.6692 Y-41.9543
G01 X50.7564 Y-41.8827
G01 X50.8327 Y-41.8064
G01 X50.9029 Y-41.7211
G01 X50.9656 Y-41.6273
G01 X51.0164 Y-41.5321
G01 X51.0588 Y-41.4301
G01 X51.0910 Y-41.3245
G01 X51.1126 Y-41.2162
G01 X51.1236 Y-41.1064
G01 X51.1250 Y-41.0500
G01 X51.1250 Y-21.5500
G01 X51.1237 Y-21.4960
G01 X51.1126 Y-21.3837
G01 X51.0916 Y-21.2778
G01 X51.0596 Y-21.1721
G01 X51.0164 Y-21.0678
G01 X50.9656 Y-20.9726
G01 X50.9043 Y-20.8808
G01 X50.8327 Y-20.7935
G01 X50.7564 Y-20.7172
G01 X50.6711 Y-20.6471
G01 X50.5773 Y-20.5844
G01 X50.4799 Y-20.5325
G01 X50.3802 Y-20.4911
G01 X50.2745 Y-20.4590
G01 X50.1663 Y-20.4373
G01 X50.0564 Y-20.4264
G01 X50.0000 Y-20.4249
G01 X0.0000 Y-20.4249
G01 X-0.0564 Y-20.4264
G01 X-0.1663 Y-20.4373
G01 X-0.2745 Y-20.4590
G01 X-0.3802 Y-20.4911
G01 X-0.4821 Y-20.5335
G01 X-0.5794 Y-20.5857
G01 X-0.6711 Y-20.6471
G01 X-0.7564 Y-20.7172
G01 X-0.8344 Y-20.7954
G01 X-0.9043 Y-20.8808
G01 X-0.9656 Y-20.9726
G01 X-1.0175 Y-21.0701
G01 X-1.0596 Y-21.1721
G01 X-1.0916 Y-21.2778
G01 X-1.1130 Y-21.3861
G01 X-1.1236 Y-21.4935
G01 X-1.1250 Y-21.5500
G00 Z1.0000
G00 X-1.1250 Y-43.1000
G01 F60.00
G01 Z-0.9000
G01 F120.00
G01 X-1.1236 Y-43.0435
G01 X-1.1130 Y-42.9361
G01 X-1.0916 Y-42.8278
G01 X-1.0596 Y-42.7221
G01 X-1.0175 Y-42.6201
G01 X-0.9656 Y-42.5227
G01 X-0.9043 Y-42.4308
G01 X-0.8344 Y-42.3454
G01 X-0.7564 Y-42.2672
G01 X-0.6711 Y-42.1971
G01 X-0.5794 Y-42.1357
G01 X-0.4821 Y-42.0835
G01 X-0.3802 Y-42.0412
G01 X-0.2745 Y-42.0090
G01 X-0.1663 Y-41.9873
G01 X-0.0564 Y-41.9764
G01 X0.0000 Y-41.9750
G01 X50.0000 Y-41.9750
G01 X50.0564 Y-41.9764
G01 X50.1663 Y-41.9873
G01 X50.2745 Y-42.0090
G01 X50.3802 Y-42.0412
G01 X50.4799 Y-42.0825
G01 X50.5773 Y-42.1344
G01 X50.6711 Y-42.1971
G01 X50.7564 Y-42.2672
G01 X50.8327 Y-42.3436
G01 X50.9043 Y-42.4308
G01 X50.9656 Y-42.5227
G01 X51.0164 Y-42.6179
G01 X51.0596 Y-42.7221
G01 X51.0916 Y-42.8278
G01 X51.1126 Y-42.9337
G01 X51.1237 Y-43.0460
G01 X51.1250 Y-43.1000
G01 X51.1250 Y-62.6000
G01 X51.1236 Y-62.6564
G01 X51.1126 Y-62.7663
G01 X51.0910 Y-62.8745
G01 X51.0588 Y-62.9801
G01 X51.0164 Y-63.0821
G01 X50.9656 Y-63.1773
G01 X50.9029 Y-63.2711
G01 X50.8344 Y-63.3546
G01 X50.7564 Y-63.4327
G01 X50.6692 Y-63.5043
G01 X50.5794 Y-63.5643
G01 X50.4821 Y-63.6164
G01 X50.3778 Y-63.6596
G01 X50.2745 Y-63.6909
G01 X50.1663 Y-63.7126
G01 X50.0564 Y-63.7235
G01 X50.0000 Y-63.7250
G01 X0.0000 Y-63.7250
G01 X-0.0564 Y-63.7235
G01 X-0.1663 Y-63.7126
G01 X-0.2745 Y-63.6909
G01 X-0.3802 Y-63.6588
G01 X-0.4821 Y-63.6164
G01 X-0.5773 Y-63.5655
G01 X-0.6711 Y-63.5028
G01 X-0.7564 Y-63.4327
G01 X-0.8327 Y-63.3564
G01 X-0.9043 Y-63.2691
G01 X-0.9643 Y-63.1794
G01 X-1.0164 Y-63.0821
G01 X-1.0596 Y-62.9778
G01 X-1.0910 Y-62.8745
G01 X-1.1126 Y-62.7663
G01 X-1.1237 Y-62.6539
G01 X-1.1250 Y-62.6000
G01 X-1.1250 Y-43.1000
G00 X-1.1250 Y-43.1000
G01 F60.00
G01 Z-1.8000
G01 F120.00
G01 X-1.1250 Y-62.6000
G01 X-1.1237 Y-62.6539
G01 X-1.1126 Y-62.7663
G01 X-1.0910 Y-62.8745
G01 X-1.0596 Y-62.9778
G01 X-1.0164 Y-63.0821
G01 X-0.9643 Y-63.1794
G01 X-0.9043 Y-63.2691
G01 X-0.8327 Y-63.3564
G01 X-0.7564 Y-63.4327
G01 X-0.6711 Y-63.5028
G01 X-0.5773 Y-63.5655
G01 X-0.4821 Y-63.6164
G01 X-0.3802 Y-63.6588
G01 X-0.2745 Y-63.6909
G01 X-0.1663 Y-63.7126
G01 X-0.0564 Y-63.7235
G01 X0.0000 Y-63.7250
G01 X50.0000 Y-63.7250
G01 X50.0564 Y-63.7235
G01 X50.1663 Y-63.7126
G01 X50.2745 Y-63.6909
G01 X50.3778 Y-63.6596
G01 X50.4821 Y-63.6164
G01 X50.5794 Y-63.5643
G01 X50.6692 Y-63.5043
G01 X50.7564 Y-63.4327
G01 X50.8344 Y-63.3546
G01 X50.9029 Y-63.2711
G01 X50.9656 Y-63.1773
G01 X51.0164 Y-63.0821
G01 X51.0588 Y-62.9801
G01 X51.0910 Y-62.8745
G01 X51.1126 Y-62.7663
G01 X51.1236 Y-62.6564
G01 X51.1250 Y-62.6000
G01 X51.1250 Y-43.1000
G01 X51.1237 Y-43.0460
G01 X51.1126 Y-42.9337
G01 X51.0916 Y-42.8278
G01 X51.0596 Y-42.7221
G01 X51.0164 Y-42.6179
G01 X50.9656 Y-42.5227
G01 X50.9043 Y-42.4308
G01 X50.8327 Y-42.3436
G01 X50.7564 Y-42.2672
G01 X50.6711 Y-42.1971
G01 X50.5773 Y-42.1344
G01 X50.4799 Y-42.0825
G01 X50.3802 Y-42.0412
G01 X50.2745 Y-42.0090
G01 X50.1663 Y-41.9873
G01 X50.0564 Y-41.9764
G01 X50.0000 Y-41.9750
G01 X0.0000 Y-41.9750
G01 X-0.0564 Y-41.9764
G01 X-0.1663 Y-41.9873
G01 X-0.2745 Y-42.0090
G01 X-0.3802 Y-42.0412
G01 X-0.4821 Y-42.0835
G01 X-0.5794 Y-42.1357
G01 X-0.6711 Y-42.1971
G01 X-0.7564 Y-42.2672
G01 X-0.8344 Y-42.3454
G01 X-0.9043 Y-42.4308
G01 X-0.9656 Y-42.5227
G01 X-1.0175 Y-42.6201
G01 X-1.0596 Y-42.7221
G01 X-1.0916 Y-42.8278
G01 X-1.1130 Y-42.9361
G01 X-1.1236 Y-43.0435
G01 X-1.1250 Y-43.1000
G00 Z1.0000
G00 X-1.1250 Y-64.6500
G01 F60.00
G01 Z-0.9000
G01 F120.00
G01 X-1.1236 Y-64.5936
G01 X-1.1130 Y-64.4861
G01 X-1.0916 Y-64.3778
G01 X-1.0596 Y-64.2722
G01 X-1.0175 Y-64.1701
G01 X-0.9656 Y-64.0727
G01 X-0.9043 Y-63.9808
G01 X-0.8344 Y-63.8954
G01 X-0.7564 Y-63.8173
G01 X-0.6711 Y-63.7471
G01 X-0.5794 Y-63.6857
G01 X-0.4821 Y-63.6336
G01 X-0.3802 Y-63.5912
G01 X-0.2745 Y-63.5590
G01 X-0.1663 Y-63.5374
G01 X-0.0564 Y-63.5264
G01 X0.0000 Y-63.5250
G01 X50.0000 Y-63.5250
G01 X50.0564 Y-63.5264
G01 X50.1663 Y-63.5374
G01 X50.2745 Y-63.5590
G01 X50.3802 Y-63.5912
G01 X50.4799 Y-63.6325
G01 X50.5773 Y-63.6844
G01 X50.6711 Y-63.7471
G01 X50.7546 Y-63.8156
G01 X50.8327 Y-63.8936
G01 X50.9043 Y-63.9808
G01 X50.9643 Y-64.0706
G01 X51.0164 Y-64.1679
G01 X51.0596 Y-64.2722
G01 X51.0916 Y-64.3778
G01 X51.1126 Y-64.4837
G01 X51.1237 Y-64.5960
G01 X51.1250 Y-64.6500
G01 X51.1250 Y-84.1500
G01 X51.1236 Y-84.2064
G01 X51.1126 Y-84.3163
G01 X51.0910 Y-84.4245
G01 X51.0588 Y-84.5302
G01 X51.0164 Y-84.6321
G01 X50.9656 Y-84.7273
G01 X50.9029 Y-84.8211
G01 X50.8344 Y-84.9046
G01 X50.7564 Y-84.9827
G01 X50.6692 Y-85.0543
G01 X50.5773 Y-85.1156
G01 X50.4821 Y-85.1664
G01 X50.3778 Y-85.2096
G01 X50.2745 Y-85.2410
G01 X50.1663 Y-85.2626
G01 X50.0564 Y-85.2736
G01 X50.0000 Y-85.2750
G01 X0.0000 Y-85.2750
G01 X-0.0564 Y-85.2736
G01 X-0.1663 Y-85.2626
G01 X-0.2745 Y-85.2410
G01 X-0.3802 Y-85.2088
G01 X-0.4821 Y-85.1664
G01 X-0.5773 Y-85.1156
G01 X-0.6711 Y-85.0529
G01 X-0.7546 Y-84.9844
G01 X-0.8327 Y-84.9064
G01 X-0.9043 Y-84.8192
G01 X-0.9643 Y-84.7294
G01 X-1.0164 Y-84.6321
G01 X-1.0596 Y-84.5278
G01 X-1.0910 Y-84.4245
G01 X-1.1126 Y-84.3163
G01 X-1.1237 Y-84.2040
G01 X-1.1250 Y-84.1500
G01 X-1.1250 Y-64.6500
G00 X-1.1250 Y-64.6500
G01 F60.00
G01 Z-1.8000
G01 F120.00
G01 X-1.1250 Y-84.1500
G01 X-1.1237 Y-84.2040
G01 X-1.1126 Y-84.3163
G01 X-1.0910 Y-84.4245
G01 X-1.0596 Y-84.5278
G01 X-1.0164 Y-84.6321
G01 X-0.9643 Y-84.7294
G01 X-0.9043 Y-84.8192
G01 X-0.8327 Y-84.9064
G01 X-0.7546 Y-84.9844
G01 X-0.6711 Y-85.0529
G01 X-0.5773 Y-85.1156
G01 X-0.4821 Y-85.1664
G01 X-0.3802 Y-85.2088
G01 X-0.2745 Y-85.2410
G01 X-0.1663 Y-85.2626
G01 X-0.0564 Y-85.2736
G01 X0.0000 Y-85.2750
G01 X50.0000 Y-85.2750
G01 X50.0564 Y-85.2736
G01 X50.1663 Y-85.2626
G01 X50.2745 Y-85.2410
G01 X50.3778 Y-85.2096
G01 X50.4821 Y-85.1664
G01 X50.5773 Y-85.1156
G01 X50.6692 Y-85.0543
G01 X50.7564 Y-84.9827
G01 X50.8344 Y-84.9046
G01 X50.9029 Y-84.8211
G01 X50.9656 Y-84.7273
G01 X51.0164 Y-84.6321
G01 X51.0588 Y-84.5302
G01 X51.0910 Y-84.4245
G01 X51.1126 Y-84.3163
G01 X51.1236 Y-84.2064
G01 X51.1250 Y-84.1500
G01 X51.1250 Y-64.6500
G01 X51.1237 Y-64.5960
G01 X51.1126 Y-64.4837
G01 X51.0916 Y-64.3778
G01 X51.0596 Y-64.2722
G01 X51.0164 Y-64.1679
G01 X50.9643 Y-64.0706
G01 X50.9043 Y-63.9808
G01 X50.8327 Y-63.8936
G01 X50.7546 Y-63.8156
G01 X50.6711 Y-63.7471
G01 X50.5773 Y-63.6844
G01 X50.4799 Y-63.6325
G01 X50.3802 Y-63.5912
G01 X50.2745 Y-63.5590
G01 X50.1663 Y-63.5374
G01 X50.0564 Y-63.5264
G01 X50.0000 Y-63.5250
G01 X0.0000 Y-63.5250
G01 X-0.0564 Y-63.5264
G01 X-0.1663 Y-63.5374
G01 X-0.2745 Y-63.5590
G01 X-0.3802 Y-63.5912
G01 X-0.4821 Y-63.6336
G01 X-0.5794 Y-63.6857
G01 X-0.6711 Y-63.7471
G01 X-0.7564 Y-63.8173
G01 X-0.8344 Y-63.8954
G01 X-0.9043 Y-63.9808
G01 X-0.9656 Y-64.0727
G01 X-1.0175 Y-64.1701
G01 X-1.0596 Y-64.2722
G01 X-1.0916 Y-64.3778
G01 X-1.1130 Y-64.4861
G01 X-1.1236 Y-64.5936
G01 X-1.1250 Y-64.6500
G00 Z1.0000
G00 X50.9250 Y-64.6500
G01 F60.00
G01 Z-0.9000
G01 F120.00
G01 X50.9265 Y-64.5936
G01 X50.9370 Y-64.4861
G01 X50.9585 Y-64.3778
G01 X50.9904 Y-64.2722
G01 X51.0325 Y-64.1701
G01 X51.0845 Y-64.0727
G01 X51.1457 Y-63.9808
G01 X51.2156 Y-63.8954
G01 X51.2936 Y-63.8173
G01 X51.3789 Y-63.7471
G01 X51.4706 Y-63.6857
G01 X51.5679 Y-63.6336
G01 X51.6699 Y-63.5912
G01 X51.7755 Y-63.5590
G01 X51.8837 Y-63.5374
G01 X51.9936 Y-63.5264
G01 X52.0500 Y-63.5250
G01 X102.0500 Y-63.5250
G01 X102.1065 Y-63.5264
G01 X102.2163 Y-63.5374
G01 X102.3246 Y-63.5590
G01 X102.4302 Y-63.5912
G01 X102.5299 Y-63.6325
G01 X102.6273 Y-63.6844
G01 X102.7212 Y-63.7471
G01 X102.8046 Y-63.8156
G01 X102.8828 Y-63.8936
G01 X102.9544 Y-63.9808
G01 X103.0143 Y-64.0706
G01 X103.0665 Y-64.1679
G01 X103.1097 Y-64.2722
G01 X103.1416 Y-64.3778
G01 X103.1627 Y-64.4837
G01 X103.1737 Y-64.5960
G01 X103.1750 Y-64.6500
G01 X103.1750 Y-84.1500
G01 X103.1736 Y-84.2064
G01 X103.1627 Y-84.3163
G01 X103.1410 Y-84.4245
G01 X103.1088 Y-84.5302
G01 X103.0665 Y-84.6321
G01 X103.0156 Y-84.7273
G01 X102.9529 Y-84.8211
G01 X102.8844 Y-84.9046
G01 X102.8064 Y-84.9827
G01 X102.7192 Y-85.0543
G01 X102.6294 Y-85.1143
G01 X102.5321 Y-85.1664
G01 X102.4279 Y-85.2096
G01 X102.3246 Y-85.2410
G01 X102.2163 Y-85.2626
G01 X102.1065 Y-85.2736
G01 X102.0500 Y-85.2750
G01 X52.0500 Y-85.2750
G01 X51.9936 Y-85.2736
G01 X51.8837 Y-85.2626
G01 X51.7755 Y-85.2410
G01 X51.6699 Y-85.2088
G01 X51.5679 Y-85.1664
G01 X51.4727 Y-85.1156
G01 X51.3789 Y-85.0529
G01 X51.2954 Y-84.9844
G01 X51.2173 Y-84.9064
G01 X51.1457 Y-84.8192
G01 X51.0845 Y-84.7273
G01 X51.0336 Y-84.6321
G01 X50.9904 Y-84.5278
G01 X50.9591 Y-84.4245
G01 X50.9374 Y-84.3163
G01 X50.9263 Y-84.2040
G01 X50.9250 Y-84.1500
G01 X50.9250 Y-64.6500
G00 X50.9250 Y-64.6500
G01 F60.00
G01 Z-1.8000
G01 F120.00
G01 X50.9250 Y-84.1500
G01 X50.9263 Y-84.2040
G01 X50.9374 Y-84.3163
G01 X50.9591 Y-84.4245
G01 X50.9904 Y-84.5278
G01 X51.0336 Y-84.6321
G01 X51.0845 Y-84.7273
G01 X51.1457 Y-84.8192
G01 X51.2173 Y-84.9064
G01 X51.2954 Y-84.9844
G01 X51.3789 Y-85.0529
G01 X51.4727 Y-85.1156
G01 X51.5679 Y-85.1664
G01 X51.6699 Y-85.2088
G01 X51.7755 Y-85.2410
G01 X51.8837 Y-85.2626
G01 X51.9936 Y-85.2736
G01 X52.0500 Y-85.2750
G01 X102.0500 Y-85.2750
G01 X102.1065 Y-85.2736
G01 X102.2163 Y-85.2626
G01 X102.3246 Y-85.2410
G01 X102.4279 Y-85.2096
G01 X102.5321 Y-85.1664
G01 X102.6294 Y-85.1143
G01 X102.7192 Y-85.0543
G01 X102.8064 Y-84.9827
G01 X102.8844 Y-84.9046
G01 X102.9529 Y-84.8211
G01 X103.0156 Y-84.7273
G01 X103.0665 Y-84.6321
G01 X103.1088 Y-84.5302
G01 X103.1410 Y-84.4245
G01 X103.1627 Y-84.3163
G01 X103.1736 Y-84.2064
G01 X103.1750 Y-84.1500
G01 X103.1750 Y-64.6500
G01 X103.1737 Y-64.5960
G01 X103.1627 Y-64.4837
G01 X103.1416 Y-64.3778
G01 X103.1097 Y-64.2722
G01 X103.0665 Y-64.1679
G01 X103.0143 Y-64.0706
G01 X102.9544 Y-63.9808
G01 X102.8828 Y-63.8936
G01 X102.8046 Y-63.8156
G01 X102.7212 Y-63.7471
G01 X102.6273 Y-63.6844
G01 X102.5299 Y-63.6325
G01 X102.4302 Y-63.5912
G01 X102.3246 Y-63.5590
G01 X102.2163 Y-63.5374
G01 X102.1065 Y-63.5264
G01 X102.0500 Y-63.5250
G01 X52.0500 Y-63.5250
G01 X51.9936 Y-63.5264
G01 X51.8837 Y-63.5374
G01 X51.7755 Y-63.5590
G01 X51.6699 Y-63.5912
G01 X51.5679 Y-63.6336
G01 X51.4706 Y-63.6857
G01 X51.3789 Y-63.7471
G01 X51.2936 Y-63.8173
G01 X51.2156 Y-63.8954
G01 X51.1457 Y-63.9808
G01 X51.0845 Y-64.0727
G01 X51.0325 Y-64.1701
G01 X50.9904 Y-64.2722
G01 X50.9585 Y-64.3778
G01 X50.9370 Y-64.4861
G01 X50.9265 Y-64.5936
G01 X50.9250 Y-64.6500
G00 Z1.0000
G00 X50.9250 Y-43.1000
G01 F60.00
G01 Z-0.9000
G01 F120.00
G01 X50.9265 Y-43.0435
G01 X50.9370 Y-42.9361
G01 X50.9585 Y-42.8278
G01 X50.9904 Y-42.7221
G01 X51.0325 Y-42.6201
G01 X51.0845 Y-42.5227
G01 X51.1457 Y-42.4308
G01 X51.2156 Y-42.3454
G01 X51.2936 Y-42.2672
G01 X51.3789 Y-42.1971
G01 X51.4706 Y-42.1357
G01 X51.5679 Y-42.0835
G01 X51.6699 Y-42.0412
G01 X51.7755 Y-42.0090
G01 X51.8837 Y-41.9873
G01 X51.9936 Y-41.9764
G01 X52.0500 Y-41.9750
G01 X102.0500 Y-41.9750
G01 X102.1065 Y-41.9764
G01 X102.2163 Y-41.9873
G01 X102.3246 Y-42.0090
G01 X102.4302 Y-42.0412
G01 X102.5299 Y-42.0825
G01 X102.6273 Y-42.1344
G01 X102.7212 Y-42.1971
G01 X102.8046 Y-42.2656
G01 X102.8828 Y-42.3436
G01 X102.9544 Y-42.4308
G01 X103.0156 Y-42.5227
G01 X103.0665 Y-42.6179
G01 X103.1097 Y-42.7221
G01 X103.1416 Y-42.8278
G01 X103.1627 Y-42.9337
G01 X103.1737 Y-43.0460
G01 X103.1750 Y-43.1000
G01 X103.1750 Y-62.6000
G01 X103.1736 Y-62.6564
G01 X103.1627 Y-62.7663
G01 X103.1410 Y-62.8745
G01 X103.1088 Y-62.9801
G01 X103.0665 Y-63.0821
G01 X103.0156 Y-63.1773
G01 X102.9529 Y-63.2711
G01 X102.8844 Y-63.3546
G01 X102.8064 Y-63.4327
G01 X102.7192 Y-63.5043
G01 X102.6294 Y-63.5643
G01 X102.5321 Y-63.6164
G01 X102.4279 Y-63.6596
G01 X102.3246 Y-63.6909
G01 X102.2163 Y-63.7126
G01 X102.1065 Y-63.7235
G01 X102.0500 Y-63.7250
G01 X52.0500 Y-63.7250
G01 X51.9936 Y-63.7235
G01 X51.8837 Y-63.7126
G01 X51.7755 Y-63.6909
G01 X51.6699 Y-63.6588
G01 X51.5679 Y-63.6164
G01 X51.4727 Y-63.5655
G01 X51.3789 Y-63.5028
G01 X51.2936 Y-63.4327
G01 X51.2173 Y-63.3564
G01 X51.1457 Y-63.2691
G01 X51.0845 Y-63.1773
G01 X51.0336 Y-63.0821
G01 X50.9904 Y-62.9778
G01 X50.9591 Y-62.8745
G01 X50.9374 Y-62.7663
G01 X50.9263 Y-62.6539
G01 X50.9250 Y-62.6000
G01 X50.9250 Y-43.1000
G00 X50.9250 Y-43.1000
G01 F60.00
G01 Z-1.8000
G01 F120.00
G01 X50.9250 Y-62.6000
G01 X50.9263 Y-62.6539
G01 X50.9374 Y-62.7663
G01 X50.9591 Y-62.8745
G01 X50.9904 Y-62.9778
G01 X51.0336 Y-63.0821
G01 X51.0845 Y-63.1773
G01 X51.1457 Y-63.2691
G01 X51.2173 Y-63.3564
G01 X51.2936 Y-63.4327
G01 X51.3789 Y-63.5028
G01 X51.4727 Y-63.5655
G01 X51.5679 Y-63.6164
G01 X51.6699 Y-63.6588
G01 X51.7755 Y-63.6909
G01 X51.8837 Y-63.7126
G01 X51.9936 Y-63.7235
G01 X52.0500 Y-63.7250
G01 X102.0500 Y-63.7250
G01 X102.1065 Y-63.7235
G01 X102.2163 Y-63.7126
G01 X102.3246 Y-63.6909
G01 X102.4279 Y-63.6596
G01 X102.5321 Y-63.6164
G01 X102.6294 Y-63.5643
G01 X102.7192 Y-63.5043
G01 X102.8064 Y-63.4327
G01 X102.8844 Y-63.3546
G01 X102.9529 Y-63.2711
G01 X103.0156 Y-63.1773
G01 X103.0665 Y-63.0821
G01 X103.1088 Y-62.9801
G01 X103.1410 Y-62.8745
G01 X103.1627 Y-62.7663
G01 X103.1736 Y-62.6564
G01 X103.1750 Y-62.6000
G01 X103.1750 Y-43.1000
G01 X103.1737 Y-43.0460
G01 X103.1627 Y-42.9337
G01 X103.1416 Y-42.8278
G01 X103.1097 Y-42.7221
G01 X103.0665 Y-42.6179
G01 X103.0156 Y-42.5227
G01 X102.9544 Y-42.4308
G01 X102.8828 Y-42.3436
G01 X102.8046 Y-42.2656
G01 X102.7212 Y-42.1971
G01 X102.6273 Y-42.1344
G01 X102.5299 Y-42.0825
G01 X102.4302 Y-42.0412
G01 X102.3246 Y-42.0090
G01 X102.2163 Y-41.9873
G01 X102.1065 Y-41.9764
G01 X102.0500 Y-41.9750
G01 X52.0500 Y-41.9750
G01 X51.9936 Y-41.9764
G01 X51.8837 Y-41.9873
G01 X51.7755 Y-42.0090
G01 X51.6699 Y-42.0412
G01 X51.5679 Y-42.0835
G01 X51.4706 Y-42.1357
G01 X51.3789 Y-42.1971
G01 X51.2936 Y-42.2672
G01 X51.2156 Y-42.3454
G01 X51.1457 Y-42.4308
G01 X51.0845 Y-42.5227
G01 X51.0325 Y-42.6201
G01 X50.9904 Y-42.7221
G01 X50.9585 Y-42.8278
G01 X50.9370 Y-42.9361
G01 X50.9265 Y-43.0435
G01 X50.9250 Y-43.1000
G00 Z1.0000
G00 X50.9250 Y-21.5500
G01 F60.00
G01 Z-0.9000
G01 F120.00
G01 X50.9265 Y-21.4935
G01 X50.9370 Y-21.3861
G01 X50.9585 Y-21.2778
G01 X50.9904 Y-21.1721
G01 X51.0325 Y-21.0701
G01 X51.0845 Y-20.9726
G01 X51.1457 Y-20.8808
G01 X51.2156 Y-20.7954
G01 X51.2936 Y-20.7172
G01 X51.3789 Y-20.6471
G01 X51.4706 Y-20.5857
G01 X51.5679 Y-20.5335
G01 X51.6699 Y-20.4911
G01 X51.7755 Y-20.4590
G01 X51.8837 Y-20.4373
G01 X51.9936 Y-20.4264
G01 X52.0500 Y-20.4249
G01 X102.0500 Y-20.4249
G01 X102.1065 Y-20.4264
G01 X102.2163 Y-20.4373
G01 X102.3246 Y-20.4590
G01 X102.4302 Y-20.4911
G01 X102.5299 Y-20.5325
G01 X102.6273 Y-20.5844
G01 X102.7212 Y-20.6471
G01 X102.8046 Y-20.7156
G01 X102.8828 Y-20.7935
G01 X102.9544 Y-20.8808
G01 X103.0156 Y-20.9726
G01 X103.0665 Y-21.0678
G01 X103.1097 Y-21.1721
G01 X103.1416 Y-21.2778
G01 X103.1627 Y-21.3837
G01 X103.1737 Y-21.4960
G01 X103.1750 Y-21.5500
G01 X103.1750 Y-41.0500
G01 X103.1736 Y-41.1064
G01 X103.1627 Y-41.2162
G01 X103.1410 Y-41.3245
G01 X103.1088 Y-41.4301
G01 X103.0665 Y-41.5321
G01 X103.0156 Y-41.6273
G01 X102.9529 Y-41.7211
G01 X102.8828 Y-41.8064
G01 X102.8064 Y-41.8827
G01 X102.7192 Y-41.9543
G01 X102.6294 Y-42.0142
G01 X102.5321 Y-42.0664
G01 X102.4279 Y-42.1096
G01 X102.3246 Y-42.1409
G01 X102.2163 Y-42.1626
G01 X102.1065 Y-42.1735
G01 X102.0500 Y-42.1750
G01 X52.0500 Y-42.1750
G01 X51.9936 Y-42.1735
G01 X51.8837 Y-42.1626
G01 X51.7755 Y-42.1409
G01 X51.6699 Y-42.1088
G01 X51.5701 Y-42.0674
G01 X51.4727 Y-42.0155
G01 X51.3789 Y-41.9528
G01 X51.2936 Y-41.8827
G01 X51.2173 Y-41.8064
G01 X51.1457 Y-41.7191
G01 X51.0845 Y-41.6273
G01 X51.0336 Y-41.5321
G01 X50.9904 Y-41.4278
G01 X50.9591 Y-41.3245
G01 X50.9374 Y-41.2162
G01 X50.9263 Y-41.1039
G01 X50.9250 Y-41.0500
G01 X50.9250 Y-21.5500
G00 X50.9250 Y-21.5500
G01 F60.00
G01 Z-1.8000
G01 F120.00
G01 X50.9250 Y-41.0500
G01 X50.9263 Y-41.1039
G01 X50.9374 Y-41.2162
G01 X50.9591 Y-41.3245
G01 X50.9904 Y-41.4278
G01 X51.0336 Y-41.5321
G01 X51.0845 Y-41.6273
G01 X51.1457 Y-41.7191
G01 X51.2173 Y-41.8064
G01 X51.2936 Y-41.8827
G01 X51.3789 Y-41.9528
G01 X51.4727 Y-42.0155
G01 X51.5701 Y-42.0674
G01 X51.6699 Y-42.1088
G01 X51.7755 Y-42.1409
G01 X51.8837 Y-42.1626
G01 X51.9936 Y-42.1735
G01 X52.0500 Y-42.1750
G01 X102.0500 Y-42.1750
G01 X102.1065 Y-42.1735
G01 X102.2163 Y-42.1626
G01 X102.3246 Y-42.1409
G01 X102.4279 Y-42.1096
G01 X102.5321 Y-42.0664
G01 X102.6294 Y-42.0142
G01 X102.7192 Y-41.9543
G01 X102.8064 Y-41.8827
G01 X102.8828 Y-41.8064
G01 X102.9529 Y-41.7211
G01 X103.0156 Y-41.6273
G01 X103.0665 Y-41.5321
G01 X103.1088 Y-41.4301
G01 X103.1410 Y-41.3245
G01 X103.1627 Y-41.2162
G01 X103.1736 Y-41.1064
G01 X103.1750 Y-41.0500
G01 X103.1750 Y-21.5500
G01 X103.1737 Y-21.4960
G01 X103.1627 Y-21.3837
G01 X103.1416 Y-21.2778
G01 X103.1097 Y-21.1721
G01 X103.0665 Y-21.0678
G01 X103.0156 Y-20.9726
G01 X102.9544 Y-20.8808
G01 X102.8828 Y-20.7935
G01 X102.8046 Y-20.7156
G01 X102.7212 Y-20.6471
G01 X102.6273 Y-20.5844
G01 X102.5299 Y-20.5325
G01 X102.4302 Y-20.4911
G01 X102.3246 Y-20.4590
G01 X102.2163 Y-20.4373
G01 X102.1065 Y-20.4264
G01 X102.0500 Y-20.4249
G01 X52.0500 Y-20.4249
G01 X51.9936 Y-20.4264
G01 X51.8837 Y-20.4373
G01 X51.7755 Y-20.4590
G01 X51.6699 Y-20.4911
G01 X51.5679 Y-20.5335
G01 X51.4706 Y-20.5857
G01 X51.3789 Y-20.6471
G01 X51.2936 Y-20.7172
G01 X51.2156 Y-20.7954
G01 X51.1457 Y-20.8808
G01 X51.0845 Y-20.9726
G01 X51.0325 Y-21.0701
G01 X50.9904 Y-21.1721
G01 X50.9585 Y-21.2778
G01 X50.9370 Y-21.3861
G01 X50.9265 Y-21.4935
G01 X50.9250 Y-21.5500
G00 Z1.0000
G00 X50.9250 Y0.0001
G01 F60.00
G01 Z-0.9000
G01 F120.00
G01 X50.9265 Y0.0565
G01 X50.9370 Y0.1639
G01 X50.9585 Y0.2722
G01 X50.9904 Y0.3779
G01 X51.0325 Y0.4800
G01 X51.0845 Y0.5774
G01 X51.1457 Y0.6692
G01 X51.2156 Y0.7547
G01 X51.2936 Y0.8328
G01 X51.3789 Y0.9029
G01 X51.4706 Y0.9644
G01 X51.5679 Y1.0165
G01 X51.6699 Y1.0589
G01 X51.7755 Y1.0910
G01 X51.8837 Y1.1127
G01 X51.9936 Y1.1236
G01 X52.0500 Y1.1251
G01 X102.0500 Y1.1251
G01 X102.1065 Y1.1236
G01 X102.2163 Y1.1127
G01 X102.3246 Y1.0910
G01 X102.4302 Y1.0589
G01 X102.5299 Y1.0176
G01 X102.6273 Y0.9656
G01 X102.7212 Y0.9029
G01 X102.8046 Y0.8345
G01 X102.8828 Y0.7565
G01 X102.9544 Y0.6692
G01 X103.0143 Y0.5795
G01 X103.0665 Y0.4822
G01 X103.1097 Y0.3779
G01 X103.1416 Y0.2722
G01 X103.1627 Y0.1664
G01 X103.1737 Y0.0540
G01 X103.1750 Y0.0001
G01 X103.1750 Y-19.4999
G01 X103.1736 Y-19.5564
G01 X103.1627 Y-19.6662
G01 X103.1410 Y-19.7745
G01 X103.1088 Y-19.8801
G01 X103.0665 Y-19.9820
G01 X103.0156 Y-20.0772
G01 X102.9529 Y-20.1711
G01 X102.8844 Y-20.2545
G01 X102.8064 Y-20.3327
G01 X102.7192 Y-20.4043
G01 X102.6294 Y-20.4642
G01 X102.5321 Y-20.5164
G01 X102.4279 Y-20.5596
G01 X102.3246 Y-20.5909
G01 X102.2163 Y-20.6126
G01 X102.1065 Y-20.6235
G01 X102.0500 Y-20.6249
G01 X52.0500 Y-20.6249
G01 X51.9936 Y-20.6235
G01 X51.8837 Y-20.6126
G01 X51.7755 Y-20.5909
G01 X51.6699 Y-20.5587
G01 X51.5679 Y-20.5164
G01 X51.4727 Y-20.4655
G01 X51.3789 Y-20.4028
G01 X51.2954 Y-20.3343
G01 X51.2173 Y-20.2563
G01 X51.1457 Y-20.1691
G01 X51.0845 Y-20.0772
G01 X51.0336 Y-19.9820
G01 X50.9904 Y-19.8778
G01 X50.9591 Y-19.7745
G01 X50.9374 Y-19.6662
G01 X50.9263 Y-19.5539
G01 X50.9250 Y-19.4999
G01 X50.9250 Y0.0001
G00 X50.9250 Y0.0001
G01 F60.00
G01 Z-1.8000
G01 F120.00
G01 X50.9250 Y-19.4999
G01 X50.9263 Y-19.5539
G01 X50.9374 Y-19.6662
G01 X50.9591 Y-19.7745
G01 X50.9904 Y-19.8778
G01 X51.0336 Y-19.9820
G01 X51.0845 Y-20.0772
G01 X51.1457 Y-20.1691
G01 X51.2173 Y-20.2563
G01 X51.2954 Y-20.3343
G01 X51.3789 Y-20.4028
G01 X51.4727 Y-20.4655
G01 X51.5679 Y-20.5164
G01 X51.6699 Y-20.5587
G01 X51.7755 Y-20.5909
G01 X51.8837 Y-20.6126
G01 X51.9936 Y-20.6235
G01 X52.0500 Y-20.6249
G01 X102.0500 Y-20.6249
G01 X102.1065 Y-20.6235
G01 X102.2163 Y-20.6126
G01 X102.3246 Y-20.5909
G01 X102.4279 Y-20.5596
G01 X102.5321 Y-20.5164
G01 X102.6294 Y-20.4642
G01 X102.7192 Y-20.4043
G01 X102.8064 Y-20.3327
G01 X102.8844 Y-20.2545
G01 X102.9529 Y-20.1711
G01 X103.0156 Y-20.0772
G01 X103.0665 Y-19.9820
G01 X103.1088 Y-19.8801
G01 X103.1410 Y-19.7745
G01 X103.1627 Y-19.6662
G01 X103.1736 Y-19.5564
G01 X103.1750 Y-19.4999
G01 X103.1750 Y0.0001
G01 X103.1737 Y0.0540
G01 X103.1627 Y0.1664
G01 X103.1416 Y0.2722
G01 X103.1097 Y0.3779
G01 X103.0665 Y0.4822
G01 X103.0143 Y0.5795
G01 X102.9544 Y0.6692
G01 X102.8828 Y0.7565
G01 X102.8046 Y0.8345
G01 X102.7212 Y0.9029
G01 X102.6273 Y0.9656
G01 X102.5299 Y1.0176
G01 X102.4302 Y1.0589
G01 X102.3246 Y1.0910
G01 X102.2163 Y1.1127
G01 X102.1065 Y1.1236
G01 X102.0500 Y1.1251
G01 X52.0500 Y1.1251
G01 X51.9936 Y1.1236
G01 X51.8837 Y1.1127
G01 X51.7755 Y1.0910
G01 X51.6699 Y1.0589
G01 X51.5679 Y1.0165
G01 X51.4706 Y0.9644
G01 X51.3789 Y0.9029
G01 X51.2936 Y0.8328
G01 X51.2156 Y0.7547
G01 X51.1457 Y0.6692
G01 X51.0845 Y0.5774
G01 X51.0325 Y0.4800
G01 X50.9904 Y0.3779
G01 X50.9585 Y0.2722
G01 X50.9370 Y0.1639
G01 X50.9265 Y0.0565
G01 X50.9250 Y0.0001
G00 Z1.0000
M05
G00 Z1.0000
G00 Z15.00


