(G-CODE GENERATED BY FLATCAM v8.994 - www.flatcam.org - Version Date: 2020/11/7)

(Name: SolarAmp.drl_2_cnc)
(Type: G-code from Geometry)
(Units: MM)

(Created on Monday, 01 July 2024 at 18:27)

(This preprocessor is the default preprocessor used by FlatCAM.)
(It is made to work with MACH3 compatible motion controllers.)


(TOOLS DIAMETER: )
(Tool: 1 -> Dia: 1.0)

(FEEDRATE Z: )
(Tool: 1 -> Feedrate: 300)

(FEEDRATE RAPIDS: )
(Tool: 1 -> Feedrate Rapids: 1500)

(Z_CUT: )
(Tool: 1 -> Z_Cut: -1.8)

(Tools Offset: )
(Tool: 1 -> Offset Z: 0.0)

(Z_MOVE: )
(Tool: 1 -> Z_Move: 2.0)

(Z Toolchange: 15 mm)
(X,Y Toolchange: 0.0000, 0.0000 mm)
(Z Start: None mm)
(Z End: 0.5 mm)
(X,Y End: None mm)
(Steps per circle: 64)
(Preprocessor Excellon: default)

(X range:    2.2500 ...   98.7500  mm)
(Y range:  -82.9400 ...   -2.3000  mm)

(Spindle Speed: 0 RPM)
G21
G90
G94

G01 F300.00

M5
G00 Z15.0000
T1
G00 X0.0000 Y0.0000                
M6
(MSG, Change to Tool Dia = 1.0000 ||| Total drills for tool T1 = 304)
M0
G00 Z15.0000

G01 F300.00
M03
G00 X2.7500 Y-74.8200
G01 Z-1.8000
G01 Z0
G00 Z2.0000
G00 X2.7500 Y-77.3600
G01 Z-1.8000
G01 Z0
G00 Z2.0000
G00 X2.7500 Y-79.9000
G01 Z-1.8000
G01 Z0
G00 Z2.0000
G00 X2.7500 Y-82.4400
G01 Z-1.8000
G01 Z0
G00 Z2.0000
G00 X6.1700 Y-82.4000
G01 Z-1.8000
G01 Z0
G00 Z2.0000
G00 X6.1700 Y-78.9000
G01 Z-1.8000
G01 Z0
G00 Z2.0000
G00 X6.1700 Y-75.4000
G01 Z-1.8000
G01 Z0
G00 Z2.0000
G00 X11.0000 Y-67.4000
G01 Z-1.8000
G01 Z0
G00 Z2.0000
G00 X11.0000 Y-69.9000
G01 Z-1.8000
G01 Z0
G00 Z2.0000
G00 X16.3300 Y-75.4000
G01 Z-1.8000
G01 Z0
G00 Z2.0000
G00 X18.2500 Y-69.9000
G01 Z-1.8000
G01 Z0
G00 Z2.0000
G00 X18.2500 Y-67.4000
G01 Z-1.8000
G01 Z0
G00 Z2.0000
G00 X23.0000 Y-69.9000
G01 Z-1.8000
G01 Z0
G00 Z2.0000
G00 X23.0000 Y-74.9000
G01 Z-1.8000
G01 Z0
G00 Z2.0000
G00 X18.8400 Y-78.9000
G01 Z-1.8000
G01 Z0
G00 Z2.0000
G00 X16.3300 Y-78.9000
G01 Z-1.8000
G01 Z0
G00 Z2.0000
G00 X16.3300 Y-82.4000
G01 Z-1.8000
G01 Z0
G00 Z2.0000
G00 X18.7500 Y-82.4000
G01 Z-1.8000
G01 Z0
G00 Z2.0000
G00 X23.7500 Y-82.4000
G01 Z-1.8000
G01 Z0
G00 Z2.0000
G00 X29.0000 Y-78.9000
G01 Z-1.8000
G01 Z0
G00 Z2.0000
G00 X28.6750 Y-75.8750
G01 Z-1.8000
G01 Z0
G00 Z2.0000
G00 X28.6750 Y-73.3750
G01 Z-1.8000
G01 Z0
G00 Z2.0000
G00 X28.6750 Y-69.9000
G01 Z-1.8000
G01 Z0
G00 Z2.0000
G00 X28.6750 Y-67.4000
G01 Z-1.8000
G01 Z0
G00 Z2.0000
G00 X33.0950 Y-60.9000
G01 Z-1.8000
G01 Z0
G00 Z2.0000
G00 X33.9250 Y-56.9000
G01 Z-1.8000
G01 Z0
G00 Z2.0000
G00 X33.9250 Y-54.3600
G01 Z-1.8000
G01 Z0
G00 Z2.0000
G00 X33.9250 Y-51.8200
G01 Z-1.8000
G01 Z0
G00 Z2.0000
G00 X33.9250 Y-49.2800
G01 Z-1.8000
G01 Z0
G00 Z2.0000
G00 X41.5450 Y-49.2800
G01 Z-1.8000
G01 Z0
G00 Z2.0000
G00 X41.5450 Y-51.8200
G01 Z-1.8000
G01 Z0
G00 Z2.0000
G00 X41.5450 Y-54.3600
G01 Z-1.8000
G01 Z0
G00 Z2.0000
G00 X41.5450 Y-56.9000
G01 Z-1.8000
G01 Z0
G00 Z2.0000
G00 X46.2500 Y-54.4000
G01 Z-1.8000
G01 Z0
G00 Z2.0000
G00 X46.2500 Y-51.9000
G01 Z-1.8000
G01 Z0
G00 Z2.0000
G00 X55.7500 Y-48.4000
G01 Z-1.8000
G01 Z0
G00 Z2.0000
G00 X55.7500 Y-45.9000
G01 Z-1.8000
G01 Z0
G00 Z2.0000
G00 X54.7500 Y-39.3400
G01 Z-1.8000
G01 Z0
G00 Z2.0000
G00 X54.7500 Y-36.8000
G01 Z-1.8000
G01 Z0
G00 Z2.0000
G00 X54.7500 Y-34.2600
G01 Z-1.8000
G01 Z0
G00 Z2.0000
G00 X54.7500 Y-31.7200
G01 Z-1.8000
G01 Z0
G00 Z2.0000
G00 X58.1700 Y-32.3000
G01 Z-1.8000
G01 Z0
G00 Z2.0000
G00 X58.1700 Y-35.8000
G01 Z-1.8000
G01 Z0
G00 Z2.0000
G00 X58.1700 Y-39.3000
G01 Z-1.8000
G01 Z0
G00 Z2.0000
G00 X63.0000 Y-45.9000
G01 Z-1.8000
G01 Z0
G00 Z2.0000
G00 X63.0000 Y-48.4000
G01 Z-1.8000
G01 Z0
G00 Z2.0000
G00 X70.2500 Y-45.9000
G01 Z-1.8000
G01 Z0
G00 Z2.0000
G00 X70.2500 Y-48.4000
G01 Z-1.8000
G01 Z0
G00 Z2.0000
G00 X75.0000 Y-48.4000
G01 Z-1.8000
G01 Z0
G00 Z2.0000
G00 X75.0000 Y-53.4000
G01 Z-1.8000
G01 Z0
G00 Z2.0000
G00 X75.7500 Y-60.9000
G01 Z-1.8000
G01 Z0
G00 Z2.0000
G00 X70.7500 Y-60.9000
G01 Z-1.8000
G01 Z0
G00 Z2.0000
G00 X68.3300 Y-60.9000
G01 Z-1.8000
G01 Z0
G00 Z2.0000
G00 X70.8400 Y-57.4000
G01 Z-1.8000
G01 Z0
G00 Z2.0000
G00 X68.3300 Y-57.4000
G01 Z-1.8000
G01 Z0
G00 Z2.0000
G00 X68.3300 Y-53.9000
G01 Z-1.8000
G01 Z0
G00 Z2.0000
G00 X58.1700 Y-53.9000
G01 Z-1.8000
G01 Z0
G00 Z2.0000
G00 X54.7500 Y-53.3200
G01 Z-1.8000
G01 Z0
G00 Z2.0000
G00 X54.7500 Y-55.8600
G01 Z-1.8000
G01 Z0
G00 Z2.0000
G00 X54.7500 Y-58.4000
G01 Z-1.8000
G01 Z0
G00 Z2.0000
G00 X58.1700 Y-57.4000
G01 Z-1.8000
G01 Z0
G00 Z2.0000
G00 X58.1700 Y-60.9000
G01 Z-1.8000
G01 Z0
G00 Z2.0000
G00 X54.7500 Y-60.9400
G01 Z-1.8000
G01 Z0
G00 Z2.0000
G00 X43.2550 Y-60.9000
G01 Z-1.8000
G01 Z0
G00 Z2.0000
G00 X33.9250 Y-70.7800
G01 Z-1.8000
G01 Z0
G00 Z2.0000
G00 X33.9250 Y-73.3200
G01 Z-1.8000
G01 Z0
G00 Z2.0000
G00 X33.9250 Y-75.8600
G01 Z-1.8000
G01 Z0
G00 Z2.0000
G00 X33.9250 Y-78.4000
G01 Z-1.8000
G01 Z0
G00 Z2.0000
G00 X33.0950 Y-82.4000
G01 Z-1.8000
G01 Z0
G00 Z2.0000
G00 X43.2550 Y-82.4000
G01 Z-1.8000
G01 Z0
G00 Z2.0000
G00 X41.5450 Y-78.4000
G01 Z-1.8000
G01 Z0
G00 Z2.0000
G00 X41.5450 Y-75.8600
G01 Z-1.8000
G01 Z0
G00 Z2.0000
G00 X41.5450 Y-73.3200
G01 Z-1.8000
G01 Z0
G00 Z2.0000
G00 X41.5450 Y-70.7800
G01 Z-1.8000
G01 Z0
G00 Z2.0000
G00 X46.2500 Y-73.4000
G01 Z-1.8000
G01 Z0
G00 Z2.0000
G00 X46.2500 Y-75.9000
G01 Z-1.8000
G01 Z0
G00 Z2.0000
G00 X54.7500 Y-77.3600
G01 Z-1.8000
G01 Z0
G00 Z2.0000
G00 X54.7500 Y-79.9000
G01 Z-1.8000
G01 Z0
G00 Z2.0000
G00 X54.7500 Y-82.4400
G01 Z-1.8000
G01 Z0
G00 Z2.0000
G00 X58.1700 Y-82.4000
G01 Z-1.8000
G01 Z0
G00 Z2.0000
G00 X58.1700 Y-78.9000
G01 Z-1.8000
G01 Z0
G00 Z2.0000
G00 X58.1700 Y-75.4000
G01 Z-1.8000
G01 Z0
G00 Z2.0000
G00 X54.7500 Y-74.8200
G01 Z-1.8000
G01 Z0
G00 Z2.0000
G00 X55.7500 Y-69.9000
G01 Z-1.8000
G01 Z0
G00 Z2.0000
G00 X55.7500 Y-67.4000
G01 Z-1.8000
G01 Z0
G00 Z2.0000
G00 X63.0000 Y-67.4000
G01 Z-1.8000
G01 Z0
G00 Z2.0000
G00 X63.0000 Y-69.9000
G01 Z-1.8000
G01 Z0
G00 Z2.0000
G00 X70.2500 Y-67.4000
G01 Z-1.8000
G01 Z0
G00 Z2.0000
G00 X70.2500 Y-69.9000
G01 Z-1.8000
G01 Z0
G00 Z2.0000
G00 X75.0000 Y-69.9000
G01 Z-1.8000
G01 Z0
G00 Z2.0000
G00 X75.0000 Y-74.9000
G01 Z-1.8000
G01 Z0
G00 Z2.0000
G00 X68.3300 Y-75.4000
G01 Z-1.8000
G01 Z0
G00 Z2.0000
G00 X70.8400 Y-78.9000
G01 Z-1.8000
G01 Z0
G00 Z2.0000
G00 X68.3300 Y-78.9000
G01 Z-1.8000
G01 Z0
G00 Z2.0000
G00 X68.3300 Y-82.4000
G01 Z-1.8000
G01 Z0
G00 Z2.0000
G00 X70.7500 Y-82.4000
G01 Z-1.8000
G01 Z0
G00 Z2.0000
G00 X75.7500 Y-82.4000
G01 Z-1.8000
G01 Z0
G00 Z2.0000
G00 X85.0950 Y-82.4000
G01 Z-1.8000
G01 Z0
G00 Z2.0000
G00 X95.2550 Y-82.4000
G01 Z-1.8000
G01 Z0
G00 Z2.0000
G00 X93.5450 Y-78.4000
G01 Z-1.8000
G01 Z0
G00 Z2.0000
G00 X93.5450 Y-75.8600
G01 Z-1.8000
G01 Z0
G00 Z2.0000
G00 X98.2500 Y-75.9000
G01 Z-1.8000
G01 Z0
G00 Z2.0000
G00 X98.2500 Y-73.4000
G01 Z-1.8000
G01 Z0
G00 Z2.0000
G00 X93.5450 Y-73.3200
G01 Z-1.8000
G01 Z0
G00 Z2.0000
G00 X93.5450 Y-70.7800
G01 Z-1.8000
G01 Z0
G00 Z2.0000
G00 X85.9250 Y-70.7800
G01 Z-1.8000
G01 Z0
G00 Z2.0000
G00 X85.9250 Y-73.3200
G01 Z-1.8000
G01 Z0
G00 Z2.0000
G00 X85.9250 Y-75.8600
G01 Z-1.8000
G01 Z0
G00 Z2.0000
G00 X85.9250 Y-78.4000
G01 Z-1.8000
G01 Z0
G00 Z2.0000
G00 X81.0000 Y-78.9000
G01 Z-1.8000
G01 Z0
G00 Z2.0000
G00 X80.6750 Y-75.8750
G01 Z-1.8000
G01 Z0
G00 Z2.0000
G00 X80.6750 Y-73.3750
G01 Z-1.8000
G01 Z0
G00 Z2.0000
G00 X80.6750 Y-69.9000
G01 Z-1.8000
G01 Z0
G00 Z2.0000
G00 X80.6750 Y-67.4000
G01 Z-1.8000
G01 Z0
G00 Z2.0000
G00 X85.0950 Y-60.9000
G01 Z-1.8000
G01 Z0
G00 Z2.0000
G00 X85.9250 Y-56.9000
G01 Z-1.8000
G01 Z0
G00 Z2.0000
G00 X81.0000 Y-57.4000
G01 Z-1.8000
G01 Z0
G00 Z2.0000
G00 X80.6750 Y-54.3750
G01 Z-1.8000
G01 Z0
G00 Z2.0000
G00 X80.6750 Y-51.8750
G01 Z-1.8000
G01 Z0
G00 Z2.0000
G00 X85.9250 Y-54.3600
G01 Z-1.8000
G01 Z0
G00 Z2.0000
G00 X85.9250 Y-51.8200
G01 Z-1.8000
G01 Z0
G00 Z2.0000
G00 X85.9250 Y-49.2800
G01 Z-1.8000
G01 Z0
G00 Z2.0000
G00 X80.6750 Y-48.4000
G01 Z-1.8000
G01 Z0
G00 Z2.0000
G00 X80.6750 Y-45.9000
G01 Z-1.8000
G01 Z0
G00 Z2.0000
G00 X75.7500 Y-39.3000
G01 Z-1.8000
G01 Z0
G00 Z2.0000
G00 X70.7500 Y-39.3000
G01 Z-1.8000
G01 Z0
G00 Z2.0000
G00 X68.3300 Y-39.3000
G01 Z-1.8000
G01 Z0
G00 Z2.0000
G00 X68.3300 Y-35.8000
G01 Z-1.8000
G01 Z0
G00 Z2.0000
G00 X70.8400 Y-35.8000
G01 Z-1.8000
G01 Z0
G00 Z2.0000
G00 X75.0000 Y-31.8000
G01 Z-1.8000
G01 Z0
G00 Z2.0000
G00 X80.6750 Y-30.2750
G01 Z-1.8000
G01 Z0
G00 Z2.0000
G00 X80.6750 Y-32.7750
G01 Z-1.8000
G01 Z0
G00 Z2.0000
G00 X81.0000 Y-35.8000
G01 Z-1.8000
G01 Z0
G00 Z2.0000
G00 X85.0950 Y-39.3000
G01 Z-1.8000
G01 Z0
G00 Z2.0000
G00 X93.5450 Y-49.2800
G01 Z-1.8000
G01 Z0
G00 Z2.0000
G00 X93.5450 Y-51.8200
G01 Z-1.8000
G01 Z0
G00 Z2.0000
G00 X93.5450 Y-54.3600
G01 Z-1.8000
G01 Z0
G00 Z2.0000
G00 X93.5450 Y-56.9000
G01 Z-1.8000
G01 Z0
G00 Z2.0000
G00 X95.2550 Y-60.9000
G01 Z-1.8000
G01 Z0
G00 Z2.0000
G00 X98.2500 Y-54.4000
G01 Z-1.8000
G01 Z0
G00 Z2.0000
G00 X98.2500 Y-51.9000
G01 Z-1.8000
G01 Z0
G00 Z2.0000
G00 X95.2550 Y-39.3000
G01 Z-1.8000
G01 Z0
G00 Z2.0000
G00 X98.2500 Y-32.8000
G01 Z-1.8000
G01 Z0
G00 Z2.0000
G00 X98.2500 Y-30.3000
G01 Z-1.8000
G01 Z0
G00 Z2.0000
G00 X93.5450 Y-27.6800
G01 Z-1.8000
G01 Z0
G00 Z2.0000
G00 X93.5450 Y-30.2200
G01 Z-1.8000
G01 Z0
G00 Z2.0000
G00 X93.5450 Y-32.7600
G01 Z-1.8000
G01 Z0
G00 Z2.0000
G00 X93.5450 Y-35.3000
G01 Z-1.8000
G01 Z0
G00 Z2.0000
G00 X85.9250 Y-35.3000
G01 Z-1.8000
G01 Z0
G00 Z2.0000
G00 X85.9250 Y-32.7600
G01 Z-1.8000
G01 Z0
G00 Z2.0000
G00 X85.9250 Y-30.2200
G01 Z-1.8000
G01 Z0
G00 Z2.0000
G00 X85.9250 Y-27.6800
G01 Z-1.8000
G01 Z0
G00 Z2.0000
G00 X95.2550 Y-17.8000
G01 Z-1.8000
G01 Z0
G00 Z2.0000
G00 X93.5450 Y-13.8000
G01 Z-1.8000
G01 Z0
G00 Z2.0000
G00 X98.2500 Y-11.3000
G01 Z-1.8000
G01 Z0
G00 Z2.0000
G00 X98.2500 Y-8.8000
G01 Z-1.8000
G01 Z0
G00 Z2.0000
G00 X93.5450 Y-6.1800
G01 Z-1.8000
G01 Z0
G00 Z2.0000
G00 X93.5450 Y-8.7200
G01 Z-1.8000
G01 Z0
G00 Z2.0000
G00 X93.5450 Y-11.2600
G01 Z-1.8000
G01 Z0
G00 Z2.0000
G00 X85.9250 Y-11.2600
G01 Z-1.8000
G01 Z0
G00 Z2.0000
G00 X85.9250 Y-8.7200
G01 Z-1.8000
G01 Z0
G00 Z2.0000
G00 X85.9250 Y-6.1800
G01 Z-1.8000
G01 Z0
G00 Z2.0000
G00 X80.6750 Y-2.8000
G01 Z-1.8000
G01 Z0
G00 Z2.0000
G00 X80.6750 Y-5.3000
G01 Z-1.8000
G01 Z0
G00 Z2.0000
G00 X80.6750 Y-8.7750
G01 Z-1.8000
G01 Z0
G00 Z2.0000
G00 X80.6750 Y-11.2750
G01 Z-1.8000
G01 Z0
G00 Z2.0000
G00 X75.0000 Y-10.3000
G01 Z-1.8000
G01 Z0
G00 Z2.0000
G00 X75.0000 Y-5.3000
G01 Z-1.8000
G01 Z0
G00 Z2.0000
G00 X70.2500 Y-5.3000
G01 Z-1.8000
G01 Z0
G00 Z2.0000
G00 X70.2500 Y-2.8000
G01 Z-1.8000
G01 Z0
G00 Z2.0000
G00 X63.0000 Y-5.3000
G01 Z-1.8000
G01 Z0
G00 Z2.0000
G00 X63.0000 Y-2.8000
G01 Z-1.8000
G01 Z0
G00 Z2.0000
G00 X55.7500 Y-2.8000
G01 Z-1.8000
G01 Z0
G00 Z2.0000
G00 X55.7500 Y-5.3000
G01 Z-1.8000
G01 Z0
G00 Z2.0000
G00 X54.7500 Y-10.2200
G01 Z-1.8000
G01 Z0
G00 Z2.0000
G00 X54.7500 Y-12.7600
G01 Z-1.8000
G01 Z0
G00 Z2.0000
G00 X54.7500 Y-15.3000
G01 Z-1.8000
G01 Z0
G00 Z2.0000
G00 X54.7500 Y-17.8400
G01 Z-1.8000
G01 Z0
G00 Z2.0000
G00 X58.1700 Y-17.8000
G01 Z-1.8000
G01 Z0
G00 Z2.0000
G00 X58.1700 Y-14.3000
G01 Z-1.8000
G01 Z0
G00 Z2.0000
G00 X58.1700 Y-10.8000
G01 Z-1.8000
G01 Z0
G00 Z2.0000
G00 X68.3300 Y-10.8000
G01 Z-1.8000
G01 Z0
G00 Z2.0000
G00 X70.8400 Y-14.3000
G01 Z-1.8000
G01 Z0
G00 Z2.0000
G00 X68.3300 Y-14.3000
G01 Z-1.8000
G01 Z0
G00 Z2.0000
G00 X68.3300 Y-17.8000
G01 Z-1.8000
G01 Z0
G00 Z2.0000
G00 X70.7500 Y-17.8000
G01 Z-1.8000
G01 Z0
G00 Z2.0000
G00 X75.7500 Y-17.8000
G01 Z-1.8000
G01 Z0
G00 Z2.0000
G00 X81.0000 Y-14.3000
G01 Z-1.8000
G01 Z0
G00 Z2.0000
G00 X85.9250 Y-13.8000
G01 Z-1.8000
G01 Z0
G00 Z2.0000
G00 X85.0950 Y-17.8000
G01 Z-1.8000
G01 Z0
G00 Z2.0000
G00 X80.6750 Y-24.3000
G01 Z-1.8000
G01 Z0
G00 Z2.0000
G00 X80.6750 Y-26.8000
G01 Z-1.8000
G01 Z0
G00 Z2.0000
G00 X75.0000 Y-26.8000
G01 Z-1.8000
G01 Z0
G00 Z2.0000
G00 X70.2500 Y-24.3000
G01 Z-1.8000
G01 Z0
G00 Z2.0000
G00 X70.2500 Y-26.8000
G01 Z-1.8000
G01 Z0
G00 Z2.0000
G00 X68.3300 Y-32.3000
G01 Z-1.8000
G01 Z0
G00 Z2.0000
G00 X63.0000 Y-26.8000
G01 Z-1.8000
G01 Z0
G00 Z2.0000
G00 X63.0000 Y-24.3000
G01 Z-1.8000
G01 Z0
G00 Z2.0000
G00 X55.7500 Y-24.3000
G01 Z-1.8000
G01 Z0
G00 Z2.0000
G00 X55.7500 Y-26.8000
G01 Z-1.8000
G01 Z0
G00 Z2.0000
G00 X46.2500 Y-30.3000
G01 Z-1.8000
G01 Z0
G00 Z2.0000
G00 X46.2500 Y-32.8000
G01 Z-1.8000
G01 Z0
G00 Z2.0000
G00 X43.2550 Y-39.3000
G01 Z-1.8000
G01 Z0
G00 Z2.0000
G00 X41.5450 Y-35.3000
G01 Z-1.8000
G01 Z0
G00 Z2.0000
G00 X41.5450 Y-32.7600
G01 Z-1.8000
G01 Z0
G00 Z2.0000
G00 X41.5450 Y-30.2200
G01 Z-1.8000
G01 Z0
G00 Z2.0000
G00 X41.5450 Y-27.6800
G01 Z-1.8000
G01 Z0
G00 Z2.0000
G00 X43.2550 Y-17.8000
G01 Z-1.8000
G01 Z0
G00 Z2.0000
G00 X46.2500 Y-11.3000
G01 Z-1.8000
G01 Z0
G00 Z2.0000
G00 X46.2500 Y-8.8000
G01 Z-1.8000
G01 Z0
G00 Z2.0000
G00 X41.5450 Y-6.1800
G01 Z-1.8000
G01 Z0
G00 Z2.0000
G00 X41.5450 Y-8.7200
G01 Z-1.8000
G01 Z0
G00 Z2.0000
G00 X41.5450 Y-11.2600
G01 Z-1.8000
G01 Z0
G00 Z2.0000
G00 X41.5450 Y-13.8000
G01 Z-1.8000
G01 Z0
G00 Z2.0000
G00 X33.0950 Y-17.8000
G01 Z-1.8000
G01 Z0
G00 Z2.0000
G00 X33.9250 Y-13.8000
G01 Z-1.8000
G01 Z0
G00 Z2.0000
G00 X33.9250 Y-11.2600
G01 Z-1.8000
G01 Z0
G00 Z2.0000
G00 X33.9250 Y-8.7200
G01 Z-1.8000
G01 Z0
G00 Z2.0000
G00 X33.9250 Y-6.1800
G01 Z-1.8000
G01 Z0
G00 Z2.0000
G00 X28.6750 Y-2.8000
G01 Z-1.8000
G01 Z0
G00 Z2.0000
G00 X28.6750 Y-5.3000
G01 Z-1.8000
G01 Z0
G00 Z2.0000
G00 X28.6750 Y-8.7750
G01 Z-1.8000
G01 Z0
G00 Z2.0000
G00 X28.6750 Y-11.2750
G01 Z-1.8000
G01 Z0
G00 Z2.0000
G00 X29.0000 Y-14.3000
G01 Z-1.8000
G01 Z0
G00 Z2.0000
G00 X23.7500 Y-17.8000
G01 Z-1.8000
G01 Z0
G00 Z2.0000
G00 X18.7500 Y-17.8000
G01 Z-1.8000
G01 Z0
G00 Z2.0000
G00 X16.3300 Y-17.8000
G01 Z-1.8000
G01 Z0
G00 Z2.0000
G00 X16.3300 Y-14.3000
G01 Z-1.8000
G01 Z0
G00 Z2.0000
G00 X18.8400 Y-14.3000
G01 Z-1.8000
G01 Z0
G00 Z2.0000
G00 X23.0000 Y-10.3000
G01 Z-1.8000
G01 Z0
G00 Z2.0000
G00 X23.0000 Y-5.3000
G01 Z-1.8000
G01 Z0
G00 Z2.0000
G00 X18.2500 Y-2.8000
G01 Z-1.8000
G01 Z0
G00 Z2.0000
G00 X18.2500 Y-5.3000
G01 Z-1.8000
G01 Z0
G00 Z2.0000
G00 X16.3300 Y-10.8000
G01 Z-1.8000
G01 Z0
G00 Z2.0000
G00 X11.0000 Y-5.3000
G01 Z-1.8000
G01 Z0
G00 Z2.0000
G00 X11.0000 Y-2.8000
G01 Z-1.8000
G01 Z0
G00 Z2.0000
G00 X3.7500 Y-2.8000
G01 Z-1.8000
G01 Z0
G00 Z2.0000
G00 X3.7500 Y-5.3000
G01 Z-1.8000
G01 Z0
G00 Z2.0000
G00 X2.7500 Y-10.2200
G01 Z-1.8000
G01 Z0
G00 Z2.0000
G00 X6.1700 Y-10.8000
G01 Z-1.8000
G01 Z0
G00 Z2.0000
G00 X6.1700 Y-14.3000
G01 Z-1.8000
G01 Z0
G00 Z2.0000
G00 X2.7500 Y-12.7600
G01 Z-1.8000
G01 Z0
G00 Z2.0000
G00 X2.7500 Y-15.3000
G01 Z-1.8000
G01 Z0
G00 Z2.0000
G00 X2.7500 Y-17.8400
G01 Z-1.8000
G01 Z0
G00 Z2.0000
G00 X6.1700 Y-17.8000
G01 Z-1.8000
G01 Z0
G00 Z2.0000
G00 X3.7500 Y-24.3000
G01 Z-1.8000
G01 Z0
G00 Z2.0000
G00 X3.7500 Y-26.8000
G01 Z-1.8000
G01 Z0
G00 Z2.0000
G00 X11.0000 Y-26.8000
G01 Z-1.8000
G01 Z0
G00 Z2.0000
G00 X11.0000 Y-24.3000
G01 Z-1.8000
G01 Z0
G00 Z2.0000
G00 X18.2500 Y-24.3000
G01 Z-1.8000
G01 Z0
G00 Z2.0000
G00 X18.2500 Y-26.8000
G01 Z-1.8000
G01 Z0
G00 Z2.0000
G00 X23.0000 Y-26.8000
G01 Z-1.8000
G01 Z0
G00 Z2.0000
G00 X28.6750 Y-24.3000
G01 Z-1.8000
G01 Z0
G00 Z2.0000
G00 X28.6750 Y-26.8000
G01 Z-1.8000
G01 Z0
G00 Z2.0000
G00 X33.9250 Y-27.6800
G01 Z-1.8000
G01 Z0
G00 Z2.0000
G00 X33.9250 Y-30.2200
G01 Z-1.8000
G01 Z0
G00 Z2.0000
G00 X33.9250 Y-32.7600
G01 Z-1.8000
G01 Z0
G00 Z2.0000
G00 X33.9250 Y-35.3000
G01 Z-1.8000
G01 Z0
G00 Z2.0000
G00 X33.0950 Y-39.3000
G01 Z-1.8000
G01 Z0
G00 Z2.0000
G00 X29.0000 Y-35.8000
G01 Z-1.8000
G01 Z0
G00 Z2.0000
G00 X28.6750 Y-32.7750
G01 Z-1.8000
G01 Z0
G00 Z2.0000
G00 X28.6750 Y-30.2750
G01 Z-1.8000
G01 Z0
G00 Z2.0000
G00 X23.0000 Y-31.8000
G01 Z-1.8000
G01 Z0
G00 Z2.0000
G00 X16.3300 Y-32.3000
G01 Z-1.8000
G01 Z0
G00 Z2.0000
G00 X18.8400 Y-35.8000
G01 Z-1.8000
G01 Z0
G00 Z2.0000
G00 X16.3300 Y-35.8000
G01 Z-1.8000
G01 Z0
G00 Z2.0000
G00 X16.3300 Y-39.3000
G01 Z-1.8000
G01 Z0
G00 Z2.0000
G00 X18.7500 Y-39.3000
G01 Z-1.8000
G01 Z0
G00 Z2.0000
G00 X23.7500 Y-39.3000
G01 Z-1.8000
G01 Z0
G00 Z2.0000
G00 X28.6750 Y-45.9000
G01 Z-1.8000
G01 Z0
G00 Z2.0000
G00 X28.6750 Y-48.4000
G01 Z-1.8000
G01 Z0
G00 Z2.0000
G00 X28.6750 Y-51.8750
G01 Z-1.8000
G01 Z0
G00 Z2.0000
G00 X28.6750 Y-54.3750
G01 Z-1.8000
G01 Z0
G00 Z2.0000
G00 X29.0000 Y-57.4000
G01 Z-1.8000
G01 Z0
G00 Z2.0000
G00 X23.7500 Y-60.9000
G01 Z-1.8000
G01 Z0
G00 Z2.0000
G00 X18.7500 Y-60.9000
G01 Z-1.8000
G01 Z0
G00 Z2.0000
G00 X16.3300 Y-60.9000
G01 Z-1.8000
G01 Z0
G00 Z2.0000
G00 X16.3300 Y-57.4000
G01 Z-1.8000
G01 Z0
G00 Z2.0000
G00 X18.8400 Y-57.4000
G01 Z-1.8000
G01 Z0
G00 Z2.0000
G00 X16.3300 Y-53.9000
G01 Z-1.8000
G01 Z0
G00 Z2.0000
G00 X23.0000 Y-53.4000
G01 Z-1.8000
G01 Z0
G00 Z2.0000
G00 X23.0000 Y-48.4000
G01 Z-1.8000
G01 Z0
G00 Z2.0000
G00 X18.2500 Y-48.4000
G01 Z-1.8000
G01 Z0
G00 Z2.0000
G00 X18.2500 Y-45.9000
G01 Z-1.8000
G01 Z0
G00 Z2.0000
G00 X11.0000 Y-48.4000
G01 Z-1.8000
G01 Z0
G00 Z2.0000
G00 X11.0000 Y-45.9000
G01 Z-1.8000
G01 Z0
G00 Z2.0000
G00 X6.1700 Y-39.3000
G01 Z-1.8000
G01 Z0
G00 Z2.0000
G00 X6.1700 Y-35.8000
G01 Z-1.8000
G01 Z0
G00 Z2.0000
G00 X6.1700 Y-32.3000
G01 Z-1.8000
G01 Z0
G00 Z2.0000
G00 X2.7500 Y-31.7200
G01 Z-1.8000
G01 Z0
G00 Z2.0000
G00 X2.7500 Y-34.2600
G01 Z-1.8000
G01 Z0
G00 Z2.0000
G00 X2.7500 Y-36.8000
G01 Z-1.8000
G01 Z0
G00 Z2.0000
G00 X2.7500 Y-39.3400
G01 Z-1.8000
G01 Z0
G00 Z2.0000
G00 X3.7500 Y-45.9000
G01 Z-1.8000
G01 Z0
G00 Z2.0000
G00 X3.7500 Y-48.4000
G01 Z-1.8000
G01 Z0
G00 Z2.0000
G00 X2.7500 Y-53.3200
G01 Z-1.8000
G01 Z0
G00 Z2.0000
G00 X6.1700 Y-53.9000
G01 Z-1.8000
G01 Z0
G00 Z2.0000
G00 X6.1700 Y-57.4000
G01 Z-1.8000
G01 Z0
G00 Z2.0000
G00 X2.7500 Y-55.8600
G01 Z-1.8000
G01 Z0
G00 Z2.0000
G00 X2.7500 Y-58.4000
G01 Z-1.8000
G01 Z0
G00 Z2.0000
G00 X2.7500 Y-60.9400
G01 Z-1.8000
G01 Z0
G00 Z2.0000
G00 X6.1700 Y-60.9000
G01 Z-1.8000
G01 Z0
G00 Z2.0000
G00 X3.7500 Y-67.4000
G01 Z-1.8000
G01 Z0
G00 Z2.0000
G00 X3.7500 Y-69.9000
G01 Z-1.8000
G01 Z0
G00 Z2.0000
M05
G00 Z0.50


